; generated by Slic3r 1.3.0 on 2021-07-08 at 22:54:00

; external perimeters extrusion width = 0.44mm (3.38mm^3/s)
; perimeters extrusion width = 0.48mm (7.54mm^3/s)
; infill extrusion width = 0.48mm (10.05mm^3/s)
; solid infill extrusion width = 0.48mm (2.51mm^3/s)
; top infill extrusion width = 0.48mm (1.88mm^3/s)

M107
M190 S65 ; set bed temperature and wait for it to be reached
M104 S205 ; set temperature
G28 ; home all axes
G1 Z5 F5000 ; lift nozzle

; Filament gcode

M109 S205 ; set temperature and wait for it to be reached
G21 ; set units to millimeters
G90 ; use absolute coordinates
M82 ; use absolute distances for extrusion
G92 E0
G1 Z0.400 F7800.000
G1 E-2.00000 F2400.00000
G92 E0
G1 X98.789 Y88.148 F7800.000
G1 E2.00000 F2400.00000
G1 F1800
G1 X100.332 Y86.662 E2.25436
G1 X103.787 Y84.264 E2.75393
G1 X105.883 Y83.293 E3.02815
G1 X107.615 Y83.066 E3.23571
G1 X127.615 Y83.066 E5.61102
G1 X129.890 Y83.463 E5.88524
G1 X131.895 Y84.607 E6.15947
G1 X133.870 Y87.339 E6.55981
G1 X137.194 Y95.857 E7.64577
G1 X148.625 Y127.255 E11.61413
G1 X148.845 Y127.911 E11.69635
G1 X149.071 Y128.699 E11.79378
G1 X149.259 Y129.499 E11.89127
G1 X149.407 Y130.305 E11.98866
G1 X149.548 Y131.446 E12.12518
G1 X149.612 Y132.755 E12.28086
G1 X149.612 Y135.385 E12.59316
G1 X149.548 Y136.694 E12.74884
G1 X149.407 Y137.835 E12.88539
G1 X149.255 Y138.657 E12.98467
G1 X148.940 Y139.914 E13.13851
G1 X148.580 Y141.005 E13.27505
G1 X148.078 Y142.216 E13.43075
G1 X147.561 Y143.243 E13.56729
G1 X146.887 Y144.368 E13.72299
G1 X146.225 Y145.308 E13.85953
G1 X145.394 Y146.321 E14.01522
G1 X144.601 Y147.154 E14.15177
G1 X143.629 Y148.035 E14.30756
G1 X142.723 Y148.741 E14.44400
G1 X141.633 Y149.470 E14.59971
G1 X140.633 Y150.036 E14.73623
G1 X139.896 Y150.398 E14.83367
G1 X138.685 Y150.900 E14.98935
G1 X137.594 Y151.260 E15.12591
G1 X136.322 Y151.579 E15.28158
G1 X135.515 Y151.727 E15.37904
G1 X134.374 Y151.868 E15.51555
G1 X133.555 Y151.920 E15.61298
G1 X132.900 Y151.934 E15.69084
G1 X102.100 Y151.934 E19.34881
G1 X101.115 Y151.904 E19.46581
G1 X99.826 Y151.777 E19.61964
G1 X99.001 Y151.643 E19.71891
G1 X98.199 Y151.471 E19.81635
G1 X97.406 Y151.260 E19.91376
G1 X96.625 Y151.011 E20.01120
G1 X95.857 Y150.723 E20.10861
G1 X94.806 Y150.258 E20.24506
G1 X94.077 Y149.881 E20.34259
G1 X93.367 Y149.470 E20.43999
G1 X92.678 Y149.024 E20.53744
G1 X92.012 Y148.545 E20.63486
G1 X90.999 Y147.714 E20.79055
G1 X90.399 Y147.154 E20.88797
G1 X89.828 Y146.565 E20.98540
G1 X89.286 Y145.949 E21.08285
G1 X88.579 Y145.043 E21.21937
G1 X88.113 Y144.368 E21.31679
G1 X87.681 Y143.670 E21.41422
G1 X87.277 Y142.939 E21.51341
G1 X86.723 Y141.768 E21.66733
G1 X86.420 Y141.005 E21.76476
G1 X86.060 Y139.914 E21.90124
G1 X85.849 Y139.121 E21.99873
G1 X85.677 Y138.319 E22.09614
G1 X85.545 Y137.509 E22.19355
G1 X85.452 Y136.694 E22.29100
G1 X85.400 Y135.875 E22.38843
G1 X85.386 Y135.220 E22.46629
G1 X85.386 Y132.920 E22.73945
G1 X85.416 Y131.935 E22.85644
G1 X85.484 Y131.118 E22.95387
G1 X85.677 Y129.821 E23.10955
G1 X85.849 Y129.019 E23.20698
G1 X86.113 Y128.045 E23.32687
G1 X97.742 Y90.206 E28.02828
G1 X98.762 Y88.202 E28.29538
G1 E26.29538 F2400.00000
G92 E0
G1 X123.838 Y137.823 F7800.000
G1 E2.00000 F2400.00000
G1 F1800
G1 X123.757 Y138.223 E2.04845
G1 X123.578 Y138.808 E2.12109
G1 X123.341 Y139.372 E2.19374
G1 X123.049 Y139.909 E2.26638
G1 X122.705 Y140.415 E2.33902
G1 X122.312 Y140.884 E2.41167
G1 X121.874 Y141.311 E2.48431
G1 X121.396 Y141.694 E2.55704
G1 X120.864 Y142.037 E2.63231
G1 X120.070 Y142.420 E2.73692
G1 X119.478 Y142.620 E2.81118
G1 X118.881 Y142.756 E2.88382
G1 X118.275 Y142.833 E2.95647
G1 X117.663 Y142.849 E3.02911
G1 X117.039 Y142.803 E3.10341
G1 X116.167 Y142.627 E3.20904
G1 X115.574 Y142.429 E3.28334
G1 X115.016 Y142.178 E3.35598
G1 X114.486 Y141.872 E3.42863
G1 X113.989 Y141.516 E3.50127
G1 X113.530 Y141.112 E3.57391
G1 X113.114 Y140.664 E3.64656
G1 X112.752 Y140.187 E3.71765
G1 X112.567 Y139.899 E3.75825
G1 X112.285 Y139.382 E3.82820
G1 X112.047 Y138.819 E3.90082
G1 X111.870 Y138.247 E3.97191
G1 X111.776 Y137.835 E4.02212
G1 X102.288 Y137.845 E5.14897
G1 X101.758 Y137.819 E5.21194
G1 X100.968 Y137.680 E5.30725
G1 X100.201 Y137.422 E5.40334
G1 X99.705 Y137.184 E5.46873
G1 X99.228 Y136.893 E5.53497
G1 X98.601 Y136.394 E5.63022
G1 X98.046 Y135.796 E5.72712
G1 X97.585 Y135.122 E5.82403
G1 X97.231 Y134.387 E5.92093
G1 X96.990 Y133.608 E6.01784
G1 X96.868 Y132.801 E6.11474
G1 X96.868 Y131.985 E6.21165
G1 X96.989 Y131.178 E6.30855
G1 X97.229 Y130.398 E6.40546
G1 X97.583 Y129.663 E6.50236
G1 X98.042 Y128.989 E6.59927
G1 X98.597 Y128.390 E6.69617
G1 X99.235 Y127.882 E6.79308
G1 X99.941 Y127.474 E6.88998
G1 X100.701 Y127.175 E6.98689
G1 X101.496 Y126.994 E7.08379
G1 X102.268 Y126.936 E7.17573
G1 X132.830 Y126.936 E10.80544
G1 X133.583 Y126.992 E10.89511
G1 X134.127 Y127.101 E10.96093
G1 X134.643 Y127.259 E11.02511
G1 X135.142 Y127.468 E11.08929
G1 X135.617 Y127.725 E11.15347
G1 X136.065 Y128.028 E11.21765
G1 X136.480 Y128.373 E11.28183
G1 X136.860 Y128.758 E11.34601
G1 X137.199 Y129.178 E11.41019
G1 X137.495 Y129.631 E11.47437
G1 X137.745 Y130.110 E11.53855
G1 X137.946 Y130.611 E11.60273
G1 X138.097 Y131.130 E11.66691
G1 X138.196 Y131.661 E11.73109
G1 X138.241 Y132.200 E11.79527
G1 X138.233 Y132.740 E11.85945
G1 X138.171 Y133.291 E11.92527
G1 X137.983 Y134.065 E12.01987
G1 X137.683 Y134.804 E12.11455
G1 X137.401 Y135.305 E12.18287
G1 X136.934 Y135.941 E12.27658
G1 X136.362 Y136.515 E12.37280
G1 X135.712 Y136.999 E12.46905
G1 X134.997 Y137.381 E12.56530
G1 X134.234 Y137.653 E12.66155
G1 X133.414 Y137.814 E12.76073
G1 X123.898 Y137.823 E13.89099
G1 X123.221 Y137.110 F7800.000
G1 F1800
G1 X123.170 Y137.522 E13.94039
G1 X123.064 Y138.047 E14.00398
G1 X122.905 Y138.564 E14.06816
G1 X122.696 Y139.062 E14.13233
G1 X122.438 Y139.537 E14.19651
G1 X122.134 Y139.984 E14.26069
G1 X121.787 Y140.398 E14.32487
G1 X121.401 Y140.776 E14.38905
G1 X120.978 Y141.113 E14.45325
G1 X120.513 Y141.413 E14.51898
G1 X119.800 Y141.757 E14.61305
G1 X119.283 Y141.931 E14.67781
G1 X118.757 Y142.052 E14.74199
G1 X118.220 Y142.120 E14.80616
G1 X117.680 Y142.134 E14.87034
G1 X117.136 Y142.094 E14.93511
G1 X116.352 Y141.936 E15.03015
G1 X115.835 Y141.763 E15.09493
G1 X115.342 Y141.541 E15.15910
G1 X114.874 Y141.271 E15.22328
G1 X114.435 Y140.956 E15.28746
G1 X114.029 Y140.599 E15.35164
G1 X113.661 Y140.203 E15.41582
G1 X113.337 Y139.777 E15.47944
G1 X113.181 Y139.534 E15.51367
G1 X112.929 Y139.072 E15.57628
G1 X112.718 Y138.574 E15.64045
G1 X112.560 Y138.062 E15.70407
G1 X112.496 Y137.781 E15.73830
G1 X112.396 Y137.120 E15.81768
G1 X102.305 Y137.130 E17.01615
G1 X101.838 Y137.108 E17.07170
G1 X101.144 Y136.986 E17.15532
G1 X100.470 Y136.760 E17.23974
G1 X100.046 Y136.555 E17.29564
G1 X99.638 Y136.307 E17.35237
G1 X99.088 Y135.868 E17.43596
G1 X98.605 Y135.349 E17.52015
G1 X98.205 Y134.764 E17.60434
G1 X97.897 Y134.125 E17.68853
G1 X97.688 Y133.448 E17.77272
G1 X97.582 Y132.747 E17.85691
G1 X97.582 Y132.038 E17.94109
G1 X97.687 Y131.337 E18.02528
G1 X97.896 Y130.660 E18.10947
G1 X98.203 Y130.021 E18.19366
G1 X98.602 Y129.435 E18.27785
G1 X99.084 Y128.915 E18.36204
G1 X99.638 Y128.473 E18.44623
G1 X100.252 Y128.119 E18.53041
G1 X100.912 Y127.860 E18.61460
G1 X101.603 Y127.702 E18.69879
G1 X102.295 Y127.650 E18.78120
G1 X132.804 Y127.650 E22.40458
G1 X133.486 Y127.701 E22.48584
G1 X133.951 Y127.794 E22.54219
G1 X134.400 Y127.932 E22.59796
G1 X134.833 Y128.113 E22.65373
G1 X135.247 Y128.336 E22.70950
G1 X135.636 Y128.599 E22.76527
G1 X135.997 Y128.900 E22.82103
G1 X136.326 Y129.234 E22.87680
G1 X136.621 Y129.599 E22.93257
G1 X136.878 Y129.992 E22.98834
G1 X137.096 Y130.409 E23.04411
G1 X137.271 Y130.844 E23.09987
G1 X137.401 Y131.295 E23.15564
G1 X137.487 Y131.757 E23.21141
G1 X137.527 Y132.225 E23.26718
G1 X137.520 Y132.694 E23.32295
G1 X137.466 Y133.166 E23.37931
G1 X137.301 Y133.845 E23.46233
G1 X137.038 Y134.493 E23.54539
G1 X136.800 Y134.917 E23.60316
G1 X136.390 Y135.475 E23.68535
G1 X135.893 Y135.974 E23.76896
G1 X135.329 Y136.394 E23.85258
G1 X134.708 Y136.726 E23.93620
G1 X134.044 Y136.962 E24.01982
G1 X133.345 Y137.100 E24.10449
G1 X123.281 Y137.110 E25.29970
G1 X123.394 Y137.471 F7800.000
G1 E23.29970 F2400.00000
G92 E0
G1 X119.822 Y124.748 F7800.000
G1 E2.00000 F2400.00000
G1 F1800
G1 X132.876 Y124.748 E3.55042
G1 X133.292 Y124.759 E3.59986
G1 X134.121 Y124.841 E3.69873
G1 X134.472 Y124.902 E3.74107
G1 X135.293 Y125.108 E3.84162
G1 X135.631 Y125.219 E3.88392
G1 X136.393 Y125.535 E3.98180
G1 X137.120 Y125.923 E4.07969
G1 X137.421 Y126.114 E4.12203
G1 X138.090 Y126.610 E4.22090
G1 X138.371 Y126.852 E4.26500
G1 X138.953 Y127.434 E4.36272
G1 X139.462 Y128.053 E4.45794
G1 X139.907 Y128.720 E4.55320
G1 X140.290 Y129.435 E4.64940
G1 X140.441 Y129.774 E4.69350
G1 X140.718 Y130.549 E4.79122
G1 X140.913 Y131.326 E4.88644
G1 X141.030 Y132.119 E4.98165
G1 X141.071 Y132.961 E5.08174
G1 X141.060 Y135.639 E5.39985
G1 X141.033 Y135.999 E5.44261
G1 X140.913 Y136.814 E5.54050
G1 X140.718 Y137.591 E5.63571
G1 X140.448 Y138.346 E5.73093
G1 X140.105 Y139.071 E5.82614
G1 X139.681 Y139.778 E5.92403
G1 X139.221 Y140.396 E6.01557
G1 X138.662 Y141.013 E6.11444
G1 X138.101 Y141.522 E6.20439
G1 X137.439 Y142.013 E6.30227
G1 X136.751 Y142.425 E6.39749
G1 X136.026 Y142.768 E6.49270
G1 X135.271 Y143.038 E6.58792
G1 X134.473 Y143.238 E6.68564
G1 X134.107 Y143.301 E6.72974
G1 X133.301 Y143.380 E6.82594
G1 X120.491 Y143.380 E8.34739
G1 X120.415 Y143.047 E8.38796
G1 X121.214 Y142.661 E8.49331
G1 X121.814 Y142.274 E8.57814
G1 X122.348 Y141.847 E8.65938
G1 X122.836 Y141.370 E8.74049
G1 X123.275 Y140.846 E8.82160
G1 X123.659 Y140.281 E8.90271
G1 X123.985 Y139.681 E8.98382
G1 X124.250 Y139.052 E9.06493
G1 X124.408 Y138.537 E9.12890
G1 X133.484 Y138.528 E10.20683
G1 X134.424 Y138.343 E10.32052
G1 X135.287 Y138.036 E10.42941
G1 X136.096 Y137.604 E10.53829
G1 X136.831 Y137.056 E10.64717
G1 X137.477 Y136.407 E10.75599
G1 X138.003 Y135.693 E10.86123
G1 X138.327 Y135.114 E10.94009
G1 X138.665 Y134.285 E11.04639
G1 X138.875 Y133.416 E11.15257
G1 X138.947 Y132.786 E11.22786
G1 X138.956 Y132.175 E11.30045
G1 X138.904 Y131.566 E11.37304
G1 X138.793 Y130.965 E11.44563
G1 X138.622 Y130.378 E11.51822
G1 X138.395 Y129.811 E11.59081
G1 X138.112 Y129.269 E11.66340
G1 X137.777 Y128.758 E11.73599
G1 X137.393 Y128.282 E11.80858
G1 X136.964 Y127.847 E11.88118
G1 X136.494 Y127.456 E11.95377
G1 X135.988 Y127.113 E12.02636
G1 X135.450 Y126.823 E12.09895
G1 X134.886 Y126.587 E12.17154
G1 X134.302 Y126.408 E12.24413
G1 X133.680 Y126.283 E12.31942
G1 X132.857 Y126.222 E12.41750
G1 X102.242 Y126.222 E16.05354
G1 X101.390 Y126.286 E16.15501
G1 X100.490 Y126.491 E16.26463
G1 X99.631 Y126.828 E16.37425
G1 X98.831 Y127.290 E16.48387
G1 X98.110 Y127.866 E16.59350
G1 X97.482 Y128.542 E16.70312
G1 X96.962 Y129.305 E16.81274
G1 X96.562 Y130.137 E16.92236
G1 X96.291 Y131.019 E17.03198
G1 X96.153 Y131.932 E17.14160
G1 X96.154 Y132.855 E17.25122
G1 X96.292 Y133.767 E17.36085
G1 X96.564 Y134.649 E17.47047
G1 X96.965 Y135.481 E17.58009
G1 X97.486 Y136.243 E17.68971
G1 X98.114 Y136.919 E17.79933
G1 X98.818 Y137.480 E17.90623
G1 X99.363 Y137.812 E17.98199
G1 X99.931 Y138.085 E18.05686
G1 X100.791 Y138.374 E18.16462
G1 X101.679 Y138.530 E18.27163
G1 X102.271 Y138.559 E18.34201
G1 X111.216 Y138.550 E19.40437
G1 X111.375 Y139.064 E19.46835
G1 X111.641 Y139.693 E19.54941
G1 X111.952 Y140.264 E19.62670
G1 X112.167 Y140.597 E19.67366
G1 X112.567 Y141.124 E19.75223
G1 X113.032 Y141.624 E19.83334
G1 X113.544 Y142.075 E19.91445
G1 X114.099 Y142.473 E19.99556
G1 X114.691 Y142.814 E20.07667
G1 X115.195 Y143.041 E20.14231
G1 X115.122 Y143.380 E20.18344
G1 X101.699 Y143.380 E21.77766
G1 X100.893 Y143.301 E21.87386
G1 X100.527 Y143.238 E21.91796
G1 X99.729 Y143.038 E22.01568
G1 X98.953 Y142.760 E22.11357
G1 X98.268 Y142.436 E22.20347
G1 X97.561 Y142.013 E22.30136
G1 X96.917 Y141.535 E22.39657
G1 X96.323 Y140.997 E22.49179
G1 X95.770 Y140.386 E22.58967
G1 X95.551 Y140.105 E22.63197
G1 X95.093 Y139.420 E22.72986
G1 X94.715 Y138.713 E22.82507
G1 X94.408 Y137.972 E22.92029
G1 X94.175 Y137.205 E23.01550
G1 X94.019 Y136.419 E23.11072
G1 X93.940 Y135.617 E23.20640
G1 X93.929 Y132.961 E23.52185
G1 X93.970 Y132.119 E23.62193
G1 X94.087 Y131.326 E23.71715
G1 X94.282 Y130.549 E23.81236
G1 X94.560 Y129.773 E23.91025
G1 X94.704 Y129.447 E23.95259
G1 X95.097 Y128.712 E24.05146
G1 X95.295 Y128.398 E24.09556
G1 X95.785 Y127.737 E24.19328
G1 X96.324 Y127.143 E24.28854
G1 X96.924 Y126.599 E24.38474
G1 X97.216 Y126.370 E24.42884
G1 X97.900 Y125.913 E24.52656
G1 X98.607 Y125.535 E24.62178
G1 X99.369 Y125.219 E24.71966
G1 X99.707 Y125.108 E24.76196
G1 X100.506 Y124.907 E24.85985
G1 X101.299 Y124.790 E24.95506
G1 X102.145 Y124.748 E25.05562
G1 X115.178 Y124.748 E26.60353
G1 X115.178 Y98.632 E29.70528
G1 X109.428 Y98.632 E30.38818
G1 X109.428 Y92.641 E31.09971
G1 X107.804 Y91.875 E31.31303
G1 X108.188 Y91.608 E31.36852
G1 X125.787 Y91.608 E33.45872
G1 X125.787 Y97.525 E34.16147
G1 X127.283 Y98.357 E34.36482
G1 X126.826 Y98.632 E34.42820
G1 X119.822 Y98.632 E35.26003
G1 X119.822 Y124.688 E38.35466
G1 X120.536 Y124.034 F7800.000
G1 F1800
G1 X132.885 Y124.034 E39.82136
G1 X133.337 Y124.046 E39.87498
G1 X134.217 Y124.133 E39.98003
G1 X134.620 Y124.203 E40.02861
G1 X135.492 Y124.421 E40.13541
G1 X135.880 Y124.550 E40.18395
G1 X136.699 Y124.889 E40.28913
G1 X137.480 Y125.306 E40.39431
G1 X137.825 Y125.525 E40.44288
G1 X138.536 Y126.051 E40.54793
G1 X138.857 Y126.328 E40.59830
G1 X139.483 Y126.954 E40.70338
G1 X140.036 Y127.628 E40.80692
G1 X140.521 Y128.353 E40.91050
G1 X140.931 Y129.120 E41.01393
G1 X141.104 Y129.508 E41.06429
G1 X141.402 Y130.341 E41.16937
G1 X141.614 Y131.187 E41.27292
G1 X141.742 Y132.049 E41.37647
G1 X141.786 Y132.945 E41.48298
G1 X141.774 Y135.667 E41.80630
G1 X141.744 Y136.077 E41.85513
G1 X141.614 Y136.953 E41.96031
G1 X141.402 Y137.799 E42.06386
G1 X141.108 Y138.620 E42.16741
G1 X140.735 Y139.408 E42.27096
G1 X140.280 Y140.168 E42.37613
G1 X139.768 Y140.857 E42.47816
G1 X139.173 Y141.512 E42.58322
G1 X138.547 Y142.080 E42.68355
G1 X137.836 Y142.607 E42.78873
G1 X137.088 Y143.055 E42.89228
G1 X136.300 Y143.428 E42.99583
G1 X135.479 Y143.722 E43.09938
G1 X134.621 Y143.937 E43.20446
G1 X134.203 Y144.009 E43.25482
G1 X133.336 Y144.094 E43.35825
G1 X101.664 Y144.094 E47.11982
G1 X100.797 Y144.009 E47.22325
G1 X100.379 Y143.937 E47.27361
G1 X99.521 Y143.722 E47.37869
G1 X98.687 Y143.424 E47.48387
G1 X98.301 Y143.252 E47.53404
G1 X97.924 Y143.062 E47.58421
G1 X97.164 Y142.607 E47.68938
G1 X96.464 Y142.088 E47.79293
G1 X95.818 Y141.502 E47.89648
G1 X95.223 Y140.846 E48.00166
G1 X94.972 Y140.524 E48.05020
G1 X94.480 Y139.788 E48.15538
G1 X94.069 Y139.019 E48.25893
G1 X93.735 Y138.213 E48.36248
G1 X93.482 Y137.379 E48.46603
G1 X93.312 Y136.524 E48.56958
G1 X93.226 Y135.654 E48.67341
G1 X93.214 Y132.945 E48.99510
G1 X93.258 Y132.049 E49.10162
G1 X93.386 Y131.187 E49.20517
G1 X93.598 Y130.341 E49.30872
G1 X93.896 Y129.507 E49.41389
G1 X94.062 Y129.133 E49.46247
G1 X94.479 Y128.353 E49.56752
G1 X94.705 Y127.994 E49.61789
G1 X95.232 Y127.284 E49.72296
G1 X95.818 Y126.638 E49.82654
G1 X96.463 Y126.052 E49.92996
G1 X96.797 Y125.791 E49.98033
G1 X97.532 Y125.300 E50.08541
G1 X98.301 Y124.889 E50.18896
G1 X99.120 Y124.550 E50.29413
G1 X99.508 Y124.421 E50.34268
G1 X100.367 Y124.206 E50.44785
G1 X101.229 Y124.078 E50.55140
G1 X102.127 Y124.034 E50.65821
G1 X114.464 Y124.034 E52.12339
G1 X114.464 Y99.346 E55.05550
G1 X108.714 Y99.346 E55.73840
G1 X108.714 Y93.093 E56.48096
G1 X106.380 Y91.993 E56.78741
G1 X107.964 Y90.894 E57.01635
G1 X126.501 Y90.894 E59.21792
G1 X126.501 Y97.105 E59.95559
G1 X128.712 Y98.334 E60.25596
G1 X127.023 Y99.346 E60.48971
G1 X120.536 Y99.346 E61.26020
G1 X120.536 Y123.974 E64.18518
G1 X121.250 Y123.320 F7800.000
G1 F1800
G1 X132.895 Y123.320 E65.56818
G1 X133.381 Y123.333 E65.62598
G1 X134.313 Y123.425 E65.73721
G1 X134.768 Y123.504 E65.79202
G1 X135.691 Y123.735 E65.90507
G1 X136.129 Y123.880 E65.95986
G1 X137.004 Y124.242 E66.07233
