; generated by Slic3r 1.3.0 on 2021-07-09 at 22:07:05

; external perimeters extrusion width = 0.44mm (3.38mm^3/s)
; perimeters extrusion width = 0.48mm (7.54mm^3/s)
; infill extrusion width = 0.48mm (10.05mm^3/s)
; solid infill extrusion width = 0.48mm (2.51mm^3/s)
; top infill extrusion width = 0.48mm (1.88mm^3/s)

M107
M190 S65 ; set bed temperature and wait for it to be reached
M104 S205 ; set temperature
G28 ; home all axes
G1 Z5 F5000 ; lift nozzle

; Filament gcode

M109 S205 ; set temperature and wait for it to be reached
G21 ; set units to millimeters
G90 ; use absolute coordinates
M82 ; use absolute distances for extrusion
G92 E0
G1 Z0.400 F7800.000
G1 E-2.00000 F2400.00000
G92 E0
G1 X71.046 Y116.908 F7800.000
G1 E2.00000 F2400.00000
G1 F1800
G1 X127.846 Y60.368 E11.51828
G1 X130.329 Y58.802 E11.86693
G1 X133.602 Y57.635 E12.27958
G1 X135.856 Y57.246 E12.55121
G1 X156.016 Y57.246 E14.94552
G1 X158.290 Y57.643 E15.21974
G1 X160.366 Y58.846 E15.50469
G1 X163.603 Y61.600 E16.00944
G1 X165.079 Y63.376 E16.28366
G1 X165.576 Y64.457 E16.42501
G1 X177.039 Y96.574 E20.47508
G1 X177.340 Y97.506 E20.59142
G1 X177.551 Y98.299 E20.68886
G1 X177.723 Y99.101 E20.78628
G1 X177.855 Y99.911 E20.88370
G1 X177.984 Y101.215 E21.03940
G1 X178.014 Y102.200 E21.15639
G1 X178.014 Y104.500 E21.42955
G1 X178.000 Y105.155 E21.50741
G1 X177.948 Y105.974 E21.60487
G1 X177.855 Y106.789 E21.70226
G1 X177.723 Y107.599 E21.79968
G1 X177.471 Y108.721 E21.93623
G1 X177.091 Y109.975 E22.09195
G1 X176.803 Y110.743 E22.18935
G1 X176.478 Y111.496 E22.28677
G1 X175.961 Y112.523 E22.42332
G1 X175.550 Y113.233 E22.52074
G1 X175.104 Y113.922 E22.61816
G1 X174.625 Y114.588 E22.71559
G1 X174.114 Y115.229 E22.81302
G1 X173.572 Y115.845 E22.91043
G1 X173.108 Y116.330 E22.99013
G1 X116.308 Y172.870 E32.50841
G1 X115.601 Y173.534 E32.62357
G1 X114.588 Y174.365 E32.77926
G1 X113.922 Y174.844 E32.87669
G1 X112.950 Y175.459 E33.01324
G1 X112.233 Y175.856 E33.11065
G1 X111.496 Y176.218 E33.20809
G1 X110.285 Y176.720 E33.36376
G1 X109.509 Y176.985 E33.46120
G1 X108.721 Y177.211 E33.55862
G1 X107.599 Y177.463 E33.69516
G1 X106.789 Y177.595 E33.79259
G1 X105.485 Y177.724 E33.94828
G1 X104.500 Y177.754 E34.06527
G1 X73.700 Y177.754 E37.72324
G1 X73.045 Y177.740 E37.80110
G1 X72.226 Y177.688 E37.89855
G1 X71.411 Y177.595 E37.99595
G1 X70.601 Y177.463 E38.09338
G1 X69.799 Y177.291 E38.19080
G1 X68.691 Y176.985 E38.32734
G1 X67.915 Y176.720 E38.42477
G1 X67.093 Y176.390 E38.52996
G1 X65.967 Y175.856 E38.67788
G1 X65.250 Y175.459 E38.77530
G1 X64.552 Y175.027 E38.87273
G1 X63.877 Y174.561 E38.97018
G1 X63.225 Y174.063 E39.06760
G1 X62.355 Y173.312 E39.20411
G1 X61.766 Y172.741 E39.30155
G1 X61.206 Y172.141 E39.39898
G1 X60.677 Y171.515 E39.49640
G1 X60.179 Y170.863 E39.59381
G1 X59.713 Y170.188 E39.69125
G1 X59.281 Y169.490 E39.78868
G1 X58.692 Y168.393 E39.93659
G1 X58.323 Y167.588 E40.04179
G1 X58.020 Y166.825 E40.13922
G1 X57.755 Y166.049 E40.23664
G1 X57.449 Y164.941 E40.37317
G1 X57.277 Y164.139 E40.47061
G1 X57.092 Y162.907 E40.61853
G1 X57.016 Y162.025 E40.72372
G1 X56.986 Y161.040 E40.84071
G1 X56.986 Y158.740 E41.11387
G1 X57.016 Y157.755 E41.23086
G1 X57.084 Y156.938 E41.32828
G1 X57.193 Y156.125 E41.42571
G1 X57.341 Y155.318 E41.52313
G1 X57.660 Y154.046 E41.67882
G1 X57.930 Y153.203 E41.78398
G1 X69.428 Y119.498 E46.01347
G1 X71.014 Y116.959 E46.36909
G1 E44.36909 F2400.00000
G92 E0
G1 X152.808 Y107.007 F7800.000
G1 E2.00000 F2400.00000
G1 F1800
G1 X152.650 Y107.522 E2.06397
G1 X152.385 Y108.151 E2.14508
G1 X152.059 Y108.751 E2.22619
G1 X151.675 Y109.316 E2.30730
G1 X151.236 Y109.840 E2.38841
G1 X150.748 Y110.317 E2.46953
G1 X150.215 Y110.743 E2.55064
G1 X149.639 Y111.116 E2.63199
G1 X148.996 Y111.444 E2.71781
G1 X148.093 Y111.773 E2.83190
G1 X147.406 Y111.930 E2.91561
G1 X146.729 Y112.016 E2.99672
G1 X146.046 Y112.034 E3.07783
G1 X145.365 Y111.983 E3.15894
G1 X144.712 Y111.869 E3.23766
G1 X144.321 Y111.768 E3.28559
G1 X143.713 Y111.564 E3.36180
G1 X143.091 Y111.284 E3.44282
G1 X142.499 Y110.943 E3.52393
G1 X141.944 Y110.545 E3.60504
G1 X141.432 Y110.094 E3.68606
G1 X140.995 Y109.625 E3.76227
G1 X140.742 Y109.310 E3.81021
G1 X140.368 Y108.763 E3.88893
G1 X140.041 Y108.164 E3.97004
G1 X139.775 Y107.534 E4.05115
G1 X139.616 Y107.020 E4.11512
G1 X130.671 Y107.029 E5.17748
G1 X130.102 Y107.001 E5.24514
G1 X129.493 Y106.910 E5.31823
G1 X128.874 Y106.753 E5.39403
G1 X128.036 Y106.425 E5.50093
G1 X127.236 Y105.964 E5.61055
G1 X126.514 Y105.389 E5.72017
G1 X125.886 Y104.713 E5.82979
G1 X125.365 Y103.951 E5.93942
G1 X124.964 Y103.119 E6.04904
G1 X124.692 Y102.237 E6.15866
G1 X124.554 Y101.325 E6.26828
G1 X124.553 Y100.402 E6.37790
G1 X124.691 Y99.489 E6.48752
G1 X124.962 Y98.607 E6.59714
G1 X125.362 Y97.775 E6.70677
G1 X125.882 Y97.012 E6.81639
G1 X126.510 Y96.336 E6.92601
G1 X127.231 Y95.760 E7.03563
G1 X128.031 Y95.298 E7.14525
G1 X128.890 Y94.961 E7.25487
G1 X129.790 Y94.756 E7.36449
G1 X130.642 Y94.692 E7.46596
G1 X161.257 Y94.692 E11.10200
G1 X162.080 Y94.753 E11.20009
G1 X162.702 Y94.878 E11.27537
G1 X163.286 Y95.057 E11.34796
G1 X163.850 Y95.293 E11.42056
G1 X164.388 Y95.583 E11.49315
G1 X164.894 Y95.926 E11.56574
G1 X165.364 Y96.317 E11.63833
G1 X165.793 Y96.752 E11.71092
G1 X166.177 Y97.228 E11.78351
G1 X166.512 Y97.739 E11.85610
G1 X166.795 Y98.281 E11.92869
G1 X167.022 Y98.848 E12.00128
G1 X167.193 Y99.435 E12.07387
G1 X167.304 Y100.036 E12.14647
G1 X167.356 Y100.645 E12.21906
G1 X167.347 Y101.256 E12.29165
G1 X167.275 Y101.886 E12.36694
G1 X167.065 Y102.755 E12.47311
G1 X166.719 Y103.604 E12.58199
G1 X166.252 Y104.393 E12.69088
G1 X165.673 Y105.104 E12.79976
G1 X165.010 Y105.707 E12.90618
G1 X164.461 Y106.093 E12.98589
G1 X163.686 Y106.506 E13.09021
G1 X162.824 Y106.813 E13.19898
G1 X161.884 Y106.998 E13.31267
G1 X152.868 Y107.007 E14.38347
G1 X152.238 Y106.293 F7800.000
G1 F1800
G1 X152.157 Y106.693 E14.43192
G1 X151.978 Y107.278 E14.50457
G1 X151.741 Y107.842 E14.57721
G1 X151.449 Y108.379 E14.64985
G1 X151.105 Y108.885 E14.72250
G1 X150.712 Y109.354 E14.79514
G1 X150.274 Y109.781 E14.86779
G1 X149.797 Y110.163 E14.94043
G1 X149.282 Y110.496 E15.01323
G1 X148.710 Y110.788 E15.08947
G1 X147.891 Y111.087 E15.19307
G1 X147.281 Y111.226 E15.26730
G1 X146.675 Y111.303 E15.33994
G1 X146.063 Y111.319 E15.41259
G1 X145.453 Y111.274 E15.48523
G1 X144.863 Y111.170 E15.55642
G1 X144.524 Y111.083 E15.59797
G1 X143.974 Y110.898 E15.66690
G1 X143.416 Y110.648 E15.73949
G1 X142.886 Y110.342 E15.81213
G1 X142.389 Y109.986 E15.88477
G1 X141.931 Y109.582 E15.95736
G1 X141.535 Y109.157 E16.02629
G1 X141.316 Y108.884 E16.06784
G1 X140.978 Y108.390 E16.13903
G1 X140.685 Y107.853 E16.21167
G1 X140.447 Y107.289 E16.28432
G1 X140.269 Y106.717 E16.35551
G1 X140.176 Y106.305 E16.40561
G1 X130.688 Y106.315 E17.53252
G1 X130.172 Y106.289 E17.59384
G1 X129.634 Y106.209 E17.65845
G1 X129.093 Y106.072 E17.72472
G1 X128.346 Y105.779 E17.81997
G1 X127.639 Y105.372 E17.91688
G1 X127.001 Y104.864 E18.01378
G1 X126.446 Y104.266 E18.11069
G1 X125.985 Y103.592 E18.20759
G1 X125.631 Y102.857 E18.30450
G1 X125.390 Y102.078 E18.40140
G1 X125.268 Y101.271 E18.49831
G1 X125.268 Y100.455 E18.59521
G1 X125.389 Y99.648 E18.69212
G1 X125.629 Y98.868 E18.78902
G1 X125.983 Y98.133 E18.88593
G1 X126.442 Y97.459 E18.98283
G1 X126.997 Y96.860 E19.07974
G1 X127.635 Y96.352 E19.17664
G1 X128.341 Y95.944 E19.27355
G1 X129.101 Y95.645 E19.37045
G1 X129.896 Y95.464 E19.46736
G1 X130.668 Y95.406 E19.55929
G1 X161.230 Y95.406 E23.18900
G1 X161.983 Y95.462 E23.27867
G1 X162.527 Y95.571 E23.34450
G1 X163.043 Y95.729 E23.40868
G1 X163.542 Y95.938 E23.47286
G1 X164.017 Y96.195 E23.53704
G1 X164.465 Y96.498 E23.60122
G1 X164.880 Y96.843 E23.66539
G1 X165.260 Y97.228 E23.72957
G1 X165.599 Y97.648 E23.79375
G1 X165.895 Y98.101 E23.85793
G1 X166.145 Y98.580 E23.92211
G1 X166.346 Y99.081 E23.98629
G1 X166.497 Y99.600 E24.05047
G1 X166.596 Y100.131 E24.11465
G1 X166.641 Y100.670 E24.17883
G1 X166.633 Y101.210 E24.24301
G1 X166.571 Y101.761 E24.30883
G1 X166.383 Y102.535 E24.40344
G1 X166.078 Y103.286 E24.49969
G1 X165.665 Y103.983 E24.59594
G1 X165.153 Y104.611 E24.69219
G1 X164.563 Y105.149 E24.78694
G1 X164.087 Y105.483 E24.85609
G1 X163.397 Y105.851 E24.94893
G1 X162.634 Y106.123 E25.04511
G1 X161.814 Y106.284 E25.14430
G1 X152.298 Y106.293 E26.27455
G1 X151.602 Y105.580 F7800.000
G1 F1800
G1 X151.572 Y105.983 E26.32254
G1 X151.464 Y106.517 E26.38731
G1 X151.305 Y107.034 E26.45149
G1 X151.096 Y107.532 E26.51567
G1 X150.838 Y108.007 E26.57985
G1 X150.534 Y108.454 E26.64403
G1 X150.187 Y108.868 E26.70821
G1 X149.801 Y109.246 E26.77238
G1 X149.379 Y109.583 E26.83656
G1 X148.925 Y109.877 E26.90079
G1 X148.425 Y110.132 E26.96746
G1 X147.688 Y110.400 E27.06057
G1 X147.157 Y110.522 E27.12532
G1 X146.620 Y110.590 E27.18950
G1 X146.080 Y110.604 E27.25368
G1 X145.541 Y110.564 E27.31786
G1 X145.013 Y110.472 E27.38151
G1 X144.727 Y110.398 E27.41668
G1 X144.235 Y110.233 E27.47833
G1 X143.742 Y110.011 E27.54248
G1 X143.274 Y109.741 E27.60666
G1 X142.835 Y109.426 E27.67084
G1 X142.429 Y109.069 E27.73500
G1 X142.075 Y108.689 E27.79664
G1 X141.890 Y108.459 E27.83181
G1 X141.588 Y108.016 E27.89547
G1 X141.329 Y107.542 E27.95965
G1 X141.118 Y107.044 E28.02383
G1 X140.960 Y106.532 E28.08748
G1 X140.894 Y106.243 E28.12265
G1 X140.796 Y105.590 E28.20105
G1 X130.705 Y105.600 E29.39953
G1 X130.243 Y105.578 E29.45449
G1 X129.775 Y105.508 E29.51064
G1 X129.312 Y105.390 E29.56738
G1 X128.656 Y105.134 E29.65098
G1 X128.042 Y104.780 E29.73517
G1 X127.488 Y104.338 E29.81935
G1 X127.005 Y103.819 E29.90354
G1 X126.605 Y103.234 E29.98773
G1 X126.297 Y102.595 E30.07192
G1 X126.088 Y101.918 E30.15611
G1 X125.982 Y101.217 E30.24030
G1 X125.982 Y100.508 E30.32449
G1 X126.087 Y99.807 E30.40867
G1 X126.296 Y99.130 E30.49286
G1 X126.603 Y98.491 E30.57705
G1 X127.002 Y97.905 E30.66124
G1 X127.484 Y97.385 E30.74543
G1 X128.038 Y96.943 E30.82962
G1 X128.652 Y96.589 E30.91381
G1 X129.312 Y96.330 E30.99799
G1 X130.003 Y96.172 E31.08218
G1 X130.695 Y96.120 E31.16459
G1 X161.204 Y96.120 E34.78797
G1 X161.886 Y96.171 E34.86923
G1 X162.351 Y96.264 E34.92559
G1 X162.800 Y96.402 E34.98135
G1 X163.233 Y96.583 E35.03712
G1 X163.647 Y96.806 E35.09289
G1 X164.036 Y97.069 E35.14866
G1 X164.397 Y97.370 E35.20443
G1 X164.726 Y97.704 E35.26019
G1 X165.021 Y98.069 E35.31596
G1 X165.278 Y98.462 E35.37173
G1 X165.496 Y98.879 E35.42750
G1 X165.671 Y99.314 E35.48327
G1 X165.801 Y99.765 E35.53903
G1 X165.887 Y100.227 E35.59480
G1 X165.927 Y100.695 E35.65057
G1 X165.920 Y101.164 E35.70634
G1 X165.866 Y101.636 E35.76270
G1 X165.701 Y102.315 E35.84573
G1 X165.436 Y102.967 E35.92935
G1 X165.077 Y103.573 E36.01297
G1 X164.633 Y104.119 E36.09659
G1 X164.115 Y104.590 E36.17967
G1 X163.712 Y104.874 E36.23825
G1 X163.107 Y105.196 E36.31962
G1 X162.444 Y105.432 E36.40321
G1 X161.745 Y105.570 E36.48788
G1 X151.662 Y105.580 E37.68542
G1 X151.786 Y105.935 F7800.000
G1 E35.68542 F2400.00000
G92 E0
G1 X148.220 Y67.912 F7800.000
G1 E2.00000 F2400.00000
G1 F1800
G1 X148.234 Y82.781 E3.76600
G1 X148.345 Y83.914 E3.90111
G1 X148.452 Y84.530 E3.97540
G1 X148.729 Y85.634 E4.11062
G1 X149.120 Y86.727 E4.24850
G1 X149.616 Y87.777 E4.38639
G1 X150.213 Y88.772 E4.52419
G1 X150.870 Y89.660 E4.65542
G1 X151.298 Y90.159 E4.73346
G1 X152.105 Y90.966 E4.86899
G1 X153.003 Y91.702 E5.00688
G1 X153.968 Y92.347 E5.14476
G1 X154.991 Y92.894 E5.28256
G1 X156.012 Y93.318 E5.41379
G1 X156.635 Y93.526 E5.49183
G1 X157.720 Y93.798 E5.62469
G1 X158.336 Y93.905 E5.69898
G1 X159.463 Y94.016 E5.83345
G1 X161.249 Y94.028 E6.04552
G1 X162.101 Y94.070 E6.14682
G1 X162.916 Y94.191 E6.24471
G1 X163.264 Y94.269 E6.28701
G1 X164.052 Y94.508 E6.38489
G1 X164.814 Y94.823 E6.48278
G1 X165.152 Y94.994 E6.52774
G1 X165.481 Y95.180 E6.57271
G1 X166.183 Y95.649 E6.67294
G1 X166.487 Y95.888 E6.71882
G1 X167.091 Y96.436 E6.81571
G1 X167.357 Y96.717 E6.86167
G1 X167.861 Y97.333 E6.95620
G1 X168.320 Y98.019 E7.05418
G1 X168.495 Y98.329 E7.09647
G1 X168.856 Y99.092 E7.19671
G1 X168.994 Y99.452 E7.24259
G1 X169.225 Y100.214 E7.33712
G1 X169.385 Y101.021 E7.43478
G1 X169.431 Y101.404 E7.48066
G1 X169.471 Y102.240 E7.58005
G1 X169.460 Y104.919 E7.89825
G1 X169.433 Y105.279 E7.94102
G1 X169.312 Y106.094 E8.03890
G1 X169.118 Y106.871 E8.13412
G1 X168.848 Y107.626 E8.22933
G1 X168.505 Y108.351 E8.32455
G1 X168.093 Y109.039 E8.41977
G1 X167.615 Y109.683 E8.51498
G1 X167.062 Y110.293 E8.61287
G1 X166.804 Y110.539 E8.65516
G1 X166.167 Y111.062 E8.75305
G1 X165.500 Y111.507 E8.84827
G1 X164.792 Y111.885 E8.94357
G1 X164.057 Y112.191 E9.03810
G1 X163.669 Y112.320 E9.08664
G1 X163.307 Y112.420 E9.13129
G1 X162.499 Y112.581 E9.22918
G1 X161.701 Y112.660 E9.32439
G1 X130.099 Y112.660 E13.07758
G1 X129.279 Y112.579 E13.17546
G1 X128.536 Y112.431 E13.26545
G1 X127.752 Y112.194 E13.36265
G1 X127.027 Y111.896 E13.45582
G1 X126.280 Y111.497 E13.55637
G1 X125.979 Y111.306 E13.59867
G1 X125.317 Y110.815 E13.69655
G1 X124.723 Y110.277 E13.79177
G1 X124.185 Y109.683 E13.88699
G1 X123.707 Y109.039 E13.98220
G1 X123.295 Y108.351 E14.07742
G1 X122.952 Y107.626 E14.17263
G1 X122.682 Y106.871 E14.26785
G1 X122.487 Y106.094 E14.36306
G1 X122.370 Y105.301 E14.45828
G1 X122.329 Y104.459 E14.55836
G1 X122.340 Y101.803 E14.87381
G1 X122.419 Y101.001 E14.96949
G1 X122.575 Y100.215 E15.06471
G1 X122.808 Y99.448 E15.15992
G1 X123.115 Y98.707 E15.25514
G1 X123.503 Y97.980 E15.35302
G1 X123.694 Y97.679 E15.39532
G1 X124.198 Y96.999 E15.49588
G1 X124.431 Y96.730 E15.53817
G1 X125.014 Y96.147 E15.63606
G1 X125.649 Y95.626 E15.73363
G1 X125.965 Y95.404 E15.77951
G1 X126.648 Y94.995 E15.87404
G1 X127.394 Y94.643 E15.97201
G1 X128.133 Y94.380 E16.06517
G1 X128.927 Y94.182 E16.16237
G1 X129.279 Y94.121 E16.20476
G1 X130.105 Y94.040 E16.30340
G1 X131.801 Y94.028 E16.50480
G1 X132.887 Y93.975 E16.63392
G1 X133.508 Y93.898 E16.70821
G1 X134.625 Y93.676 E16.84343
G1 X135.714 Y93.345 E16.97864
G1 X136.298 Y93.120 E17.05293
G1 X137.327 Y92.634 E17.18815
G1 X138.323 Y92.037 E17.32603
G1 X139.255 Y91.345 E17.46392
G1 X140.115 Y90.565 E17.60180
G1 X140.895 Y89.705 E17.73969
G1 X141.587 Y88.773 E17.87758
G1 X142.184 Y87.777 E18.01546
G1 X142.670 Y86.748 E18.15068
G1 X142.895 Y86.164 E18.22496
G1 X143.226 Y85.075 E18.36018
G1 X143.448 Y83.958 E18.49540
G1 X143.525 Y83.337 E18.56968
G1 X143.578 Y82.245 E18.69956
G1 X143.578 Y67.912 E20.40185
G1 X137.648 Y67.912 E21.10613
G1 X137.648 Y67.035 E21.21025
G1 X136.183 Y65.788 E21.43875
G1 X155.344 Y65.788 E23.71442
G1 X155.405 Y66.144 E23.75727
G1 X154.152 Y66.591 E23.91534
G1 X154.152 Y67.912 E24.07224
G1 X148.280 Y67.912 E24.76959
G1 X148.935 Y68.626 F7800.000
G1 F1800
G1 X148.948 Y82.746 E26.44657
G1 X149.053 Y83.817 E26.57443
G1 X149.151 Y84.382 E26.64247
G1 X149.413 Y85.427 E26.77040
G1 X149.781 Y86.454 E26.89995
G1 X150.247 Y87.440 E27.02950
G1 X150.808 Y88.375 E27.15900
G1 X151.429 Y89.215 E27.28306
G1 X151.822 Y89.673 E27.35482
G1 X152.585 Y90.436 E27.48294
G1 X153.429 Y91.128 E27.61249
G1 X154.335 Y91.734 E27.74204
G1 X155.297 Y92.248 E27.87154
G1 X156.262 Y92.649 E27.99560
G1 X156.835 Y92.840 E28.06736
G1 X157.868 Y93.099 E28.19385
G1 X158.433 Y93.197 E28.26189
G1 X159.501 Y93.302 E28.38936
G1 X161.269 Y93.314 E28.59935
G1 X162.171 Y93.358 E28.70661
G1 X163.047 Y93.488 E28.81178
G1 X163.446 Y93.578 E28.86033
G1 X164.293 Y93.835 E28.96551
G1 X165.111 Y94.174 E29.07068
G1 X165.489 Y94.364 E29.12085
G1 X165.856 Y94.572 E29.17102
G1 X166.603 Y95.071 E29.27763
G1 X166.948 Y95.342 E29.32979
G1 X167.591 Y95.925 E29.43293
G1 X167.893 Y96.245 E29.48514
G1 X168.436 Y96.907 E29.58684
G1 X168.928 Y97.644 E29.69207
G1 X169.130 Y97.999 E29.74061
G1 X169.513 Y98.811 E29.84722
G1 X169.670 Y99.221 E29.89938
G1 X169.918 Y100.041 E30.00108
G1 X170.091 Y100.908 E30.10612
G1 X170.143 Y101.344 E30.15828
G1 X170.186 Y102.224 E30.26294
G1 X170.174 Y104.947 E30.58631
G1 X170.144 Y105.357 E30.63514
G1 X170.014 Y106.233 E30.74032
G1 X169.802 Y107.079 E30.84387
G1 X169.508 Y107.900 E30.94742
G1 X169.135 Y108.688 E31.05097
