; generated by Slic3r 1.3.0 on 2021-07-09 at 22:56:09

; external perimeters extrusion width = 0.44mm (3.38mm^3/s)
; perimeters extrusion width = 0.48mm (7.54mm^3/s)
; infill extrusion width = 0.48mm (10.05mm^3/s)
; solid infill extrusion width = 0.48mm (2.51mm^3/s)
; top infill extrusion width = 0.48mm (1.88mm^3/s)

M107
M190 S65 ; set bed temperature and wait for it to be reached
M104 S205 ; set temperature
G28 ; home all axes
G1 Z5 F5000 ; lift nozzle

; Filament gcode

M109 S205 ; set temperature and wait for it to be reached
G21 ; set units to millimeters
G90 ; use absolute coordinates
M82 ; use absolute distances for extrusion
G92 E0
G1 Z0.400 F7800.000
G1 E-2.00000 F2400.00000
G92 E0
G1 X12.628 Y6.418 F7800.000
G1 E2.00000 F2400.00000
G1 F1800
G1 X13.738 Y4.394 E2.27422
G1 X15.469 Y2.865 E2.54845
G1 X16.729 Y2.262 E2.71440
G1 X20.002 Y1.095 E3.12705
G1 X22.256 Y0.706 E3.39868
G1 X212.816 Y0.706 E26.03057
G1 X215.090 Y1.103 E26.30480
G1 X217.166 Y2.306 E26.58975
G1 X220.403 Y5.060 E27.09449
G1 X221.879 Y6.836 E27.36872
G1 X222.376 Y7.917 E27.51006
G1 X233.891 Y40.185 E31.57906
G1 X234.271 Y41.440 E31.73476
G1 X234.523 Y42.561 E31.87130
G1 X234.716 Y43.858 E32.02699
G1 X234.800 Y45.004 E32.16351
G1 X234.814 Y45.660 E32.24140
G1 X234.814 Y217.580 E52.65951
G1 X234.800 Y218.236 E52.73740
G1 X234.748 Y219.054 E52.83479
G1 X234.655 Y219.869 E52.93222
G1 X234.523 Y220.679 E53.02965
G1 X234.351 Y221.481 E53.12708
G1 X234.140 Y222.274 E53.22452
G1 X233.891 Y223.055 E53.32192
G1 X233.603 Y223.823 E53.41934
G1 X233.305 Y224.517 E53.50900
G1 X232.761 Y225.603 E53.65330
G1 X232.350 Y226.313 E53.75073
G1 X231.904 Y227.002 E53.84814
G1 X231.425 Y227.668 E53.94558
G1 X230.914 Y228.309 E54.04301
G1 X230.372 Y228.925 E54.14043
G1 X229.801 Y229.514 E54.23786
G1 X229.201 Y230.074 E54.33528
G1 X228.575 Y230.603 E54.43270
G1 X227.923 Y231.101 E54.53013
G1 X227.248 Y231.567 E54.62755
G1 X226.550 Y231.999 E54.72498
G1 X225.833 Y232.396 E54.82240
G1 X225.096 Y232.758 E54.91983
G1 X224.343 Y233.083 E55.01725
G1 X223.575 Y233.371 E55.11468
G1 X222.794 Y233.620 E55.21210
G1 X222.001 Y233.831 E55.30953
G1 X221.199 Y234.003 E55.40694
G1 X219.902 Y234.196 E55.56264
G1 X219.085 Y234.264 E55.66006
G1 X218.265 Y234.292 E55.75750
G1 X16.900 Y234.294 E79.67261
G1 X15.915 Y234.264 E79.78960
G1 X15.098 Y234.196 E79.88702
G1 X14.285 Y234.087 E79.98446
G1 X13.478 Y233.939 E80.08187
G1 X12.679 Y233.751 E80.17930
G1 X11.891 Y233.525 E80.27672
G1 X11.115 Y233.260 E80.37415
G1 X10.352 Y232.957 E80.47157
G1 X9.606 Y232.617 E80.56900
G1 X8.877 Y232.241 E80.66642
G1 X8.167 Y231.830 E80.76385
G1 X7.478 Y231.384 E80.86127
G1 X6.812 Y230.905 E80.95870
G1 X6.171 Y230.394 E81.05612
G1 X5.555 Y229.852 E81.15353
G1 X4.966 Y229.281 E81.25097
G1 X4.406 Y228.681 E81.34839
G1 X3.877 Y228.055 E81.44582
G1 X3.096 Y227.002 E81.60151
G1 X2.650 Y226.313 E81.69894
G1 X2.239 Y225.603 E81.79636
G1 X1.863 Y224.874 E81.89379
G1 X1.523 Y224.128 E81.99121
G1 X1.220 Y223.365 E82.08864
G1 X0.955 Y222.589 E82.18606
G1 X0.634 Y221.417 E82.33035
G1 X0.477 Y220.679 E82.42002
G1 X0.345 Y219.869 E82.51744
G1 X0.252 Y219.054 E82.61487
G1 X0.200 Y218.235 E82.71229
G1 X0.186 Y217.580 E82.79016
G1 X0.186 Y45.660 E103.20827
G1 X0.200 Y45.005 E103.28613
G1 X0.284 Y43.858 E103.42267
G1 X0.393 Y43.045 E103.52010
G1 X0.649 Y41.759 E103.67579
G1 X0.955 Y40.651 E103.81234
G1 X12.609 Y6.475 E108.10072
G1 E106.10072 F2400.00000
G92 E0
G1 X26.017 Y50.480 F7800.000
G1 E2.00000 F2400.00000
G1 F1800
G1 X17.071 Y50.489 E3.06252
G1 X16.502 Y50.461 E3.13019
G1 X15.893 Y50.370 E3.20327
G1 X15.274 Y50.213 E3.27907
G1 X14.436 Y49.885 E3.38597
G1 X13.636 Y49.424 E3.49560
G1 X12.914 Y48.849 E3.60522
G1 X12.286 Y48.173 E3.71484
G1 X11.765 Y47.411 E3.82446
G1 X11.364 Y46.579 E3.93408
G1 X11.092 Y45.697 E4.04370
G1 X10.954 Y44.785 E4.15332
G1 X10.953 Y43.862 E4.26294
G1 X11.089 Y42.956 E4.37173
G1 X11.340 Y42.119 E4.47552
G1 X11.761 Y41.238 E4.59147
G1 X12.282 Y40.472 E4.70145
G1 X12.910 Y39.796 E4.81107
G1 X13.631 Y39.220 E4.92070
G1 X14.431 Y38.758 E5.03032
G1 X15.290 Y38.421 E5.13994
G1 X16.190 Y38.216 E5.24956
G1 X17.042 Y38.152 E5.35103
G1 X47.652 Y38.152 E8.98653
G1 X48.444 Y38.207 E9.08080
G1 X49.101 Y38.337 E9.16028
G1 X49.686 Y38.517 E9.23305
G1 X50.250 Y38.753 E9.30564
G1 X50.788 Y39.043 E9.37823
G1 X51.294 Y39.386 E9.45082
G1 X51.764 Y39.777 E9.52342
G1 X52.193 Y40.212 E9.59601
G1 X52.577 Y40.688 E9.66860
G1 X52.912 Y41.199 E9.74119
G1 X53.195 Y41.741 E9.81378
G1 X53.422 Y42.308 E9.88637
G1 X53.593 Y42.895 E9.95896
G1 X53.704 Y43.496 E10.03155
G1 X53.756 Y44.105 E10.10414
G1 X53.747 Y44.716 E10.17673
G1 X53.675 Y45.346 E10.25202
G1 X53.465 Y46.215 E10.35820
G1 X53.119 Y47.064 E10.46708
G1 X52.652 Y47.853 E10.57596
G1 X52.073 Y48.564 E10.68484
G1 X51.395 Y49.181 E10.79372
G1 X50.633 Y49.691 E10.90260
G1 X49.825 Y50.073 E11.00878
G1 X49.201 Y50.278 E11.08677
G1 X48.284 Y50.458 E11.19776
G1 X39.208 Y50.467 E12.27569
G1 X39.050 Y50.982 E12.33966
G1 X38.785 Y51.611 E12.42077
G1 X38.459 Y52.211 E12.50188
G1 X38.075 Y52.776 E12.58299
G1 X37.636 Y53.300 E12.66410
G1 X37.148 Y53.777 E12.74522
G1 X36.615 Y54.203 E12.82633
G1 X36.041 Y54.574 E12.90744
G1 X35.415 Y54.896 E12.99101
G1 X34.532 Y55.221 E13.10276
G1 X33.811 Y55.390 E13.19079
G1 X33.129 Y55.476 E13.27241
G1 X32.446 Y55.494 E13.35352
G1 X31.765 Y55.443 E13.43463
G1 X31.109 Y55.328 E13.51366
G1 X30.701 Y55.222 E13.56379
G1 X30.112 Y55.024 E13.63759
G1 X29.491 Y54.744 E13.71851
G1 X28.899 Y54.403 E13.79962
G1 X28.344 Y54.005 E13.88073
G1 X27.832 Y53.554 E13.96184
G1 X27.351 Y53.037 E14.04566
G1 X26.779 Y52.243 E14.16188
G1 X26.441 Y51.624 E14.24566
G1 X26.185 Y51.018 E14.32377
G1 X26.032 Y50.538 E14.38361
G1 X26.571 Y49.765 F7800.000
G1 F1800
G1 X17.088 Y49.775 E15.50995
G1 X16.572 Y49.749 E15.57126
G1 X16.034 Y49.669 E15.63587
G1 X15.493 Y49.532 E15.70215
G1 X14.746 Y49.239 E15.79739
G1 X14.039 Y48.832 E15.89430
G1 X13.401 Y48.324 E15.99120
G1 X12.846 Y47.726 E16.08811
G1 X12.385 Y47.052 E16.18501
G1 X12.031 Y46.317 E16.28192
G1 X11.790 Y45.538 E16.37882
G1 X11.668 Y44.731 E16.47573
G1 X11.668 Y43.915 E16.57263
G1 X11.788 Y43.112 E16.66903
G1 X12.009 Y42.377 E16.76025
G1 X12.382 Y41.595 E16.86315
G1 X12.842 Y40.919 E16.96028
G1 X13.397 Y40.320 E17.05718
G1 X14.035 Y39.812 E17.15409
G1 X14.741 Y39.404 E17.25099
G1 X15.501 Y39.105 E17.34790
G1 X16.296 Y38.924 E17.44480
G1 X17.068 Y38.866 E17.53674
G1 X47.628 Y38.866 E21.16612
G1 X48.349 Y38.916 E21.25205
G1 X48.926 Y39.031 E21.32185
G1 X49.443 Y39.189 E21.38614
G1 X49.942 Y39.398 E21.45032
G1 X50.417 Y39.655 E21.51450
G1 X50.865 Y39.958 E21.57868
G1 X51.280 Y40.303 E21.64286
G1 X51.660 Y40.688 E21.70704
G1 X51.999 Y41.108 E21.77122
G1 X52.295 Y41.561 E21.83540
G1 X52.545 Y42.040 E21.89958
G1 X52.746 Y42.541 E21.96376
G1 X52.897 Y43.060 E22.02794
G1 X52.996 Y43.591 E22.09212
G1 X53.041 Y44.130 E22.15630
G1 X53.033 Y44.670 E22.22048
G1 X52.971 Y45.221 E22.28630
G1 X52.783 Y45.995 E22.38090
G1 X52.478 Y46.746 E22.47715
G1 X52.065 Y47.443 E22.57340
G1 X51.553 Y48.071 E22.66965
G1 X50.954 Y48.617 E22.76590
G1 X50.280 Y49.068 E22.86216
G1 X49.560 Y49.408 E22.95676
G1 X49.020 Y49.586 E23.02423
G1 X48.214 Y49.744 E23.12176
G1 X38.638 Y49.753 E24.25914
G1 X38.557 Y50.153 E24.30759
G1 X38.378 Y50.738 E24.38023
G1 X38.141 Y51.302 E24.45288
G1 X37.849 Y51.839 E24.52552
G1 X37.505 Y52.345 E24.59816
G1 X37.112 Y52.814 E24.67081
G1 X36.674 Y53.241 E24.74345
G1 X36.197 Y53.623 E24.81610
G1 X35.683 Y53.955 E24.88874
G1 X35.128 Y54.241 E24.96289
G1 X34.327 Y54.535 E25.06425
G1 X33.684 Y54.686 E25.14265
G1 X33.075 Y54.763 E25.21561
G1 X32.463 Y54.779 E25.28825
G1 X31.853 Y54.734 E25.36089
G1 X31.261 Y54.630 E25.43227
G1 X30.905 Y54.537 E25.47598
G1 X30.373 Y54.358 E25.54262
G1 X29.816 Y54.108 E25.61515
G1 X29.286 Y53.802 E25.68779
G1 X28.789 Y53.446 E25.76044
G1 X28.330 Y53.041 E25.83308
G1 X27.904 Y52.583 E25.90738
G1 X27.384 Y51.862 E26.01301
G1 X27.085 Y51.313 E26.08728
G1 X26.853 Y50.765 E26.15798
G1 X26.745 Y50.446 E26.19793
G1 X26.586 Y49.823 E26.27424
G1 X27.196 Y49.050 F7800.000
G1 F1800
G1 X17.105 Y49.060 E27.47271
G1 X16.643 Y49.038 E27.52767
G1 X16.175 Y48.968 E27.58381
G1 X15.712 Y48.850 E27.64056
G1 X15.056 Y48.594 E27.72415
G1 X14.442 Y48.240 E27.80834
G1 X13.888 Y47.798 E27.89253
G1 X13.405 Y47.279 E27.97672
G1 X13.005 Y46.694 E28.06090
G1 X12.697 Y46.055 E28.14509
G1 X12.488 Y45.378 E28.22928
G1 X12.382 Y44.677 E28.31347
G1 X12.382 Y43.968 E28.39766
G1 X12.487 Y43.269 E28.48166
G1 X12.677 Y42.634 E28.56030
G1 X13.003 Y41.951 E28.65017
G1 X13.402 Y41.365 E28.73444
G1 X13.884 Y40.845 E28.81862
G1 X14.438 Y40.403 E28.90281
G1 X15.052 Y40.049 E28.98700
G1 X15.712 Y39.790 E29.07119
G1 X16.403 Y39.632 E29.15538
G1 X17.095 Y39.580 E29.23778
G1 X47.603 Y39.580 E32.86105
G1 X48.255 Y39.625 E32.93864
G1 X48.751 Y39.724 E32.99876
G1 X49.200 Y39.862 E33.05457
G1 X49.633 Y40.043 E33.11034
G1 X50.047 Y40.266 E33.16610
G1 X50.436 Y40.529 E33.22187
G1 X50.797 Y40.830 E33.27764
G1 X51.126 Y41.164 E33.33341
G1 X51.421 Y41.529 E33.38918
G1 X51.678 Y41.922 E33.44494
G1 X51.896 Y42.339 E33.50071
G1 X52.071 Y42.774 E33.55648
G1 X52.201 Y43.225 E33.61225
G1 X52.287 Y43.687 E33.66802
G1 X52.327 Y44.155 E33.72379
G1 X52.320 Y44.624 E33.77955
G1 X52.266 Y45.096 E33.83591
G1 X52.101 Y45.775 E33.91894
G1 X51.836 Y46.427 E34.00256
G1 X51.477 Y47.033 E34.08618
G1 X51.033 Y47.579 E34.16980
G1 X50.512 Y48.053 E34.25342
G1 X49.927 Y48.445 E34.33704
G1 X49.295 Y48.744 E34.42007
G1 X48.839 Y48.893 E34.47702
G1 X48.145 Y49.030 E34.56110
G1 X38.002 Y49.040 E35.76576
G1 X37.972 Y49.443 E35.81375
G1 X37.864 Y49.977 E35.87853
G1 X37.705 Y50.494 E35.94270
G1 X37.496 Y50.992 E36.00688
G1 X37.238 Y51.467 E36.07106
G1 X36.934 Y51.914 E36.13524
G1 X36.587 Y52.328 E36.19942
G1 X36.201 Y52.706 E36.26359
G1 X35.779 Y53.043 E36.32777
G1 X35.325 Y53.337 E36.39195
G1 X34.840 Y53.586 E36.45667
G1 X34.121 Y53.850 E36.54764
G1 X33.558 Y53.982 E36.61642
G1 X33.020 Y54.050 E36.68071
G1 X32.480 Y54.064 E36.74488
G1 X31.941 Y54.024 E36.80906
G1 X31.413 Y53.931 E36.87279
G1 X31.109 Y53.853 E36.91007
G1 X30.634 Y53.693 E36.96955
G1 X30.142 Y53.471 E37.03369
G1 X29.674 Y53.201 E37.09787
G1 X29.235 Y52.886 E37.16205
G1 X28.829 Y52.529 E37.22622
G1 X28.458 Y52.130 E37.29100
G1 X27.990 Y51.480 E37.38604
G1 X27.729 Y51.002 E37.45080
G1 X27.521 Y50.511 E37.51409
G1 X27.431 Y50.243 E37.54768
G1 X27.298 Y49.724 E37.61126
G1 X27.205 Y49.110 E37.68509
G1 X26.863 Y49.273 F7800.000
G1 E35.68509 F2400.00000
G92 E0
G1 X29.978 Y11.372 F7800.000
G1 E2.00000 F2400.00000
G1 F1800
G1 X24.048 Y11.372 E2.70428
G1 X24.048 Y10.495 E2.80840
G1 X22.583 Y9.248 E3.03690
G1 X41.744 Y9.248 E5.31257
G1 X41.805 Y9.604 E5.35542
G1 X40.552 Y10.051 E5.51349
G1 X40.552 Y11.372 E5.67039
G1 X34.620 Y11.372 E6.37487
G1 X34.634 Y26.219 E8.13820
G1 X34.678 Y26.825 E8.21034
G1 X34.764 Y27.489 E8.28992
G1 X34.970 Y28.514 E8.41407
G1 X35.136 Y29.115 E8.48817
G1 X35.520 Y30.187 E8.62338
G1 X36.016 Y31.237 E8.76127
G1 X36.613 Y32.233 E8.89915
G1 X37.305 Y33.165 E9.03704
G1 X38.085 Y34.025 E9.17492
G1 X38.945 Y34.805 E9.31281
G1 X39.859 Y35.483 E9.44803
G1 X40.388 Y35.818 E9.52231
G1 X41.390 Y36.354 E9.65734
G1 X42.376 Y36.764 E9.78416
G1 X43.032 Y36.985 E9.86640
G1 X44.120 Y37.258 E9.99957
G1 X44.736 Y37.365 E10.07386
G1 X45.863 Y37.476 E10.20833
G1 X47.649 Y37.488 E10.42040
G1 X48.501 Y37.530 E10.52170
G1 X49.316 Y37.651 E10.61959
G1 X49.664 Y37.729 E10.66189
G1 X50.452 Y37.968 E10.75977
G1 X51.214 Y38.283 E10.85766
G1 X51.547 Y38.451 E10.90199
G1 X51.931 Y38.672 E10.95453
G1 X52.584 Y39.110 E11.04794
G1 X52.866 Y39.330 E11.09043
G1 X53.493 Y39.898 E11.19099
G1 X53.739 Y40.156 E11.23329
G1 X54.263 Y40.795 E11.33136
G1 X54.688 Y41.429 E11.42210
G1 X54.897 Y41.793 E11.47198
G1 X55.257 Y42.554 E11.57190
G1 X55.392 Y42.902 E11.61624
G1 X55.528 Y43.323 E11.66878
G1 X55.712 Y44.065 E11.75952
G1 X55.830 Y44.859 E11.85493
G1 X55.871 Y45.701 E11.95501
G1 X55.860 Y48.379 E12.27312
G1 X55.833 Y48.739 E12.31589
G1 X55.713 Y49.554 E12.41377
G1 X55.518 Y50.331 E12.50899
G1 X55.248 Y51.086 E12.60421
G1 X54.905 Y51.811 E12.69942
G1 X54.493 Y52.499 E12.79464
G1 X54.015 Y53.143 E12.88985
G1 X53.476 Y53.738 E12.98526
G1 X52.910 Y54.252 E13.07600
G1 X52.581 Y54.512 E13.12587
G1 X51.900 Y54.967 E13.22313
G1 X51.193 Y55.345 E13.31835
G1 X50.431 Y55.661 E13.41623
G1 X49.706 Y55.881 E13.50633
G1 X48.934 Y56.035 E13.59974
G1 X48.123 Y56.120 E13.69658
G1 X16.498 Y56.120 E17.45262
G1 X15.737 Y56.046 E17.54336
G1 X15.301 Y55.973 E17.59590
G1 X14.935 Y55.891 E17.64043
G1 X14.182 Y55.664 E17.73384
G1 X13.427 Y55.356 E17.83069
G1 X12.680 Y54.957 E17.93124
G1 X12.379 Y54.766 E17.97354
G1 X11.717 Y54.275 E18.07142
G1 X11.123 Y53.737 E18.16664
G1 X10.585 Y53.143 E18.26185
G1 X10.107 Y52.499 E18.35707
G1 X9.695 Y51.811 E18.45229
G1 X9.352 Y51.086 E18.54750
G1 X9.082 Y50.331 E18.64272
G1 X8.887 Y49.554 E18.73793
G1 X8.770 Y48.761 E18.83315
G1 X8.729 Y47.919 E18.93323
G1 X8.740 Y45.263 E19.24867
G1 X8.819 Y44.461 E19.34436
G1 X8.975 Y43.675 E19.43957
G1 X9.208 Y42.908 E19.53479
G1 X9.515 Y42.167 E19.63001
G1 X9.903 Y41.440 E19.72789
G1 X10.094 Y41.139 E19.77019
G1 X10.585 Y40.477 E19.86807
G1 X11.135 Y39.871 E19.96533
G1 X11.441 Y39.583 E20.01520
G1 X12.032 Y39.099 E20.10595
G1 X12.719 Y38.640 E20.20402
G1 X13.029 Y38.465 E20.24632
G1 X13.794 Y38.103 E20.34688
G1 X14.126 Y37.975 E20.38917
G1 X14.915 Y37.735 E20.48706
G1 X15.701 Y37.579 E20.58227
G1 X16.505 Y37.500 E20.67824
G1 X18.201 Y37.488 E20.87964
G1 X19.287 Y37.435 E21.00877
G1 X19.908 Y37.358 E21.08306
G1 X21.025 Y37.136 E21.21827
G1 X22.119 Y36.804 E21.35412
G1 X22.764 Y36.551 E21.43636
G1 X23.728 Y36.093 E21.56318
G1 X24.723 Y35.497 E21.70087
G1 X25.655 Y34.805 E21.83876
G1 X26.515 Y34.025 E21.97665
G1 X27.295 Y33.165 E22.11453
G1 X27.987 Y32.233 E22.25242
G1 X28.584 Y31.237 E22.39030
G1 X29.080 Y30.187 E22.52819
G1 X29.464 Y29.115 E22.66340
G1 X29.630 Y28.513 E22.73769
G1 X29.848 Y27.418 E22.87024
G1 X29.925 Y26.797 E22.94453
G1 X29.978 Y25.705 E23.07440
G1 X29.978 Y11.432 E24.76956
G1 X29.264 Y12.086 F7800.000
G1 F1800
G1 X23.334 Y12.086 E25.47384
G1 X23.334 Y10.825 E25.62358
G1 X21.175 Y8.988 E25.96030
G1 X22.448 Y8.534 E26.12088
G1 X42.006 Y8.534 E28.44365
G1 X43.461 Y9.772 E28.67053
G1 X41.266 Y10.554 E28.94731
G1 X41.266 Y12.086 E29.12921
G1 X35.335 Y12.086 E29.83361
G1 X35.348 Y26.192 E31.50896
G1 X35.389 Y26.753 E31.57569
G1 X35.469 Y27.373 E31.64999
G1 X35.665 Y28.348 E31.76813
G1 X35.818 Y28.900 E31.83606
G1 X36.181 Y29.914 E31.96398
G1 X36.647 Y30.900 E32.09354
G1 X37.208 Y31.835 E32.22309
G1 X37.858 Y32.712 E32.35264
G1 X38.590 Y33.520 E32.48219
G1 X39.398 Y34.252 E32.61174
G1 X40.264 Y34.894 E32.73967
G1 X40.748 Y35.201 E32.80771
G1 X41.697 Y35.708 E32.93552
G1 X42.628 Y36.095 E33.05529
G1 X43.234 Y36.299 E33.13121
G1 X44.268 Y36.559 E33.25789
G1 X44.833 Y36.657 E33.32593
G1 X45.901 Y36.762 E33.45340
G1 X47.669 Y36.774 E33.66339
G1 X48.571 Y36.818 E33.77065
G1 X49.447 Y36.948 E33.87582
G1 X49.846 Y37.038 E33.92437
G1 X50.693 Y37.295 E34.02954
G1 X51.511 Y37.634 E34.13472
G1 X52.308 Y38.065 E34.24229
G1 X53.003 Y38.531 E34.34170
G1 X53.326 Y38.783 E34.39037
G1 X53.992 Y39.387 E34.49717
G1 X54.274 Y39.683 E34.54571
G1 X54.837 Y40.368 E34.65101
G1 X55.295 Y41.052 E34.74879
G1 X55.531 Y41.462 E34.80499
G1 X55.914 Y42.272 E34.91141
G1 X56.215 Y43.127 E35.01898
G1 X56.414 Y43.926 E35.11676
G1 X56.542 Y44.789 E35.22043
G1 X56.586 Y45.685 E35.32695
G1 X56.574 Y48.407 E35.65026
G1 X56.544 Y48.817 E35.69909
G1 X56.414 Y49.693 E35.80427
G1 X56.202 Y50.539 E35.90782
G1 X55.908 Y51.360 E36.01137
G1 X55.535 Y52.148 E36.11492
G1 X55.087 Y52.896 E36.21847
G1 X54.568 Y53.596 E36.32202
G1 X53.982 Y54.243 E36.42568
G1 X53.373 Y54.797 E36.52347
G1 X53.001 Y55.090 E36.57967
G1 X52.268 Y55.580 E36.68446
G1 X51.499 Y55.991 E36.78801
G1 X50.680 Y56.330 E36.89318
G1 X49.871 Y56.576 E36.99361
G1 X49.051 Y56.741 E37.09303
G1 X48.150 Y56.834 E37.20060
G1 X16.463 Y56.834 E40.96386
G1 X15.644 Y56.755 E41.06164
G1 X15.163 Y56.674 E41.11946
G1 X14.753 Y56.582 E41.16937
