; generated by Slic3r 1.3.0 on 2021-07-04 at 19:22:30

; external perimeters extrusion width = 0.44mm (3.38mm^3/s)
; perimeters extrusion width = 0.48mm (7.54mm^3/s)
; infill extrusion width = 0.48mm (10.05mm^3/s)
; solid infill extrusion width = 0.48mm (2.51mm^3/s)
; top infill extrusion width = 0.48mm (1.88mm^3/s)

M107
M190 S65 ; set bed temperature and wait for it to be reached
M104 S205 ; set temperature
G28 ; home all axes
G1 Z5 F5000 ; lift nozzle

; Filament gcode

M109 S205 ; set temperature and wait for it to be reached
G21 ; set units to millimeters
G90 ; use absolute coordinates
M82 ; use absolute distances for extrusion
G92 E0
G1 Z0.400 F7800.000
G1 E-2.00000 F2400.00000
G92 E0
G1 X50.788 Y91.810 F7800.000
G1 E2.00000 F2400.00000
G1 F1800
G1 X155.853 Y35.389 E16.16343
G1 X159.030 Y34.590 E16.55244
G1 X206.730 Y34.590 E22.21753
G1 X209.004 Y34.987 E22.49176
G1 X211.010 Y36.131 E22.76598
G1 X212.509 Y37.887 E23.04021
G1 X213.442 Y41.137 E23.44179
G1 X215.337 Y117.345 E32.49543
G1 X215.339 Y155.612 E37.04021
G1 X214.942 Y157.886 E37.31444
G1 X213.798 Y159.892 E37.58866
G1 X212.042 Y161.391 E37.86289
G1 X210.599 Y162.029 E38.05028
G1 X92.908 Y198.231 E52.67422
G1 X90.136 Y198.945 E53.01416
G1 X86.997 Y199.579 E53.39448
G1 X84.492 Y199.957 E53.69534
G1 X81.640 Y200.251 E54.03589
G1 X78.441 Y200.410 E54.41621
G1 X75.909 Y200.410 E54.71704
G1 X73.044 Y200.276 E55.05762
G1 X69.858 Y199.957 E55.43794
G1 X67.353 Y199.579 E55.73876
G1 X64.540 Y199.019 E56.07935
G1 X61.760 Y198.320 E56.41992
G1 X59.017 Y197.482 E56.76049
G1 X56.008 Y196.387 E57.14082
G1 X53.673 Y195.403 E57.44167
G1 X51.086 Y194.167 E57.78223
G1 X48.274 Y192.635 E58.16254
G1 X45.831 Y191.133 E58.50312
G1 X43.738 Y189.706 E58.80397
G1 X41.448 Y187.981 E59.14452
G1 X38.995 Y185.923 E59.52484
G1 X36.898 Y183.966 E59.86542
G1 X35.129 Y182.153 E60.16626
G1 X33.011 Y179.752 E60.54657
G1 X31.431 Y177.771 E60.84741
G1 X29.797 Y175.513 E61.17849
G1 X28.188 Y173.043 E61.52855
G1 X26.587 Y170.270 E61.90886
G1 X25.431 Y168.016 E62.20970
G1 X24.244 Y165.406 E62.55027
G1 X23.074 Y162.425 E62.93058
G1 X22.169 Y159.704 E63.27116
G1 X21.483 Y157.266 E63.57200
G1 X20.836 Y154.472 E63.91258
G1 X20.280 Y151.318 E64.29289
G1 X19.965 Y148.805 E64.59373
G1 X19.743 Y145.946 E64.93431
G1 X19.663 Y142.744 E65.31461
G1 X19.726 Y140.212 E65.61545
G1 X19.932 Y137.352 E65.95602
G1 X20.330 Y134.175 E66.33634
G1 X20.770 Y131.680 E66.63717
G1 X21.382 Y128.960 E66.96827
G1 X22.169 Y126.120 E67.31831
G1 X23.189 Y123.084 E67.69863
G1 X24.114 Y120.726 E67.99946
G1 X25.286 Y118.109 E68.34004
G1 X26.747 Y115.259 E68.72036
G1 X28.188 Y112.780 E69.06093
G1 X29.751 Y110.376 E69.40151
G1 X31.229 Y108.319 E69.70234
G1 X33.226 Y105.816 E70.08266
G1 X35.130 Y103.671 E70.42324
G1 X36.898 Y101.858 E70.72406
G1 X39.246 Y99.680 E71.10438
G1 X41.186 Y98.051 E71.40522
G1 X43.467 Y96.313 E71.74579
G1 X46.113 Y94.509 E72.12611
G1 X48.274 Y93.189 E72.42694
G1 X50.736 Y91.839 E72.76039
G1 E70.76039 F2400.00000
G92 E0
G1 X202.208 Y45.826 F7800.000
G1 E2.00000 F2400.00000
G1 F1800
G1 X163.551 Y45.826 E6.59106
G1 X163.551 Y90.276 E11.87017
G1 X160.858 Y90.276 E12.19005
G1 X160.858 Y43.132 E17.78904
G1 X204.901 Y43.132 E23.01986
G1 X204.901 Y77.576 E27.11053
G1 X202.208 Y77.576 E27.43041
G1 X202.208 Y45.886 E31.19408
G1 X201.494 Y46.540 F7800.000
G1 F1800
G1 X164.265 Y46.540 E35.61551
G1 X164.265 Y90.990 E40.89462
G1 X160.144 Y90.990 E41.38413
G1 X160.144 Y42.418 E47.15276
G1 X205.615 Y42.418 E52.55321
G1 X205.615 Y78.290 E56.81352
G1 X201.494 Y78.290 E57.30303
G1 X201.494 Y46.600 E61.06670
G1 X200.780 Y47.254 F7800.000
G1 F1800
G1 X164.980 Y47.254 E65.31849
G1 X164.980 Y91.704 E70.59760
G1 X159.430 Y91.704 E71.25675
G1 X159.430 Y41.704 E77.19501
G1 X206.330 Y41.704 E82.76509
G1 X206.330 Y79.004 E87.19504
G1 X200.287 Y79.004 E87.91264
G1 X197.984 Y78.682 E88.18890
G1 X195.768 Y78.271 E88.45656
G1 X193.866 Y77.826 E88.68849
G1 X192.230 Y77.366 E88.89036
G1 X190.664 Y76.849 E89.08622
G1 X189.922 Y76.564 E89.18065
G1 X190.057 Y76.173 E89.22989
G1 X190.618 Y76.346 E89.29962
G1 X192.195 Y76.753 E89.49304
G1 X193.847 Y77.095 E89.69340
G1 X195.768 Y77.402 E89.92443
G1 X198.009 Y77.651 E90.19218
G1 X200.780 Y77.831 E90.52197
G1 X200.780 Y47.314 E94.14631
G1 X200.792 Y46.854 F7800.000
G1 E92.14631 F2400.00000
G92 E0
G1 X189.605 Y76.256 F7800.000
G1 E2.00000 F2400.00000
G1 F1800
G1 X188.053 Y75.636 E2.29543
G1 F1800
G1 X186.940 Y75.135 E2.49615
G1 F1800
G1 X185.877 Y74.596 E2.67717
G1 F1800
G1 X184.962 Y74.077 E2.82499
G1 F1800
G1 X183.732 Y73.293 E3.01659
G1 F1800
G1 X182.679 Y72.524 E3.17632
G1 F1800
G1 X181.992 Y71.968 E3.27708
G1 X181.304 Y71.357 E3.38204
G1 X180.648 Y70.717 E3.48650
G1 X180.025 Y70.051 E3.59058
G1 X179.434 Y69.357 E3.69447
G1 X178.876 Y68.637 E3.79834
G1 X178.351 Y67.891 E3.90236
G1 X177.860 Y67.119 E4.00672
G1 F1800
G1 X177.523 Y66.543 E4.08949
G1 X177.099 Y65.748 E4.20119
G1 F1800
G1 X176.589 Y64.667 E4.36227
G1 F1800
G1 X176.222 Y63.783 E4.50366
G1 F1800
G1 X175.895 Y62.889 E4.65376
G1 F1800
G1 X175.599 Y61.970 E4.81605
G1 X175.374 Y61.188 E4.95312
G1 E2.95312 F2400.00000
G92 E0
G1 X174.957 Y51.229 F7800.000
G1 E2.00000 F2400.00000
G1 F1800
G1 X174.863 Y52.891 E2.19774
G1 X174.842 Y54.040 E2.33417
G1 X174.854 Y55.177 E2.46923
G1 X174.897 Y56.254 E2.59721
G1 X174.973 Y57.321 E2.72431
G1 X175.082 Y58.362 E2.84865
G1 X175.224 Y59.377 E2.97035
G1 X175.481 Y60.749 E3.13611
G1 X175.077 Y60.849 E3.18547
G1 X174.879 Y60.139 E3.27302
G1 X174.634 Y59.136 E3.39562
G1 X174.424 Y58.123 E3.51847
G1 X174.243 Y57.085 E3.64362
G1 X174.094 Y56.039 E3.76917
G1 X173.971 Y54.933 E3.90131
G1 X173.879 Y53.820 E4.03396
G1 X173.804 Y52.345 E4.20934
G1 X173.786 Y51.229 E4.34189
G1 X174.897 Y51.229 E4.47377
G1 X174.837 Y51.611 F7800.000
G1 X174.364 Y51.586 F7800.000
G1 F1800
G1 X174.348 Y52.598 E4.52906
G1 F1800
G1 X174.355 Y53.331 E4.56091
G1 F1800
G1 X174.370 Y54.036 E4.58439
G1 F1800
G1 X174.410 Y54.890 E4.60482
G1 F1800
G1 X174.476 Y55.821 E4.61760
G1 E2.61760 F2400.00000
G92 E0
G1 X161.294 Y47.190 F7800.000
G1 E2.00000 F2400.00000
G1 F1800
G1 X161.294 Y48.212 E2.12283
G1 X163.115 Y46.392 E2.43226
G1 X163.115 Y47.414 E2.55509
G1 X161.294 Y49.234 E2.86452
G1 X161.294 Y50.256 E2.98735
G1 X163.115 Y48.436 E3.29678
G1 X163.115 Y49.458 E3.41961
G1 X161.294 Y51.278 E3.72904
G1 X161.294 Y52.301 E3.85187
G1 X163.115 Y50.480 E4.16130
G1 X163.115 Y51.502 E4.28413
G1 X161.294 Y53.323 E4.59356
G1 X161.294 Y54.345 E4.71639
G1 X163.115 Y52.524 E5.02582
G1 X163.115 Y53.546 E5.14865
G1 X161.294 Y55.367 E5.45808
G1 X161.294 Y56.389 E5.58091
G1 X163.115 Y54.568 E5.89034
G1 X163.115 Y55.590 E6.01317
G1 X161.294 Y57.411 E6.32260
G1 X161.294 Y58.433 E6.44543
G1 X163.115 Y56.612 E6.75486
G1 X163.115 Y57.634 E6.87769
G1 X161.294 Y59.455 E7.18712
G1 X161.294 Y60.477 E7.30995
G1 X163.115 Y58.656 E7.61938
G1 X163.115 Y59.678 E7.74221
G1 X161.294 Y61.499 E8.05164
G1 X161.294 Y62.521 E8.17447
G1 X163.115 Y60.700 E8.48390
G1 X163.115 Y61.722 E8.60673
G1 X161.294 Y63.543 E8.91616
G1 X161.294 Y64.565 E9.03899
G1 X163.115 Y62.744 E9.34842
G1 X163.115 Y63.766 E9.47125
G1 X161.294 Y65.587 E9.78068
G1 X161.294 Y66.609 E9.90351
G1 X163.115 Y64.788 E10.21294
G1 X163.115 Y65.810 E10.33577
G1 X161.294 Y67.631 E10.64520
G1 X161.294 Y68.653 E10.76803
G1 X163.115 Y66.832 E11.07746
G1 X163.115 Y67.854 E11.20029
G1 X161.294 Y69.675 E11.50972
G1 X161.294 Y70.697 E11.63255
G1 X163.115 Y68.876 E11.94198
G1 X163.115 Y69.898 E12.06481
G1 X161.294 Y71.719 E12.37424
G1 X161.294 Y72.741 E12.49707
G1 X163.115 Y70.920 E12.80650
G1 X163.115 Y71.942 E12.92933
G1 X161.294 Y73.763 E13.23876
G1 X161.294 Y74.785 E13.36159
G1 X163.115 Y72.965 E13.67102
G1 X163.115 Y73.987 E13.79385
G1 X161.294 Y75.807 E14.10328
G1 X161.294 Y76.829 E14.22611
G1 X163.115 Y75.009 E14.53554
G1 X163.115 Y76.031 E14.65837
G1 X161.294 Y77.851 E14.96780
G1 X161.294 Y78.873 E15.09063
G1 X163.115 Y77.053 E15.40006
G1 X163.115 Y78.075 E15.52289
G1 X161.294 Y79.895 E15.83232
G1 X161.294 Y80.917 E15.95515
G1 X163.115 Y79.097 E16.26458
G1 X163.115 Y80.119 E16.38741
G1 X161.294 Y81.939 E16.69684
G1 X161.294 Y82.961 E16.81967
G1 X163.115 Y81.141 E17.12910
G1 X163.115 Y82.163 E17.25193
G1 X161.294 Y83.983 E17.56136
G1 X161.294 Y85.005 E17.68419
G1 X163.115 Y83.185 E17.99362
G1 X163.115 Y84.207 E18.11645
G1 X161.294 Y86.027 E18.42588
G1 X161.294 Y87.049 E18.54871
G1 X163.115 Y85.229 E18.85814
G1 X163.115 Y86.251 E18.98097
G1 X161.294 Y88.071 E19.29040
G1 X161.294 Y89.093 E19.41323
G1 X163.115 Y87.273 E19.72266
G1 X163.115 Y88.295 E19.84549
G1 X161.571 Y89.839 E20.10798
G1 E18.10798 F2400.00000
G92 E0
G1 X203.909 Y77.139 F7800.000
G1 E2.00000 F2400.00000
G1 F1800
G1 X204.465 Y76.584 E2.09444
G1 X204.465 Y75.562 E2.21727
G1 X202.887 Y77.139 E2.48541
G1 X202.644 Y77.139 E2.51460
G1 X202.644 Y76.360 E2.60824
G1 X204.465 Y74.540 E2.91767
G1 X204.465 Y73.518 E3.04050
G1 X202.644 Y75.338 E3.34993
G1 X202.644 Y74.316 E3.47276
G1 X204.465 Y72.496 E3.78219
G1 X204.465 Y71.473 E3.90502
G1 X202.644 Y73.294 E4.21445
G1 X202.644 Y72.272 E4.33728
G1 X204.465 Y70.451 E4.64671
G1 X204.465 Y69.429 E4.76954
G1 X202.644 Y71.250 E5.07897
G1 X202.644 Y70.228 E5.20180
G1 X204.465 Y68.407 E5.51123
G1 X204.465 Y67.385 E5.63406
G1 X202.644 Y69.206 E5.94349
G1 X202.644 Y68.184 E6.06632
G1 X204.465 Y66.363 E6.37575
G1 X204.465 Y65.341 E6.49857
G1 X202.644 Y67.162 E6.80801
G1 X202.644 Y66.140 E6.93083
G1 X204.465 Y64.319 E7.24026
G1 X204.465 Y63.297 E7.36309
G1 X202.644 Y65.118 E7.67252
G1 X202.644 Y64.096 E7.79535
G1 X204.465 Y62.275 E8.10478
G1 X204.465 Y61.253 E8.22761
G1 X202.644 Y63.074 E8.53704
G1 X202.644 Y62.052 E8.65987
G1 X204.465 Y60.231 E8.96930
G1 X204.465 Y59.209 E9.09213
G1 X202.644 Y61.030 E9.40156
G1 X202.644 Y60.008 E9.52439
G1 X204.465 Y58.187 E9.83382
G1 X204.465 Y57.165 E9.95665
G1 X202.644 Y58.986 E10.26608
G1 X202.644 Y57.964 E10.38891
G1 X204.465 Y56.143 E10.69834
G1 X204.465 Y55.121 E10.82117
G1 X202.644 Y56.942 E11.13060
G1 X202.644 Y55.920 E11.25343
G1 X204.465 Y54.099 E11.56286
G1 X204.465 Y53.077 E11.68569
G1 X202.644 Y54.898 E11.99512
G1 X202.644 Y53.876 E12.11795
G1 X204.465 Y52.055 E12.42738
G1 X204.465 Y51.033 E12.55021
G1 X202.644 Y52.854 E12.85964
G1 X202.644 Y51.832 E12.98247
G1 X204.465 Y50.011 E13.29190
G1 X204.465 Y48.989 E13.41473
G1 X202.644 Y50.810 E13.72416
G1 X202.644 Y49.787 E13.84699
G1 X204.465 Y47.967 E14.15642
G1 X204.465 Y46.945 E14.27925
G1 X202.644 Y48.765 E14.58868
G1 X202.644 Y47.743 E14.71151
G1 X204.465 Y45.923 E15.02094
G1 X204.465 Y44.901 E15.14377
G1 X202.644 Y46.721 E15.45320
G1 X202.644 Y45.699 E15.57603
G1 X204.465 Y43.879 E15.88546
G1 X204.465 Y43.569 E15.92274
G1 X203.753 Y43.569 E16.00829
G1 X201.932 Y45.389 E16.31772
G1 X200.910 Y45.389 E16.44055
G1 X202.731 Y43.569 E16.74998
G1 X201.709 Y43.569 E16.87281
G1 X199.888 Y45.389 E17.18225
G1 X198.866 Y45.389 E17.30508
G1 X200.687 Y43.569 E17.61451
G1 X199.665 Y43.569 E17.73734
G1 X197.844 Y45.389 E18.04677
G1 X196.822 Y45.389 E18.16960
G1 X198.643 Y43.569 E18.47903
G1 X197.621 Y43.569 E18.60186
G1 X195.800 Y45.389 E18.91129
G1 X194.778 Y45.389 E19.03412
G1 X196.599 Y43.569 E19.34355
G1 X195.577 Y43.569 E19.46638
G1 X193.756 Y45.389 E19.77581
G1 X192.734 Y45.389 E19.89864
G1 X194.555 Y43.569 E20.20807
G1 X193.533 Y43.569 E20.33090
G1 X191.712 Y45.389 E20.64033
G1 X190.690 Y45.389 E20.76316
G1 X192.511 Y43.569 E21.07259
G1 X191.489 Y43.569 E21.19542
G1 X189.668 Y45.389 E21.50486
G1 X188.646 Y45.389 E21.62768
G1 X190.467 Y43.569 E21.93712
G1 X189.445 Y43.569 E22.05995
G1 X187.624 Y45.389 E22.36938
G1 X186.602 Y45.389 E22.49221
G1 X188.423 Y43.569 E22.80164
G1 X187.401 Y43.569 E22.92447
G1 X185.580 Y45.389 E23.23390
G1 X184.558 Y45.389 E23.35673
G1 X186.379 Y43.569 E23.66616
G1 X185.357 Y43.569 E23.78899
G1 X183.536 Y45.389 E24.09842
G1 X182.514 Y45.389 E24.22125
G1 X184.335 Y43.569 E24.53068
G1 X183.313 Y43.569 E24.65351
G1 X181.492 Y45.389 E24.96294
G1 X180.470 Y45.389 E25.08577
G1 X182.291 Y43.569 E25.39520
G1 X181.268 Y43.569 E25.51803
G1 X179.448 Y45.389 E25.82746
G1 X178.426 Y45.389 E25.95029
G1 X180.246 Y43.569 E26.25972
G1 X179.224 Y43.569 E26.38255
G1 X177.404 Y45.389 E26.69198
G1 X176.382 Y45.389 E26.81481
G1 X178.202 Y43.569 E27.12424
G1 X177.180 Y43.569 E27.24707
G1 X175.360 Y45.389 E27.55651
G1 X174.338 Y45.389 E27.67934
G1 X176.158 Y43.569 E27.98877
G1 X175.136 Y43.569 E28.11160
G1 X173.316 Y45.389 E28.42103
G1 X172.294 Y45.389 E28.54386
G1 X174.114 Y43.569 E28.85329
G1 X173.092 Y43.569 E28.97612
G1 X171.272 Y45.389 E29.28555
G1 X170.250 Y45.389 E29.40838
G1 X172.070 Y43.569 E29.71781
G1 X171.048 Y43.569 E29.84064
G1 X169.228 Y45.389 E30.15007
G1 X168.206 Y45.389 E30.27290
G1 X170.026 Y43.569 E30.58233
G1 X169.004 Y43.569 E30.70516
G1 X167.184 Y45.389 E31.01459
G1 X166.162 Y45.389 E31.13742
G1 X167.982 Y43.569 E31.44685
G1 X166.960 Y43.569 E31.56968
G1 X165.140 Y45.389 E31.87911
G1 X164.118 Y45.389 E32.00194
G1 X165.938 Y43.569 E32.31137
G1 X164.916 Y43.569 E32.43420
G1 X163.095 Y45.389 E32.74363
G1 X162.559 Y45.389 E32.80806
G1 X162.559 Y45.925 E32.87249
G1 X161.294 Y47.190 E33.08750
G1 X161.294 Y46.168 E33.21033
G1 X163.894 Y43.569 E33.65219
G1 X162.872 Y43.569 E33.77502
G1 X161.294 Y45.146 E34.04316
G1 X161.294 Y44.124 E34.16599
G1 X161.850 Y43.569 E34.26043
G1 E32.26043 F2400.00000
G92 E0
G1 X199.198 Y78.288 F7800.000
G1 E2.00000 F2400.00000
G1 F1800
G1 X200.329 Y78.403 E2.07587
G1 X201.137 Y78.430 E2.12977
G1 X199.198 Y78.288 F7800.000
G1 F1800
G1 X198.067 Y78.172 E2.18975
G1 F1800
G1 X197.434 Y78.081 E2.21452
G1 F1800
G1 X196.383 Y77.925 E2.24667
G1 F1800
G1 X195.713 Y77.822 E2.25841
G1 F1800
G1 X195.147 Y77.711 E2.26302
G1 E0.26302 F2400.00000
G92 E0
G1 X165.447 Y122.034 F7800.000
G1 E2.00000 F2400.00000
G1 F1800
G1 X165.447 Y166.484 E7.27911
G1 X162.753 Y166.484 E7.59899
G1 X162.753 Y119.340 E13.19798
G1 X206.797 Y119.340 E18.42880
G1 X206.797 Y153.784 E22.51947
G1 X204.103 Y153.784 E22.83935
G1 X204.103 Y122.034 E26.61014
G1 X165.507 Y122.034 E31.19408
G1 X166.161 Y122.748 F7800.000
G1 F1800
G1 X166.161 Y167.198 E36.47319
G1 X162.039 Y167.198 E36.96270
G1 X162.039 Y118.626 E42.73133
G1 X207.511 Y118.626 E48.13178
G1 X207.511 Y154.498 E52.39209
G1 X203.389 Y154.498 E52.88160
G1 X203.389 Y122.748 E56.65239
G1 X166.221 Y122.748 E61.06670
G1 X166.875 Y123.462 F7800.000
G1 F1800
G1 X166.875 Y167.912 E66.34581
G1 X161.325 Y167.912 E67.00495
G1 X161.325 Y117.912 E72.94321
G1 X208.225 Y117.912 E78.51330
G1 X208.225 Y155.212 E82.94324
G1 X202.183 Y155.212 E83.66085
G1 X199.879 Y154.890 E83.93711
G1 X197.663 Y154.479 E84.20477
G1 X195.762 Y154.034 E84.43670
G1 X194.125 Y153.574 E84.63856
G1 X192.559 Y153.057 E84.83442
G1 X191.817 Y152.772 E84.92886
G1 X191.953 Y152.381 E84.97810
G1 X192.513 Y152.554 E85.04782
G1 X194.091 Y152.960 E85.24125
G1 X195.742 Y153.303 E85.44160
G1 X197.663 Y153.610 E85.67264
G1 X199.904 Y153.859 E85.94039
G1 X202.675 Y154.039 E86.27018
G1 X202.675 Y123.462 E89.90164
G1 X166.935 Y123.462 E94.14631
G1 X166.486 Y123.368 F7800.000
G1 E92.14631 F2400.00000
G92 E0
G1 X191.500 Y152.464 F7800.000
G1 E2.00000 F2400.00000
G1 F1800
G1 X189.948 Y151.844 E2.29543
G1 F1800
G1 X188.835 Y151.342 E2.49615
G1 F1800
G1 X187.772 Y150.803 E2.67717
G1 F1800
G1 X186.857 Y150.285 E2.82499
G1 F1800
G1 X185.628 Y149.500 E3.01659
G1 F1800
G1 X184.574 Y148.732 E3.17632
G1 F1800
G1 X183.888 Y148.176 E3.27708
G1 X183.200 Y147.564 E3.38204
G1 X182.544 Y146.925 E3.48650
G1 X181.920 Y146.258 E3.59058
G1 X181.329 Y145.565 E3.69447
G1 X180.772 Y144.845 E3.79834
G1 X180.247 Y144.099 E3.90236
G1 X179.755 Y143.327 E4.00672
G1 F1800
G1 X179.418 Y142.751 E4.08949
G1 X178.994 Y141.956 E4.20119
G1 F1800
G1 X178.484 Y140.875 E4.36227
G1 F1800
G1 X178.118 Y139.991 E4.50366
G1 F1800
G1 X177.790 Y139.096 E4.65376
G1 F1800
G1 X177.495 Y138.178 E4.81605
G1 X177.270 Y137.395 E4.95312
G1 E2.95312 F2400.00000
G92 E0
G1 X175.682 Y127.437 F7800.000
G1 E2.00000 F2400.00000
G1 F1800
G1 X176.852 Y127.437 E2.13900
G1 X176.759 Y129.099 E2.33674
G1 X176.737 Y130.248 E2.47317
G1 X176.749 Y131.385 E2.60823
