; generated by Slic3r 1.3.0 on 2021-07-03 at 13:42:47

; external perimeters extrusion width = 0.44mm (3.38mm^3/s)
; perimeters extrusion width = 0.48mm (7.54mm^3/s)
; infill extrusion width = 0.48mm (10.05mm^3/s)
; solid infill extrusion width = 0.48mm (2.51mm^3/s)
; top infill extrusion width = 0.48mm (1.88mm^3/s)

M107
M190 S65 ; set bed temperature and wait for it to be reached
M104 S205 ; set temperature
G28 ; home all axes
G1 Z5 F5000 ; lift nozzle

; Filament gcode

M109 S205 ; set temperature and wait for it to be reached
G21 ; set units to millimeters
G90 ; use absolute coordinates
M82 ; use absolute distances for extrusion
G92 E0
G1 Z0.400 F7800.000
G1 E-2.00000 F2400.00000
G92 E0
G1 X92.216 Y43.336 F7800.000
G1 E2.00000 F2400.00000
G1 F1800
G1 X93.364 Y41.332 E2.27422
G1 X95.122 Y39.836 E2.54845
G1 X97.283 Y39.023 E2.82267
G1 X98.529 Y38.907 E2.97129
G1 X136.629 Y38.907 E7.49624
G1 X138.904 Y39.304 E7.77047
G1 X140.909 Y40.448 E8.04469
G1 X142.409 Y42.204 E8.31892
G1 X143.225 Y44.364 E8.59314
G1 X143.343 Y45.621 E8.74311
G1 X143.343 Y83.732 E13.26942
G1 X143.185 Y176.691 E24.30964
G1 X142.784 Y178.964 E24.58386
G1 X141.636 Y180.968 E24.85809
G1 X138.964 Y182.913 E25.25061
G1 X107.214 Y195.613 E29.31188
G1 X104.721 Y196.093 E29.61347
G1 X98.371 Y196.093 E30.36763
G1 X96.096 Y195.696 E30.64186
G1 X94.091 Y194.552 E30.91608
G1 X92.591 Y192.796 E31.19031
G1 X91.775 Y190.636 E31.46453
G1 X91.657 Y189.379 E31.61450
G1 X91.657 Y138.568 E37.64913
G1 X91.815 Y45.609 E48.68935
G1 X92.206 Y43.395 E48.95645
G1 E46.95645 F2400.00000
G92 E0
G1 X132.108 Y50.143 F7800.000
G1 E2.00000 F2400.00000
G1 F1800
G1 X103.051 Y50.143 E5.45092
G1 X103.051 Y94.593 E10.73003
G1 X100.358 Y94.593 E11.04991
G1 X100.358 Y47.449 E16.64890
G1 X134.801 Y47.449 E20.73957
G1 X134.801 Y81.893 E24.83024
G1 X132.108 Y81.893 E25.15012
G1 X132.108 Y50.203 E28.91379
G1 X131.393 Y50.857 F7800.000
G1 F1800
G1 X103.765 Y50.857 E32.19507
G1 X103.765 Y95.307 E37.47418
G1 X99.643 Y95.307 E37.96370
G1 X99.643 Y46.735 E43.73232
G1 X135.515 Y46.735 E47.99263
G1 X135.515 Y82.607 E52.25293
G1 X131.393 Y82.607 E52.74245
G1 X131.393 Y50.917 E56.50611
G1 X130.679 Y51.571 F7800.000
G1 F1800
G1 X104.479 Y51.571 E59.61776
G1 X104.479 Y96.021 E64.89687
G1 X98.929 Y96.021 E65.55602
G1 X98.929 Y46.021 E71.49428
G1 X136.229 Y46.021 E75.92422
G1 X136.229 Y83.321 E80.35416
G1 X130.333 Y83.321 E81.05447
G1 X129.262 Y83.004 E81.18707
G1 X128.336 Y82.645 E81.30501
G1 X128.458 Y82.262 E81.35273
G1 X129.061 Y82.411 E81.42657
G1 X129.644 Y82.528 E81.49711
G1 X130.679 Y82.687 E81.62157
G1 X130.679 Y51.631 E85.30999
G1 X130.684 Y51.171 F7800.000
G1 E83.30999 F2400.00000
G92 E0
G1 X128.017 Y82.328 F7800.000
G1 E2.00000 F2400.00000
G1 F1800
G1 X127.098 Y81.915 E2.16675
G1 F1800
G1 X126.495 Y81.614 E2.27135
G1 F1800
G1 X126.070 Y81.373 E2.34109
G1 F1800
G1 X125.336 Y80.920 E2.45553
G1 F1800
G1 X124.858 Y80.581 E2.52481
G1 F1800
G1 X124.389 Y80.224 E2.58830
G1 F1800
G1 X123.931 Y79.846 E2.64718
G1 X123.554 Y79.501 E2.69792
G1 F1800
G1 X123.049 Y79.031 E2.75760
G1 X122.731 Y78.705 E2.79715
G1 F1800
G1 X122.201 Y78.121 E2.85643
G1 X121.406 Y77.148 E2.95079
G1 F1800
G1 X120.613 Y76.038 E3.03373
G1 X120.046 Y75.147 E3.09797
G1 X119.520 Y74.250 E3.16119
G1 X119.063 Y73.395 E3.22022
G1 X118.557 Y72.369 E3.28974
G1 X118.074 Y71.298 E3.36120
G1 X117.609 Y70.174 E3.43517
G1 X117.164 Y68.997 E3.51173
G1 F1800
G1 X116.738 Y67.764 E3.60367
G1 F1800
G1 X116.374 Y66.620 E3.69946
G1 X115.988 Y65.282 E3.81054
G1 F1800
G1 X115.638 Y63.995 E3.93280
G1 X115.431 Y63.144 E4.01299
G1 F1800
G1 X115.117 Y61.818 E4.15574
G1 X114.921 Y60.887 E4.25539
G1 F1800
G1 X114.640 Y59.520 E4.42210
G1 X114.463 Y58.541 E4.54087
G1 F1800
G1 X114.260 Y57.412 E4.69500
G1 X114.082 Y56.274 E4.84988
G1 F1800
G1 X113.906 Y55.146 E5.01745
G1 E3.01745 F2400.00000
G92 E0
G1 X101.072 Y48.163 F7800.000
G1 E2.00000 F2400.00000
G1 F1800
G1 X134.087 Y48.163 E5.94059
G1 X134.087 Y81.178 E9.88117
G1 X132.822 Y81.178 E10.03217
G1 X132.822 Y49.428 E13.82176
G1 X102.337 Y49.428 E17.46035
G1 X102.337 Y93.878 E22.76578
G1 X101.072 Y93.878 E22.91678
G1 X101.072 Y48.223 E28.36604
G1 E26.36604 F2400.00000
G92 E0
G1 X131.949 Y143.101 F7800.000
G1 E2.00000 F2400.00000
G1 F1800
G1 X102.892 Y143.101 E5.45092
G1 X102.892 Y187.551 E10.73003
G1 X100.199 Y187.551 E11.04991
G1 X100.199 Y140.407 E16.64890
G1 X134.642 Y140.407 E20.73957
G1 X134.642 Y174.851 E24.83024
G1 X131.949 Y174.851 E25.15012
G1 X131.949 Y143.161 E28.91379
G1 X131.235 Y143.815 F7800.000
G1 F1800
G1 X103.607 Y143.815 E32.19507
G1 X103.607 Y188.265 E37.47418
G1 X99.485 Y188.265 E37.96370
G1 X99.485 Y139.693 E43.73232
G1 X135.357 Y139.693 E47.99263
G1 X135.357 Y175.565 E52.25293
G1 X131.235 Y175.565 E52.74245
G1 X131.235 Y143.875 E56.50611
G1 X130.521 Y144.529 F7800.000
G1 F1800
G1 X104.321 Y144.529 E59.61776
G1 X104.321 Y188.979 E64.89687
G1 X98.771 Y188.979 E65.55602
G1 X98.771 Y138.979 E71.49428
G1 X136.071 Y138.979 E75.92422
G1 X136.071 Y176.279 E80.35416
G1 X130.174 Y176.279 E81.05447
G1 X129.104 Y175.963 E81.18707
G1 X128.178 Y175.603 E81.30501
G1 X128.299 Y175.220 E81.35273
G1 X128.903 Y175.369 E81.42657
G1 X129.485 Y175.486 E81.49711
G1 X130.521 Y175.646 E81.62157
G1 X130.521 Y144.589 E85.30999
G1 X130.525 Y144.129 F7800.000
G1 E83.30999 F2400.00000
G92 E0
G1 X127.859 Y175.286 F7800.000
G1 E2.00000 F2400.00000
G1 F1800
G1 X126.940 Y174.873 E2.16675
G1 F1800
G1 X126.337 Y174.572 E2.27135
G1 F1800
G1 X125.912 Y174.331 E2.34109
G1 F1800
G1 X125.177 Y173.878 E2.45553
G1 F1800
G1 X124.699 Y173.539 E2.52481
G1 F1800
G1 X124.231 Y173.182 E2.58830
G1 F1800
G1 X123.773 Y172.804 E2.64718
G1 X123.395 Y172.459 E2.69792
G1 F1800
G1 X122.891 Y171.990 E2.75760
G1 X122.572 Y171.663 E2.79715
G1 F1800
G1 X122.042 Y171.079 E2.85643
G1 X121.248 Y170.106 E2.95079
G1 F1800
G1 X120.455 Y168.997 E3.03373
G1 X119.888 Y168.105 E3.09797
G1 X119.362 Y167.209 E3.16119
G1 X118.904 Y166.353 E3.22022
G1 X118.399 Y165.327 E3.28974
G1 X117.915 Y164.256 E3.36120
G1 X117.451 Y163.132 E3.43517
G1 X117.005 Y161.955 E3.51173
G1 F1800
G1 X116.580 Y160.722 E3.60367
G1 F1800
G1 X116.215 Y159.579 E3.69946
G1 X115.830 Y158.241 E3.81054
G1 F1800
G1 X115.479 Y156.953 E3.93280
G1 X115.272 Y156.102 E4.01299
G1 F1800
G1 X114.958 Y154.776 E4.15574
G1 X114.763 Y153.846 E4.25539
G1 F1800
G1 X114.482 Y152.478 E4.42210
G1 X114.304 Y151.499 E4.54087
G1 F1800
G1 X114.102 Y150.371 E4.69500
G1 X113.924 Y149.232 E4.84988
G1 F1800
G1 X113.747 Y148.104 E5.01745
G1 E3.01745 F2400.00000
G92 E0
G1 X100.913 Y141.122 F7800.000
G1 E2.00000 F2400.00000
G1 F1800
G1 X133.928 Y141.122 E5.94059
G1 X133.928 Y174.137 E9.88117
G1 X132.663 Y174.137 E10.03217
G1 X132.663 Y142.387 E13.82176
G1 X102.178 Y142.387 E17.46035
G1 X102.178 Y186.837 E22.76578
G1 X100.913 Y186.837 E22.91678
G1 X100.913 Y141.182 E28.36604
M104 S200 ; set temperature
M140 S60 ; set bed temperature
G1 Z0.700 F7800.000
G1 E26.36604 F2400.00000
G92 E0
G1 X131.315 Y50.935 F7800.000
G1 E2.00000 F2400.00000
G1 F3600
G1 X103.843 Y50.935 E3.43529
G1 X103.843 Y95.385 E5.75757
G1 X99.565 Y95.385 E5.98106
G1 X99.565 Y46.657 E8.52684
G1 X135.593 Y46.657 E10.40910
G1 X135.593 Y82.685 E12.29137
G1 X131.315 Y82.685 E12.51486
G1 X131.315 Y50.995 E14.17050
G1 X130.896 Y51.354 F7800.000
G1 F3600
G1 X104.262 Y51.354 E15.56202
G1 X104.262 Y95.804 E17.88430
G1 X99.146 Y95.804 E18.15156
G1 X99.146 Y46.238 E20.74111
G1 X136.012 Y46.238 E22.66714
G1 X136.012 Y83.104 E24.59318
G1 X130.896 Y83.104 E24.86044
G1 X130.896 Y51.414 E26.51608
G1 X130.499 Y51.751 F7800.000
G1 F1800
G1 X104.659 Y51.751 E27.72666
G1 X104.659 Y96.201 E29.80912
G1 X98.749 Y96.201 E30.08600
G1 X98.749 Y45.841 E32.44533
G1 X136.409 Y45.841 E34.20968
G1 X136.409 Y83.501 E35.97402
G1 X130.309 Y83.501 E36.25983
G1 X129.762 Y83.352 E36.28638
G1 X128.647 Y82.972 E36.34157
G1 X128.103 Y82.747 E36.36915
G1 X127.043 Y82.229 E36.42441
G1 X126.035 Y81.628 E36.47939
G1 X125.516 Y81.276 E36.50879
G1 X124.538 Y80.521 E36.56665
G1 X123.971 Y80.020 E36.60209
G1 X124.110 Y79.859 E36.61205
G1 X124.932 Y80.454 E36.65960
G1 X125.420 Y80.762 E36.68662
G1 X125.917 Y81.046 E36.71346
G1 X126.425 Y81.306 E36.74016
G1 X126.942 Y81.541 E36.76679
G1 X127.469 Y81.751 E36.79339
G1 X128.006 Y81.938 E36.82002
G1 X128.553 Y82.100 E36.84673
G1 X129.109 Y82.237 E36.87357
G1 X129.675 Y82.350 E36.90061
G1 X130.499 Y82.477 E36.93967
G1 X130.499 Y51.811 E38.37638
G1 X130.503 Y51.351 F7800.000
G1 E36.37638 F2400.00000
G92 E0
G1 X123.875 Y79.795 F7800.000
G1 E2.00000 F2400.00000
G1 F1800
G1 X123.049 Y79.031 E2.07704
G1 F1800
G1 X122.261 Y78.191 E2.14816
G1 F1800
G1 X121.410 Y77.154 E2.22137
G1 F1800
G1 X120.613 Y76.038 E2.28755
G1 X120.046 Y75.147 E2.33855
G1 X119.520 Y74.250 E2.38874
G1 X119.063 Y73.395 E2.43560
G1 X118.557 Y72.369 E2.49078
G1 X118.074 Y71.298 E2.54752
G1 X117.609 Y70.174 E2.60624
G1 X117.164 Y68.997 E2.66701
G1 F1800
G1 X116.738 Y67.764 E2.73946
G1 F1800
G1 X116.374 Y66.620 E2.81453
G1 X115.988 Y65.280 E2.90176
G1 F1800
G1 X115.660 Y64.078 E2.99069
G1 X115.691 Y64.025 E2.99507
G1 F1800
G1 X115.723 Y63.973 E2.99880
G1 F1800
G1 X115.895 Y63.691 E3.01534
G1 E1.01534 F2400.00000
G92 E0
G1 X114.212 Y55.366 F7800.000
G1 E2.00000 F2400.00000
G1 F900
G1 X114.485 Y57.374 E2.09494
G1 X114.822 Y59.483 E2.19498
G1 X115.254 Y61.784 E2.30470
G1 X115.638 Y63.527 E2.38831
G1 X115.423 Y63.579 E2.39864
G1 X115.093 Y62.337 E2.45886
G1 X114.550 Y60.007 E2.57096
G1 X114.064 Y57.615 E2.68528
G1 X113.667 Y55.366 E2.79230
G1 X114.152 Y55.366 E2.81505
G1 X114.239 Y55.765 F7800.000
G1 X113.971 Y55.564 F7800.000
G1 F1200
G1 X114.259 Y57.407 E2.82226
G1 E0.82226 F2400.00000
G92 E0
G1 X131.656 Y50.679 F7800.000
G1 E2.00000 F2400.00000
G1 F1200
G1 X127.890 Y46.913 E2.27873
G1 X127.297 Y46.913 E2.30979
G1 X131.063 Y50.679 E2.58852
G1 X130.469 Y50.679 E2.61958
G1 X126.703 Y46.913 E2.89831
G1 X126.110 Y46.913 E2.92937
G1 X129.876 Y50.679 E3.20810
G1 X129.282 Y50.679 E3.23915
G1 X125.516 Y46.913 E3.51789
G1 X124.923 Y46.913 E3.54894
G1 X128.689 Y50.679 E3.82767
G1 X128.095 Y50.679 E3.85873
G1 X124.330 Y46.913 E4.13746
G1 X123.736 Y46.913 E4.16852
G1 X127.502 Y50.679 E4.44725
G1 X126.909 Y50.679 E4.47831
G1 X123.143 Y46.913 E4.75704
G1 X122.549 Y46.913 E4.78810
G1 X126.315 Y50.679 E5.06683
G1 X125.722 Y50.679 E5.09789
G1 X121.956 Y46.913 E5.37662
G1 X121.362 Y46.913 E5.40768
G1 X125.128 Y50.679 E5.68641
G1 X124.535 Y50.679 E5.71746
G1 X120.769 Y46.913 E5.99619
G1 X120.176 Y46.913 E6.02725
G1 X123.941 Y50.679 E6.30598
G1 X123.348 Y50.679 E6.33704
G1 X119.582 Y46.913 E6.61577
G1 X118.989 Y46.913 E6.64683
G1 X122.755 Y50.679 E6.92556
G1 X122.161 Y50.679 E6.95662
G1 X118.395 Y46.913 E7.23535
G1 X117.802 Y46.913 E7.26641
G1 X121.568 Y50.679 E7.54514
G1 X120.974 Y50.679 E7.57620
G1 X117.208 Y46.913 E7.85493
G1 X116.615 Y46.913 E7.88598
G1 X120.381 Y50.679 E8.16472
G1 X119.787 Y50.679 E8.19577
G1 X116.022 Y46.913 E8.47450
G1 X115.428 Y46.913 E8.50556
G1 X119.194 Y50.679 E8.78429
G1 X118.601 Y50.679 E8.81535
G1 X114.835 Y46.913 E9.09408
G1 X114.241 Y46.913 E9.12514
G1 X118.007 Y50.679 E9.40387
G1 X117.414 Y50.679 E9.43493
G1 X113.648 Y46.913 E9.71366
G1 X113.054 Y46.913 E9.74472
G1 X116.820 Y50.679 E10.02345
G1 X116.227 Y50.679 E10.05450
G1 X112.461 Y46.913 E10.33324
G1 X111.868 Y46.913 E10.36429
G1 X115.633 Y50.679 E10.64302
G1 X115.040 Y50.679 E10.67408
G1 X111.274 Y46.913 E10.95281
G1 X110.681 Y46.913 E10.98387
G1 X114.447 Y50.679 E11.26260
G1 X113.853 Y50.679 E11.29366
G1 X110.087 Y46.913 E11.57239
G1 X109.494 Y46.913 E11.60345
G1 X113.260 Y50.679 E11.88218
G1 X112.666 Y50.679 E11.91324
G1 X108.900 Y46.913 E12.19197
G1 X108.307 Y46.913 E12.22303
G1 X112.073 Y50.679 E12.50176
G1 X111.479 Y50.679 E12.53281
G1 X107.714 Y46.913 E12.81154
G1 X107.120 Y46.913 E12.84260
G1 X110.886 Y50.679 E13.12133
G1 X110.293 Y50.679 E13.15239
G1 X106.527 Y46.913 E13.43112
G1 X105.933 Y46.913 E13.46218
G1 X109.699 Y50.679 E13.74091
G1 X109.106 Y50.679 E13.77197
G1 X105.340 Y46.913 E14.05070
G1 X104.746 Y46.913 E14.08176
G1 X108.512 Y50.679 E14.36049
G1 X107.919 Y50.679 E14.39155
G1 X104.153 Y46.913 E14.67028
G1 X103.560 Y46.913 E14.70133
G1 X107.325 Y50.679 E14.98006
G1 X106.732 Y50.679 E15.01112
G1 X102.966 Y46.913 E15.28985
G1 X102.373 Y46.913 E15.32091
G1 X106.139 Y50.679 E15.59964
G1 X105.545 Y50.679 E15.63070
G1 X101.779 Y46.913 E15.90943
G1 X101.186 Y46.913 E15.94049
G1 X104.952 Y50.679 E16.21922
G1 X104.358 Y50.679 E16.25028
G1 X100.592 Y46.913 E16.52901
G1 X99.999 Y46.913 E16.56007
G1 X103.765 Y50.679 E16.83880
G1 X103.587 Y50.679 E16.84810
G1 X103.587 Y51.095 E16.86985
G1 X99.821 Y47.329 E17.14858
G1 X99.821 Y47.922 E17.17964
G1 X103.587 Y51.688 E17.45837
G1 X103.587 Y52.281 E17.48943
G1 X99.821 Y48.516 E17.76816
G1 X99.821 Y49.109 E17.79922
G1 X103.587 Y52.875 E18.07795
G1 X103.587 Y53.468 E18.10901
G1 X99.821 Y49.702 E18.38774
G1 X99.821 Y50.296 E18.41880
G1 X103.587 Y54.062 E18.69753
G1 X103.587 Y54.655 E18.72859
G1 X99.821 Y50.889 E19.00732
G1 X99.821 Y51.483 E19.03837
G1 X103.587 Y55.248 E19.31710
G1 X103.587 Y55.842 E19.34816
G1 X99.821 Y52.076 E19.62689
G1 X99.821 Y52.670 E19.65795
G1 X103.587 Y56.435 E19.93668
G1 X103.587 Y57.029 E19.96774
G1 X99.821 Y53.263 E20.24647
G1 X99.821 Y53.856 E20.27753
G1 X103.587 Y57.622 E20.55626
G1 X103.587 Y58.216 E20.58732
G1 X99.821 Y54.450 E20.86605
G1 X99.821 Y55.043 E20.89711
G1 X103.587 Y58.809 E21.17584
G1 X103.587 Y59.402 E21.20689
G1 X99.821 Y55.637 E21.48562
G1 X99.821 Y56.230 E21.51668
G1 X103.587 Y59.996 E21.79541
G1 X103.587 Y60.589 E21.82647
G1 X99.821 Y56.823 E22.10520
G1 X99.821 Y57.417 E22.13626
G1 X103.587 Y61.183 E22.41499
G1 X103.587 Y61.776 E22.44605
G1 X99.821 Y58.010 E22.72478
G1 X99.821 Y58.604 E22.75584
G1 X103.587 Y62.370 E23.03457
G1 X103.587 Y62.963 E23.06563
G1 X99.821 Y59.197 E23.34436
G1 X99.821 Y59.791 E23.37541
G1 X103.587 Y63.556 E23.65414
G1 X103.587 Y64.150 E23.68520
G1 X99.821 Y60.384 E23.96393
G1 X99.821 Y60.977 E23.99499
G1 X103.587 Y64.743 E24.27372
G1 X103.587 Y65.337 E24.30478
G1 X99.821 Y61.571 E24.58351
G1 X99.821 Y62.164 E24.61457
G1 X103.587 Y65.930 E24.89330
G1 X103.587 Y66.524 E24.92436
G1 X99.821 Y62.758 E25.20309
G1 X99.821 Y63.351 E25.23415
G1 X103.587 Y67.117 E25.51288
G1 X103.587 Y67.710 E25.54393
G1 X99.821 Y63.945 E25.82266
G1 X99.821 Y64.538 E25.85372
G1 X103.587 Y68.304 E26.13245
G1 X103.587 Y68.897 E26.16351
G1 X99.821 Y65.131 E26.44224
G1 X99.821 Y65.725 E26.47330
G1 X103.587 Y69.491 E26.75203
G1 X103.587 Y70.084 E26.78309
G1 X99.821 Y66.318 E27.06182
G1 X99.821 Y66.912 E27.09288
G1 X103.587 Y70.678 E27.37161
G1 X103.587 Y71.271 E27.40267
G1 X99.821 Y67.505 E27.68140
G1 X99.821 Y68.099 E27.71245
G1 X103.587 Y71.864 E27.99118
G1 X103.587 Y72.458 E28.02224
G1 X99.821 Y68.692 E28.30097
G1 X99.821 Y69.285 E28.33203
G1 X103.587 Y73.051 E28.61076
G1 X103.587 Y73.645 E28.64182
G1 X99.821 Y69.879 E28.92055
G1 X99.821 Y70.472 E28.95161
G1 X103.587 Y74.238 E29.23034
G1 X103.587 Y74.832 E29.26140
G1 X99.821 Y71.066 E29.54013
G1 X99.821 Y71.659 E29.57119
G1 X103.587 Y75.425 E29.84992
G1 X103.587 Y76.018 E29.88097
G1 X99.821 Y72.253 E30.15971
G1 X99.821 Y72.846 E30.19076
G1 X103.587 Y76.612 E30.46949
G1 X103.587 Y77.205 E30.50055
G1 X99.821 Y73.439 E30.77928
G1 X99.821 Y74.033 E30.81034
G1 X103.587 Y77.799 E31.08907
G1 X103.587 Y78.392 E31.12013
G1 X99.821 Y74.626 E31.39886
G1 X99.821 Y75.220 E31.42992
G1 X103.587 Y78.986 E31.70865
G1 X103.587 Y79.579 E31.73971
G1 X99.821 Y75.813 E32.01844
G1 X99.821 Y76.407 E32.04949
G1 X103.587 Y80.172 E32.32823
G1 X103.587 Y80.766 E32.35928
G1 X99.821 Y77.000 E32.63801
G1 X99.821 Y77.593 E32.66907
G1 X103.587 Y81.359 E32.94780
G1 X103.587 Y81.953 E32.97886
G1 X99.821 Y78.187 E33.25759
G1 X99.821 Y78.780 E33.28865
G1 X103.587 Y82.546 E33.56738
G1 X103.587 Y83.140 E33.59844
G1 X99.821 Y79.374 E33.87717
G1 X99.821 Y79.967 E33.90823
G1 X103.587 Y83.733 E34.18696
G1 X103.587 Y84.326 E34.21801
G1 X99.821 Y80.561 E34.49675
G1 X99.821 Y81.154 E34.52780
G1 X103.587 Y84.920 E34.80653
G1 X103.587 Y85.513 E34.83759
G1 X99.821 Y81.747 E35.11632
G1 X99.821 Y82.341 E35.14738
