; generated by Slic3r 1.3.0 on 2021-07-03 at 17:52:34

; external perimeters extrusion width = 0.44mm (3.38mm^3/s)
; perimeters extrusion width = 0.48mm (7.54mm^3/s)
; infill extrusion width = 0.48mm (10.05mm^3/s)
; solid infill extrusion width = 0.48mm (2.51mm^3/s)
; top infill extrusion width = 0.48mm (1.88mm^3/s)

M107
M190 S65 ; set bed temperature and wait for it to be reached
M104 S205 ; set temperature
G28 ; home all axes
G1 Z5 F5000 ; lift nozzle

; Filament gcode

M109 S205 ; set temperature and wait for it to be reached
G21 ; set units to millimeters
G90 ; use absolute coordinates
M82 ; use absolute distances for extrusion
G92 E0
G1 Z0.400 F7800.000
G1 E-2.00000 F2400.00000
G92 E0
G1 X63.383 Y86.320 F7800.000
G1 E2.00000 F2400.00000
G1 F1800
G1 X65.543 Y85.505 E2.27422
G1 X66.800 Y85.386 E2.42419
G1 X168.200 Y85.386 E14.46698
G1 X170.475 Y85.783 E14.74120
G1 X172.480 Y86.927 E15.01543
G1 X173.980 Y88.683 E15.28965
G1 X174.795 Y90.843 E15.56388
G1 X174.914 Y92.100 E15.71385
G1 X174.914 Y130.200 E20.23880
G1 X174.517 Y132.475 E20.51302
G1 X173.373 Y134.480 E20.78725
G1 X171.617 Y135.980 E21.06147
G1 X170.171 Y136.618 E21.24920
G1 X128.821 Y149.318 E26.38655
G1 X126.850 Y149.614 E26.62329
G1 X66.800 Y149.614 E33.75514
G1 X64.525 Y149.217 E34.02936
G1 X62.520 Y148.073 E34.30359
G1 X61.020 Y146.317 E34.57781
G1 X60.205 Y144.157 E34.85204
G1 X60.086 Y142.900 E35.00201
G1 X60.086 Y92.100 E41.03528
G1 X60.483 Y89.825 E41.30950
G1 X61.627 Y87.820 E41.58373
G1 X63.337 Y86.359 E41.85083
G1 E39.85083 F2400.00000
G92 E0
G1 X163.678 Y96.622 F7800.000
G1 E2.00000 F2400.00000
G1 F1800
G1 X125.022 Y96.622 E6.59106
G1 X125.022 Y141.072 E11.87017
G1 X122.328 Y141.072 E12.19005
G1 X122.328 Y93.928 E17.78904
G1 X166.372 Y93.928 E23.01986
G1 X166.372 Y128.372 E27.11053
G1 X163.678 Y128.372 E27.43041
G1 X163.678 Y96.682 E31.19408
G1 X162.964 Y97.336 F7800.000
G1 F1800
G1 X125.736 Y97.336 E35.61551
G1 X125.736 Y141.786 E40.89462
G1 X121.614 Y141.786 E41.38413
G1 X121.614 Y93.214 E47.15276
G1 X167.086 Y93.214 E52.55321
G1 X167.086 Y129.086 E56.81352
G1 X162.964 Y129.086 E57.30303
G1 X162.964 Y97.396 E61.06670
G1 X162.250 Y98.050 F7800.000
G1 F1800
G1 X126.450 Y98.050 E65.31849
G1 X126.450 Y142.500 E70.59760
G1 X120.900 Y142.500 E71.25675
G1 X120.900 Y92.500 E77.19501
G1 X167.800 Y92.500 E82.76509
G1 X167.800 Y129.800 E87.19504
G1 X161.763 Y129.800 E87.91201
G1 X160.063 Y129.517 E88.11676
G1 X158.411 Y129.159 E88.31744
G1 X156.988 Y128.777 E88.49244
G1 X155.758 Y128.385 E88.64572
G1 X154.576 Y127.947 E88.79544
G1 X153.313 Y127.408 E88.95857
G1 X153.466 Y127.021 E89.00808
G1 X153.941 Y127.193 E89.06820
G1 X154.890 Y127.491 E89.18626
G1 X155.982 Y127.782 E89.32050
G1 X157.243 Y128.056 E89.47375
G1 X158.555 Y128.279 E89.63181
G1 X160.072 Y128.466 E89.81327
G1 X162.250 Y128.632 E90.07275
G1 X162.250 Y98.110 E93.69765
G1 X162.260 Y97.650 F7800.000
G1 E91.69765 F2400.00000
G92 E0
G1 X152.784 Y127.590 F7800.000
G1 E2.00000 F2400.00000
G1 F1800
G1 X152.505 Y126.824 E2.13728
G1 X151.260 Y126.196 E2.37217
G1 F1800
G1 X150.456 Y125.731 E2.51551
G1 F1800
G1 X149.761 Y125.286 E2.63388
G1 F1800
G1 X149.159 Y124.866 E2.73284
G1 X148.580 Y124.426 E2.83081
G1 F1800
G1 X148.011 Y123.955 E2.92114
G1 X147.489 Y123.487 E3.00678
G1 F1800
G1 X146.975 Y122.989 E3.08714
G1 X146.480 Y122.472 E3.16741
G1 X145.903 Y121.807 E3.26632
G1 X145.330 Y121.076 E3.37058
G1 X144.790 Y120.313 E3.47553
G1 X144.316 Y119.567 E3.57478
G1 X143.941 Y118.915 E3.65913
G1 X143.597 Y118.263 E3.74193
G1 F1800
G1 X143.273 Y117.594 E3.83336
G1 X142.955 Y116.875 E3.93014
G1 F1800
G1 X142.665 Y116.147 E4.03737
G1 X142.396 Y115.397 E4.14645
G1 F1800
G1 X142.147 Y114.625 E4.26736
G1 F1800
G1 X141.819 Y113.450 E4.46271
G1 F1800
G1 X141.506 Y112.109 E4.69891
G1 E2.69891 F2400.00000
G92 E0
G1 X141.419 Y102.025 F7800.000
G1 E2.00000 F2400.00000
G1 F1800
G1 X141.324 Y103.285 E2.15006
G1 X141.254 Y104.835 E2.33438
G1 X141.235 Y106.338 E2.51281
G1 X141.266 Y107.792 E2.68556
G1 X141.347 Y109.198 E2.85280
G1 X141.462 Y110.407 E2.99705
G1 X141.635 Y111.677 E3.14929
G1 X141.227 Y111.754 E3.19856
G1 X141.059 Y111.005 E3.28979
G1 X140.851 Y109.904 E3.42277
G1 X140.674 Y108.773 E3.55878
G1 X140.527 Y107.610 E3.69796
G1 X140.411 Y106.417 E3.84031
G1 X140.304 Y104.776 E4.03569
G1 X140.254 Y103.226 E4.21984
G1 X140.251 Y102.025 E4.36249
G1 X141.359 Y102.025 E4.49405
G1 X141.298 Y102.406 F7800.000
G1 X140.821 Y102.382 F7800.000
G1 F1800
G1 X140.790 Y103.250 E4.54062
G1 F1800
G1 X140.784 Y104.254 E4.58564
G1 F1800
G1 X140.794 Y105.329 E4.62009
G1 F1800
G1 X140.821 Y106.338 E4.63812
G1 F1800
G1 X140.839 Y106.650 E4.63961
G1 E2.63961 F2400.00000
G92 E0
G1 X122.765 Y97.986 F7800.000
G1 E2.00000 F2400.00000
G1 F1800
G1 X122.765 Y99.008 E2.12283
G1 X124.585 Y97.188 E2.43226
G1 X124.585 Y98.210 E2.55509
G1 X122.765 Y100.030 E2.86452
G1 X122.765 Y101.053 E2.98735
G1 X124.585 Y99.232 E3.29678
G1 X124.585 Y100.254 E3.41961
G1 X122.765 Y102.075 E3.72904
G1 X122.765 Y103.097 E3.85187
G1 X124.585 Y101.276 E4.16130
G1 X124.585 Y102.298 E4.28413
G1 X122.765 Y104.119 E4.59356
G1 X122.765 Y105.141 E4.71639
G1 X124.585 Y103.320 E5.02582
G1 X124.585 Y104.342 E5.14865
G1 X122.765 Y106.163 E5.45808
G1 X122.765 Y107.185 E5.58091
G1 X124.585 Y105.364 E5.89034
G1 X124.585 Y106.386 E6.01317
G1 X122.765 Y108.207 E6.32260
G1 X122.765 Y109.229 E6.44543
G1 X124.585 Y107.408 E6.75486
G1 X124.585 Y108.430 E6.87769
G1 X122.765 Y110.251 E7.18712
G1 X122.765 Y111.273 E7.30995
G1 X124.585 Y109.452 E7.61938
G1 X124.585 Y110.474 E7.74221
G1 X122.765 Y112.295 E8.05164
G1 X122.765 Y113.317 E8.17447
G1 X124.585 Y111.496 E8.48390
G1 X124.585 Y112.518 E8.60673
G1 X122.765 Y114.339 E8.91616
G1 X122.765 Y115.361 E9.03899
G1 X124.585 Y113.540 E9.34842
G1 X124.585 Y114.562 E9.47125
G1 X122.765 Y116.383 E9.78068
G1 X122.765 Y117.405 E9.90351
G1 X124.585 Y115.584 E10.21294
G1 X124.585 Y116.606 E10.33577
G1 X122.765 Y118.427 E10.64520
G1 X122.765 Y119.449 E10.76803
G1 X124.585 Y117.628 E11.07746
G1 X124.585 Y118.650 E11.20029
G1 X122.765 Y120.471 E11.50972
G1 X122.765 Y121.493 E11.63255
G1 X124.585 Y119.672 E11.94198
G1 X124.585 Y120.694 E12.06481
G1 X122.765 Y122.515 E12.37424
G1 X122.765 Y123.537 E12.49707
G1 X124.585 Y121.716 E12.80650
G1 X124.585 Y122.739 E12.92933
G1 X122.765 Y124.559 E13.23876
G1 X122.765 Y125.581 E13.36159
G1 X124.585 Y123.761 E13.67102
G1 X124.585 Y124.783 E13.79385
G1 X122.765 Y126.603 E14.10328
G1 X122.765 Y127.625 E14.22611
G1 X124.585 Y125.805 E14.53554
G1 X124.585 Y126.827 E14.65837
G1 X122.765 Y128.647 E14.96780
G1 X122.765 Y129.669 E15.09063
G1 X124.585 Y127.849 E15.40006
G1 X124.585 Y128.871 E15.52289
G1 X122.765 Y130.691 E15.83232
G1 X122.765 Y131.713 E15.95515
G1 X124.585 Y129.893 E16.26458
G1 X124.585 Y130.915 E16.38741
G1 X122.765 Y132.735 E16.69684
G1 X122.765 Y133.757 E16.81967
G1 X124.585 Y131.937 E17.12910
G1 X124.585 Y132.959 E17.25193
G1 X122.765 Y134.779 E17.56136
G1 X122.765 Y135.801 E17.68419
G1 X124.585 Y133.981 E17.99362
G1 X124.585 Y135.003 E18.11645
G1 X122.765 Y136.823 E18.42588
G1 X122.765 Y137.845 E18.54871
G1 X124.585 Y136.025 E18.85814
G1 X124.585 Y137.047 E18.98097
G1 X122.765 Y138.867 E19.29040
G1 X122.765 Y139.889 E19.41323
G1 X124.585 Y138.069 E19.72266
G1 X124.585 Y139.091 E19.84549
G1 X123.041 Y140.635 E20.10798
G1 E18.10798 F2400.00000
G92 E0
G1 X165.380 Y127.935 F7800.000
G1 E2.00000 F2400.00000
G1 F1800
G1 X165.935 Y127.380 E2.09444
G1 X165.935 Y126.358 E2.21727
G1 X164.358 Y127.935 E2.48541
G1 X164.115 Y127.935 E2.51460
G1 X164.115 Y127.156 E2.60824
G1 X165.935 Y125.336 E2.91767
G1 X165.935 Y124.314 E3.04050
G1 X164.115 Y126.134 E3.34993
G1 X164.115 Y125.112 E3.47276
G1 X165.935 Y123.292 E3.78219
G1 X165.935 Y122.270 E3.90502
G1 X164.115 Y124.090 E4.21445
G1 X164.115 Y123.068 E4.33728
G1 X165.935 Y121.248 E4.64671
G1 X165.935 Y120.225 E4.76954
G1 X164.115 Y122.046 E5.07897
G1 X164.115 Y121.024 E5.20180
G1 X165.935 Y119.203 E5.51123
G1 X165.935 Y118.181 E5.63406
G1 X164.115 Y120.002 E5.94349
G1 X164.115 Y118.980 E6.06632
G1 X165.935 Y117.159 E6.37575
G1 X165.935 Y116.137 E6.49857
G1 X164.115 Y117.958 E6.80801
G1 X164.115 Y116.936 E6.93083
G1 X165.935 Y115.115 E7.24026
G1 X165.935 Y114.093 E7.36309
G1 X164.115 Y115.914 E7.67252
G1 X164.115 Y114.892 E7.79535
G1 X165.935 Y113.071 E8.10478
G1 X165.935 Y112.049 E8.22761
G1 X164.115 Y113.870 E8.53704
G1 X164.115 Y112.848 E8.65987
G1 X165.935 Y111.027 E8.96930
G1 X165.935 Y110.005 E9.09213
G1 X164.115 Y111.826 E9.40156
G1 X164.115 Y110.804 E9.52439
G1 X165.935 Y108.983 E9.83382
G1 X165.935 Y107.961 E9.95665
G1 X164.115 Y109.782 E10.26608
G1 X164.115 Y108.760 E10.38891
G1 X165.935 Y106.939 E10.69834
G1 X165.935 Y105.917 E10.82117
G1 X164.115 Y107.738 E11.13060
G1 X164.115 Y106.716 E11.25343
G1 X165.935 Y104.895 E11.56286
G1 X165.935 Y103.873 E11.68569
G1 X164.115 Y105.694 E11.99512
G1 X164.115 Y104.672 E12.11795
G1 X165.935 Y102.851 E12.42738
G1 X165.935 Y101.829 E12.55021
G1 X164.115 Y103.650 E12.85964
G1 X164.115 Y102.628 E12.98247
G1 X165.935 Y100.807 E13.29190
G1 X165.935 Y99.785 E13.41473
G1 X164.115 Y101.606 E13.72416
G1 X164.115 Y100.584 E13.84699
G1 X165.935 Y98.763 E14.15642
G1 X165.935 Y97.741 E14.27925
G1 X164.115 Y99.562 E14.58868
G1 X164.115 Y98.539 E14.71151
G1 X165.935 Y96.719 E15.02094
G1 X165.935 Y95.697 E15.14377
G1 X164.115 Y97.517 E15.45320
G1 X164.115 Y96.495 E15.57603
G1 X165.935 Y94.675 E15.88546
G1 X165.935 Y94.365 E15.92274
G1 X165.223 Y94.365 E16.00829
G1 X163.403 Y96.185 E16.31772
G1 X162.381 Y96.185 E16.44055
G1 X164.201 Y94.365 E16.74998
G1 X163.179 Y94.365 E16.87281
G1 X161.359 Y96.185 E17.18225
G1 X160.337 Y96.185 E17.30508
G1 X162.157 Y94.365 E17.61451
G1 X161.135 Y94.365 E17.73734
G1 X159.315 Y96.185 E18.04677
G1 X158.293 Y96.185 E18.16960
G1 X160.113 Y94.365 E18.47903
G1 X159.091 Y94.365 E18.60186
G1 X157.271 Y96.185 E18.91129
G1 X156.249 Y96.185 E19.03412
G1 X158.069 Y94.365 E19.34355
G1 X157.047 Y94.365 E19.46638
G1 X155.227 Y96.185 E19.77581
G1 X154.205 Y96.185 E19.89864
G1 X156.025 Y94.365 E20.20807
G1 X155.003 Y94.365 E20.33090
G1 X153.183 Y96.185 E20.64033
G1 X152.161 Y96.185 E20.76316
G1 X153.981 Y94.365 E21.07259
G1 X152.959 Y94.365 E21.19542
G1 X151.139 Y96.185 E21.50486
G1 X150.116 Y96.185 E21.62768
G1 X151.937 Y94.365 E21.93712
G1 X150.915 Y94.365 E22.05995
G1 X149.094 Y96.185 E22.36938
G1 X148.072 Y96.185 E22.49221
G1 X149.893 Y94.365 E22.80164
G1 X148.871 Y94.365 E22.92447
G1 X147.050 Y96.185 E23.23390
G1 X146.028 Y96.185 E23.35673
G1 X147.849 Y94.365 E23.66616
G1 X146.827 Y94.365 E23.78899
G1 X145.006 Y96.185 E24.09842
G1 X143.984 Y96.185 E24.22125
G1 X145.805 Y94.365 E24.53068
G1 X144.783 Y94.365 E24.65351
G1 X142.962 Y96.185 E24.96294
G1 X141.940 Y96.185 E25.08577
G1 X143.761 Y94.365 E25.39520
G1 X142.739 Y94.365 E25.51803
G1 X140.918 Y96.185 E25.82746
G1 X139.896 Y96.185 E25.95029
G1 X141.717 Y94.365 E26.25972
G1 X140.695 Y94.365 E26.38255
G1 X138.874 Y96.185 E26.69198
G1 X137.852 Y96.185 E26.81481
G1 X139.673 Y94.365 E27.12424
G1 X138.651 Y94.365 E27.24707
G1 X136.830 Y96.185 E27.55651
G1 X135.808 Y96.185 E27.67934
G1 X137.629 Y94.365 E27.98877
G1 X136.607 Y94.365 E28.11160
G1 X134.786 Y96.185 E28.42103
G1 X133.764 Y96.185 E28.54386
G1 X135.585 Y94.365 E28.85329
G1 X134.563 Y94.365 E28.97612
G1 X132.742 Y96.185 E29.28555
G1 X131.720 Y96.185 E29.40838
G1 X133.541 Y94.365 E29.71781
G1 X132.519 Y94.365 E29.84064
G1 X130.698 Y96.185 E30.15007
G1 X129.676 Y96.185 E30.27290
G1 X131.497 Y94.365 E30.58233
G1 X130.475 Y94.365 E30.70516
G1 X128.654 Y96.185 E31.01459
G1 X127.632 Y96.185 E31.13742
G1 X129.453 Y94.365 E31.44685
G1 X128.430 Y94.365 E31.56968
G1 X126.610 Y96.185 E31.87911
G1 X125.588 Y96.185 E32.00194
G1 X127.408 Y94.365 E32.31137
G1 X126.386 Y94.365 E32.43420
G1 X124.566 Y96.185 E32.74363
G1 X124.030 Y96.185 E32.80806
G1 X124.030 Y96.721 E32.87249
G1 X122.765 Y97.986 E33.08750
G1 X122.765 Y96.964 E33.21033
G1 X125.364 Y94.365 E33.65219
G1 X124.342 Y94.365 E33.77502
G1 X122.765 Y95.942 E34.04316
G1 X122.765 Y94.920 E34.16599
G1 X123.320 Y94.365 E34.26043
G1 E32.26043 F2400.00000
G92 E0
G1 X160.712 Y129.067 F7800.000
G1 E2.00000 F2400.00000
G1 F1800
G1 X161.813 Y129.200 E2.07375
G1 X162.607 Y129.230 E2.12662
G1 X160.712 Y129.067 F7800.000
G1 F1800
G1 X160.024 Y128.980 E2.16133
G1 F1800
G1 X159.016 Y128.809 E2.20084
G1 F1800
G1 X158.050 Y128.623 E2.22371
G1 F1800
G1 X157.612 Y128.527 E2.22744
G1 E0.22744 F2400.00000
G92 E0
G1 X71.322 Y96.622 F7800.000
G1 E2.00000 F2400.00000
G1 F1800
G1 X71.322 Y141.072 E7.27911
G1 X68.628 Y141.072 E7.59899
G1 X68.628 Y93.928 E13.19798
G1 X112.672 Y93.928 E18.42880
G1 X112.672 Y128.372 E22.51947
G1 X109.978 Y128.372 E22.83935
G1 X109.978 Y96.622 E26.61014
G1 X71.382 Y96.622 E31.19408
G1 X72.036 Y97.336 F7800.000
G1 F1800
G1 X72.036 Y141.786 E36.47319
G1 X67.914 Y141.786 E36.96270
G1 X67.914 Y93.214 E42.73133
G1 X113.386 Y93.214 E48.13178
G1 X113.386 Y129.086 E52.39209
G1 X109.264 Y129.086 E52.88160
G1 X109.264 Y97.336 E56.65239
G1 X72.096 Y97.336 E61.06670
G1 X72.750 Y98.050 F7800.000
G1 F1800
G1 X72.750 Y142.500 E66.34581
G1 X67.200 Y142.500 E67.00495
G1 X67.200 Y92.500 E72.94321
G1 X114.100 Y92.500 E78.51330
G1 X114.100 Y129.800 E82.94324
G1 X108.063 Y129.800 E83.66022
G1 X106.363 Y129.517 E83.86496
G1 X104.711 Y129.159 E84.06565
G1 X103.288 Y128.777 E84.24064
G1 X102.058 Y128.385 E84.39392
G1 X100.876 Y127.947 E84.54365
G1 X99.613 Y127.408 E84.70677
G1 X99.766 Y127.021 E84.75628
G1 X100.241 Y127.193 E84.81640
G1 X101.190 Y127.491 E84.93447
G1 X102.282 Y127.782 E85.06871
G1 X103.543 Y128.056 E85.22195
G1 X104.855 Y128.279 E85.38002
G1 X106.372 Y128.466 E85.56148
G1 X108.550 Y128.632 E85.82096
G1 X108.550 Y98.050 E89.45298
G1 X72.810 Y98.050 E93.69765
G1 X72.361 Y97.957 F7800.000
G1 E91.69765 F2400.00000
G92 E0
G1 X99.084 Y127.590 F7800.000
G1 E2.00000 F2400.00000
G1 F1800
G1 X98.805 Y126.824 E2.13728
G1 X97.560 Y126.196 E2.37217
G1 F1800
G1 X96.756 Y125.731 E2.51551
G1 F1800
G1 X96.061 Y125.286 E2.63388
G1 F1800
G1 X95.459 Y124.866 E2.73284
G1 X94.880 Y124.426 E2.83081
G1 F1800
G1 X94.311 Y123.955 E2.92114
G1 X93.789 Y123.487 E3.00678
G1 F1800
G1 X93.275 Y122.989 E3.08714
G1 X92.780 Y122.472 E3.16741
G1 X92.203 Y121.807 E3.26632
G1 X91.630 Y121.076 E3.37058
G1 X91.090 Y120.313 E3.47553
G1 X90.616 Y119.567 E3.57478
G1 X90.241 Y118.915 E3.65913
G1 X89.897 Y118.263 E3.74193
G1 F1800
G1 X89.573 Y117.594 E3.83336
G1 X89.255 Y116.875 E3.93014
G1 F1800
G1 X88.965 Y116.147 E4.03737
G1 X88.696 Y115.397 E4.14645
G1 F1800
G1 X88.447 Y114.625 E4.26736
G1 F1800
G1 X88.119 Y113.450 E4.46271
G1 F1800
G1 X87.806 Y112.109 E4.69891
G1 E2.69891 F2400.00000
G92 E0
G1 X86.551 Y102.025 F7800.000
G1 E2.00000 F2400.00000
G1 F1800
G1 X87.719 Y102.025 E2.13868
G1 X87.624 Y103.285 E2.28874
G1 X87.554 Y104.835 E2.47307
G1 X87.535 Y106.338 E2.65150
G1 X87.566 Y107.792 E2.82425
G1 X87.647 Y109.198 E2.99148
G1 X87.762 Y110.407 E3.13574
G1 X87.935 Y111.677 E3.28797
G1 X87.527 Y111.754 E3.33724
G1 X87.359 Y111.005 E3.42848
G1 X87.151 Y109.904 E3.56145
G1 X86.974 Y108.773 E3.69747
G1 X86.827 Y107.610 E3.83664
G1 X86.711 Y106.417 E3.97900
G1 X86.604 Y104.776 E4.17438
G1 X86.554 Y103.226 E4.35852
G1 X86.551 Y102.085 E4.49405
G1 X86.899 Y102.223 F7800.000
G1 X87.121 Y102.382 F7800.000
G1 F1800
G1 X87.090 Y103.250 E4.54062
G1 F1800
G1 X87.084 Y104.254 E4.58564
G1 F1800
G1 X87.094 Y105.329 E4.62009
G1 F1800
G1 X87.121 Y106.338 E4.63812
G1 F1800
G1 X87.139 Y106.650 E4.63961
G1 E2.63961 F2400.00000
G92 E0
G1 X69.065 Y97.986 F7800.000
G1 E2.00000 F2400.00000
G1 F1800
G1 X69.065 Y99.008 E2.12283
G1 X70.885 Y97.188 E2.43226
G1 X70.885 Y98.210 E2.55509
G1 X69.065 Y100.030 E2.86452
G1 X69.065 Y101.053 E2.98735
G1 X70.885 Y99.232 E3.29678
G1 X70.885 Y100.254 E3.41961
G1 X69.065 Y102.075 E3.72904
G1 X69.065 Y103.097 E3.85187
G1 X70.885 Y101.276 E4.16130
G1 X70.885 Y102.298 E4.28413
G1 X69.065 Y104.119 E4.59356
G1 X69.065 Y105.141 E4.71639
G1 X70.885 Y103.320 E5.02582
G1 X70.885 Y104.342 E5.14865
G1 X69.065 Y106.163 E5.45808
G1 X69.065 Y107.185 E5.58091
G1 X70.885 Y105.364 E5.89034
