; generated by Slic3r 1.3.0 on 2021-07-02 at 22:15:24

; external perimeters extrusion width = 0.44mm (3.38mm^3/s)
; perimeters extrusion width = 0.48mm (7.54mm^3/s)
; infill extrusion width = 0.48mm (10.05mm^3/s)
; solid infill extrusion width = 0.48mm (2.51mm^3/s)
; top infill extrusion width = 0.48mm (1.88mm^3/s)

M107
M190 S65 ; set bed temperature and wait for it to be reached
M104 S205 ; set temperature
G28 ; home all axes
G1 Z5 F5000 ; lift nozzle

; Filament gcode

M109 S205 ; set temperature and wait for it to be reached
G21 ; set units to millimeters
G90 ; use absolute coordinates
M82 ; use absolute distances for extrusion
G92 E0
G1 Z0.400 F7800.000
G1 E-2.00000 F2400.00000
G92 E0
G1 X90.900 Y21.093 F7800.000
G1 E2.00000 F2400.00000
G1 F1800
G1 X92.044 Y19.087 E2.27422
G1 X93.800 Y17.588 E2.54845
G1 X95.960 Y16.772 E2.82267
G1 X97.217 Y16.653 E2.97264
G1 X132.142 Y16.653 E7.12051
G1 X134.417 Y17.050 E7.39474
G1 X136.422 Y18.195 E7.66896
G1 X137.922 Y19.950 E7.94319
G1 X138.851 Y23.092 E8.33230
G1 X144.491 Y160.557 E24.67207
G1 X144.497 Y198.932 E29.22972
G1 X144.100 Y201.207 E29.50394
G1 X142.956 Y203.213 E29.77817
G1 X140.510 Y205.068 E30.14280
G1 X111.935 Y217.768 E33.85660
G1 X109.208 Y218.347 E34.18767
G1 X102.858 Y218.347 E34.94183
G1 X100.583 Y217.950 E35.21605
G1 X98.578 Y216.805 E35.49028
G1 X97.078 Y215.050 E35.76450
G1 X96.149 Y211.908 E36.15361
G1 X90.509 Y74.443 E52.49338
G1 X90.503 Y23.368 E58.55935
G1 X90.890 Y21.152 E58.82645
G1 E56.82645 F2400.00000
G92 E0
G1 X101.739 Y27.889 F7800.000
G1 E2.00000 F2400.00000
G1 F1800
G1 X101.739 Y72.339 E7.27911
G1 X99.046 Y72.339 E7.59899
G1 X99.046 Y25.196 E13.19798
G1 X130.314 Y25.196 E16.91157
G1 X130.314 Y27.889 E17.23145
G1 X101.799 Y27.889 E20.61804
G1 X102.453 Y28.603 F7800.000
G1 F1800
G1 X102.453 Y73.053 E25.89715
G1 X98.331 Y73.053 E26.38667
G1 X98.331 Y24.482 E32.15529
G1 X131.028 Y24.482 E36.03852
G1 X131.028 Y60.353 E40.29882
G1 X130.550 Y60.353 E40.35563
G1 X130.256 Y60.258 E40.39227
G1 X130.256 Y28.603 E44.15174
G1 X102.513 Y28.603 E47.44668
G1 X103.167 Y29.318 F7800.000
G1 F1800
G1 X103.167 Y73.768 E52.72579
G1 X97.617 Y73.768 E53.38494
G1 X97.617 Y23.768 E59.32320
G1 X131.742 Y23.768 E63.37606
G1 X131.742 Y61.068 E67.80600
G1 X130.437 Y61.068 E67.96106
G1 X129.542 Y60.777 E68.07275
G1 X129.542 Y56.040 E68.63539
G1 X124.616 Y54.209 E69.25961
G1 X124.753 Y53.812 E69.30946
G1 X129.542 Y55.368 E69.90746
G1 X129.542 Y50.535 E70.48141
G1 X122.404 Y47.993 E71.38134
G1 X122.540 Y47.593 E71.43152
G1 X129.542 Y49.868 E72.30590
G1 X129.542 Y45.040 E72.87937
G1 X124.629 Y43.213 E73.50186
G1 X124.767 Y42.817 E73.55169
G1 X129.542 Y44.368 E74.14795
G1 X129.542 Y39.540 E74.72142
G1 X124.629 Y37.713 E75.34391
G1 X124.767 Y37.317 E75.39375
G1 X129.542 Y38.868 E75.99001
G1 X129.542 Y29.318 E77.12428
G1 X103.227 Y29.318 E80.24959
G1 X102.770 Y29.271 F7800.000
G1 E78.24959 F2400.00000
G92 E0
G1 X129.142 Y60.693 F7800.000
G1 E2.00000 F2400.00000
G1 F1800
G1 X113.373 Y55.569 E3.73009
G1 E1.73009 F2400.00000
G92 E0
G1 X115.335 Y50.756 F7800.000
G1 E2.00000 F2400.00000
G1 F1800
G1 X113.092 Y49.975 E2.28796
G1 E0.28796 F2400.00000
G92 E0
G1 X115.335 Y50.756 F7800.000
G1 E2.00000 F2400.00000
G1 F1800
G1 X117.578 Y51.536 E2.32384
G1 F1800
G1 X119.821 Y52.317 E2.68357
G1 F1800
G1 X122.064 Y53.098 E3.07917
G1 F1800
G1 X124.307 Y53.879 E3.51066
G1 E1.51066 F2400.00000
G92 E0
G1 X122.094 Y47.664 F7800.000
G1 E2.00000 F2400.00000
G1 F1800
G1 X118.513 Y46.445 E2.69740
G1 F1800
G1 X114.932 Y45.226 E3.33596
G1 F1800
G1 X113.142 Y44.616 E3.62583
G1 E1.62583 F2400.00000
G92 E0
G1 X115.378 Y39.770 F7800.000
G1 E2.00000 F2400.00000
G1 F1800
G1 X113.142 Y38.991 E2.28704
G1 E0.28704 F2400.00000
G92 E0
G1 X115.378 Y39.770 F7800.000
G1 E2.00000 F2400.00000
G1 F1800
G1 X117.614 Y40.548 E2.32279
G1 F1800
G1 X119.849 Y41.326 E2.68133
G1 F1800
G1 X122.085 Y42.105 E3.07563
G1 F1800
G1 X124.321 Y42.883 E3.50568
G1 E1.50568 F2400.00000
G92 E0
G1 X124.321 Y37.383 F7800.000
G1 E2.00000 F2400.00000
G1 F1800
G1 X122.085 Y36.605 E2.43005
G1 F1800
G1 X119.849 Y35.826 E2.82435
G1 F1800
G1 X117.614 Y35.048 E3.18289
G1 F1800
G1 X115.378 Y34.270 E3.50568
G1 F1800
G1 X113.142 Y33.491 E3.79272
G1 E1.79272 F2400.00000
G92 E0
G1 X100.747 Y27.987 F7800.000
G1 E2.00000 F2400.00000
G1 F1800
G1 X100.747 Y27.453 E2.06412
G1 X101.281 Y27.453 E2.12824
G1 X103.101 Y25.632 E2.43746
G1 X104.123 Y25.632 E2.56011
G1 X102.302 Y27.453 E2.86932
G1 X103.324 Y27.453 E2.99198
G1 X105.144 Y25.632 E3.30119
G1 X106.165 Y25.632 E3.42385
G1 X104.345 Y27.453 E3.73306
G1 X105.366 Y27.453 E3.85571
G1 X107.187 Y25.632 E4.16493
G1 X108.208 Y25.632 E4.28758
G1 X106.387 Y27.453 E4.59679
G1 X107.409 Y27.453 E4.71945
G1 X109.229 Y25.632 E5.02866
G1 X110.251 Y25.632 E5.15132
G1 X108.430 Y27.453 E5.46053
G1 X109.451 Y27.453 E5.58319
G1 X111.272 Y25.632 E5.89240
G1 X112.293 Y25.632 E6.01505
G1 X110.473 Y27.453 E6.32427
G1 X111.494 Y27.453 E6.44692
G1 X113.315 Y25.632 E6.75613
G1 X114.336 Y25.632 E6.87879
G1 X112.515 Y27.453 E7.18800
G1 X113.537 Y27.453 E7.31066
G1 X115.357 Y25.632 E7.61987
G1 X116.378 Y25.632 E7.74252
G1 X114.558 Y27.453 E8.05174
G1 X115.579 Y27.453 E8.17439
G1 X117.400 Y25.632 E8.48360
G1 X118.421 Y25.632 E8.60626
G1 X116.600 Y27.453 E8.91547
G1 X117.622 Y27.453 E9.03813
G1 X119.442 Y25.632 E9.34734
G1 X120.464 Y25.632 E9.46999
G1 X118.643 Y27.453 E9.77921
G1 X119.664 Y27.453 E9.90186
G1 X121.485 Y25.632 E10.21107
G1 X122.506 Y25.632 E10.33373
G1 X120.686 Y27.453 E10.64294
G1 X121.707 Y27.453 E10.76560
G1 X123.528 Y25.632 E11.07481
G1 X124.549 Y25.632 E11.19746
G1 X122.728 Y27.453 E11.50668
G1 X123.750 Y27.453 E11.62933
G1 X125.570 Y25.632 E11.93854
G1 X126.591 Y25.632 E12.06120
G1 X124.771 Y27.453 E12.37041
G1 X125.792 Y27.453 E12.49307
G1 X127.613 Y25.632 E12.80228
G1 X128.634 Y25.632 E12.92493
G1 X126.813 Y27.453 E13.23415
G1 X127.835 Y27.453 E13.35680
G1 X129.655 Y25.632 E13.66601
G1 X129.877 Y25.632 E13.69270
G1 X129.877 Y26.431 E13.78867
G1 X128.856 Y27.453 E13.96215
G1 E11.96215 F2400.00000
G92 E0
G1 X100.038 Y25.632 F7800.000
G1 E2.00000 F2400.00000
G1 F1800
G1 X99.482 Y26.188 E2.09438
G1 X99.482 Y27.209 E2.21703
G1 X101.059 Y25.632 E2.48487
G1 X102.080 Y25.632 E2.60753
G1 X99.482 Y28.231 E3.04883
G1 X99.482 Y29.252 E3.17148
G1 X101.302 Y27.431 E3.48069
G1 X101.302 Y28.453 E3.60335
G1 X99.482 Y30.273 E3.91256
G1 X99.482 Y31.294 E4.03522
G1 X101.302 Y29.474 E4.34443
G1 X101.302 Y30.495 E4.46708
G1 X99.482 Y32.316 E4.77629
G1 X99.482 Y33.337 E4.89895
G1 X101.302 Y31.517 E5.20816
G1 X101.302 Y32.538 E5.33082
G1 X99.482 Y34.358 E5.64003
G1 X99.482 Y35.380 E5.76268
G1 X101.302 Y33.559 E6.07190
G1 X101.302 Y34.580 E6.19455
G1 X99.482 Y36.401 E6.50376
G1 X99.482 Y37.422 E6.62642
G1 X101.302 Y35.602 E6.93563
G1 X101.302 Y36.623 E7.05829
G1 X99.482 Y38.444 E7.36750
G1 X99.482 Y39.465 E7.49015
G1 X101.302 Y37.644 E7.79936
G1 X101.302 Y38.666 E7.92202
G1 X99.482 Y40.486 E8.23123
G1 X99.482 Y41.508 E8.35389
G1 X101.302 Y39.687 E8.66310
G1 X101.302 Y40.708 E8.78575
G1 X99.482 Y42.529 E9.09496
G1 X99.482 Y43.550 E9.21762
G1 X101.302 Y41.730 E9.52683
G1 X101.302 Y42.751 E9.64949
G1 X99.482 Y44.571 E9.95870
G1 X99.482 Y45.593 E10.08135
G1 X101.302 Y43.772 E10.39057
G1 X101.302 Y44.793 E10.51322
G1 X99.482 Y46.614 E10.82243
G1 X99.482 Y47.635 E10.94509
G1 X101.302 Y45.815 E11.25430
G1 X101.302 Y46.836 E11.37695
G1 X99.482 Y48.657 E11.68617
G1 X99.482 Y49.678 E11.80882
G1 X101.302 Y47.857 E12.11803
G1 X101.302 Y48.879 E12.24069
G1 X99.482 Y50.699 E12.54990
G1 X99.482 Y51.721 E12.67256
G1 X101.302 Y49.900 E12.98177
G1 X101.302 Y50.921 E13.10442
G1 X99.482 Y52.742 E13.41363
G1 X99.482 Y53.763 E13.53629
G1 X101.302 Y51.943 E13.84550
G1 X101.302 Y52.964 E13.96816
G1 X99.482 Y54.784 E14.27737
G1 X99.482 Y55.806 E14.40002
G1 X101.302 Y53.985 E14.70924
G1 X101.302 Y55.006 E14.83189
G1 X99.482 Y56.827 E15.14110
G1 X99.482 Y57.848 E15.26376
G1 X101.302 Y56.028 E15.57297
G1 X101.302 Y57.049 E15.69563
G1 X99.482 Y58.870 E16.00484
G1 X99.482 Y59.891 E16.12749
G1 X101.302 Y58.070 E16.43670
G1 X101.302 Y59.092 E16.55936
G1 X99.482 Y60.912 E16.86857
G1 X99.482 Y61.934 E16.99123
G1 X101.302 Y60.113 E17.30044
G1 X101.302 Y61.134 E17.42309
G1 X99.482 Y62.955 E17.73231
G1 X99.482 Y63.976 E17.85496
G1 X101.302 Y62.156 E18.16417
G1 X101.302 Y63.177 E18.28683
G1 X99.482 Y64.997 E18.59604
G1 X99.482 Y66.019 E18.71870
G1 X101.302 Y64.198 E19.02791
G1 X101.302 Y65.219 E19.15056
G1 X99.482 Y67.040 E19.45977
G1 X99.482 Y68.061 E19.58243
G1 X101.302 Y66.241 E19.89164
G1 X101.302 Y67.262 E20.01430
G1 X99.482 Y69.083 E20.32351
G1 X99.482 Y70.104 E20.44616
G1 X101.302 Y68.283 E20.75538
G1 X101.302 Y69.305 E20.87803
G1 X99.482 Y71.125 E21.18724
G1 X99.482 Y71.903 E21.28064
G1 X99.726 Y71.903 E21.30990
G1 X101.302 Y70.326 E21.57773
G1 X101.302 Y71.347 E21.70038
G1 X100.747 Y71.903 E21.79475
G1 E19.79475 F2400.00000
G92 E0
G1 X107.379 Y165.354 F7800.000
G1 E2.00000 F2400.00000
G1 F1800
G1 X107.379 Y209.804 E7.27911
G1 X104.686 Y209.804 E7.59899
G1 X104.686 Y162.661 E13.19798
G1 X135.954 Y162.661 E16.91157
G1 X135.954 Y165.354 E17.23145
G1 X107.439 Y165.354 E20.61804
G1 X108.094 Y166.068 F7800.000
G1 F1800
G1 X108.094 Y210.518 E25.89715
G1 X103.972 Y210.518 E26.38667
G1 X103.972 Y161.947 E32.15529
G1 X136.669 Y161.947 E36.03852
G1 X136.669 Y197.818 E40.29882
G1 X136.190 Y197.818 E40.35563
G1 X135.897 Y197.723 E40.39227
G1 X135.897 Y166.068 E44.15174
G1 X108.154 Y166.068 E47.44668
G1 X108.808 Y166.782 F7800.000
G1 F1800
G1 X108.808 Y211.232 E52.72579
G1 X103.258 Y211.232 E53.38494
G1 X103.258 Y161.232 E59.32320
G1 X137.383 Y161.232 E63.37606
G1 X137.383 Y198.532 E67.80600
G1 X136.077 Y198.532 E67.96106
G1 X135.183 Y198.242 E68.07275
G1 X135.183 Y193.504 E68.63539
G1 X130.256 Y191.673 E69.25961
G1 X130.394 Y191.277 E69.30946
G1 X135.183 Y192.833 E69.90746
G1 X135.183 Y188.000 E70.48141
G1 X128.045 Y185.458 E71.38134
G1 X128.181 Y185.058 E71.43152
G1 X135.183 Y187.333 E72.30590
G1 X135.183 Y182.504 E72.87937
G1 X130.270 Y180.678 E73.50186
G1 X130.408 Y180.282 E73.55169
G1 X135.183 Y181.833 E74.14795
G1 X135.183 Y177.004 E74.72142
G1 X130.270 Y175.178 E75.34391
G1 X130.408 Y174.782 E75.39375
G1 X135.183 Y176.333 E75.99001
G1 X135.183 Y166.782 E77.12428
G1 X108.868 Y166.782 E80.24959
G1 X108.410 Y166.736 F7800.000
G1 E78.24959 F2400.00000
G92 E0
G1 X134.783 Y198.157 F7800.000
G1 E2.00000 F2400.00000
G1 F1800
G1 X119.014 Y193.034 E3.73009
G1 E1.73009 F2400.00000
G92 E0
G1 X120.976 Y188.221 F7800.000
G1 E2.00000 F2400.00000
G1 F1800
G1 X118.733 Y187.440 E2.28796
G1 E0.28796 F2400.00000
G92 E0
G1 X120.976 Y188.221 F7800.000
G1 E2.00000 F2400.00000
G1 F1800
G1 X123.219 Y189.001 E2.32384
G1 F1800
G1 X125.462 Y189.782 E2.68357
G1 F1800
G1 X127.704 Y190.563 E3.07917
G1 F1800
G1 X129.947 Y191.344 E3.51066
G1 E1.51066 F2400.00000
G92 E0
G1 X127.734 Y185.129 F7800.000
G1 E2.00000 F2400.00000
G1 F1800
G1 X124.154 Y183.910 E2.69740
G1 F1800
G1 X120.573 Y182.691 E3.33596
G1 F1800
G1 X118.783 Y182.081 E3.62583
G1 E1.62583 F2400.00000
G92 E0
G1 X121.018 Y177.234 F7800.000
G1 E2.00000 F2400.00000
G1 F1800
G1 X118.783 Y176.456 E2.28704
G1 E0.28704 F2400.00000
G92 E0
G1 X121.018 Y177.234 F7800.000
G1 E2.00000 F2400.00000
G1 F1800
G1 X123.254 Y178.013 E2.32279
G1 F1800
G1 X125.490 Y178.791 E2.68133
G1 F1800
G1 X127.726 Y179.570 E3.07563
G1 F1800
G1 X129.961 Y180.348 E3.50568
G1 E1.50568 F2400.00000
G92 E0
G1 X129.961 Y174.848 F7800.000
G1 E2.00000 F2400.00000
G1 F1800
G1 X127.726 Y174.070 E2.43005
G1 F1800
G1 X125.490 Y173.291 E2.82435
G1 F1800
G1 X123.254 Y172.513 E3.18289
G1 F1800
G1 X121.018 Y171.734 E3.50568
G1 F1800
G1 X118.783 Y170.956 E3.79272
G1 E1.79272 F2400.00000
G92 E0
G1 X106.388 Y165.452 F7800.000
G1 E2.00000 F2400.00000
G1 F1800
G1 X106.388 Y164.918 E2.06412
G1 X106.922 Y164.918 E2.12824
G1 X108.742 Y163.097 E2.43746
G1 X109.763 Y163.097 E2.56011
G1 X107.943 Y164.918 E2.86932
G1 X108.964 Y164.918 E2.99198
G1 X110.785 Y163.097 E3.30119
G1 X111.806 Y163.097 E3.42385
G1 X109.985 Y164.918 E3.73306
G1 X111.007 Y164.918 E3.85571
G1 X112.827 Y163.097 E4.16493
G1 X113.849 Y163.097 E4.28758
G1 X112.028 Y164.918 E4.59679
G1 X113.049 Y164.918 E4.71945
G1 X114.870 Y163.097 E5.02866
G1 X115.891 Y163.097 E5.15132
G1 X114.071 Y164.918 E5.46053
G1 X115.092 Y164.918 E5.58319
G1 X116.913 Y163.097 E5.89240
G1 X117.934 Y163.097 E6.01505
G1 X116.113 Y164.918 E6.32427
G1 X117.135 Y164.918 E6.44692
G1 X118.955 Y163.097 E6.75613
G1 X119.976 Y163.097 E6.87879
G1 X118.156 Y164.918 E7.18800
G1 X119.177 Y164.918 E7.31066
G1 X120.998 Y163.097 E7.61987
G1 X122.019 Y163.097 E7.74252
G1 X120.198 Y164.918 E8.05174
G1 X121.220 Y164.918 E8.17439
G1 X123.040 Y163.097 E8.48360
G1 X124.062 Y163.097 E8.60626
G1 X122.241 Y164.918 E8.91547
G1 X123.262 Y164.918 E9.03813
G1 X125.083 Y163.097 E9.34734
G1 X126.104 Y163.097 E9.46999
G1 X124.284 Y164.918 E9.77921
G1 X125.305 Y164.918 E9.90186
G1 X127.126 Y163.097 E10.21107
G1 X128.147 Y163.097 E10.33373
G1 X126.326 Y164.918 E10.64294
G1 X127.348 Y164.918 E10.76560
G1 X129.168 Y163.097 E11.07481
G1 X130.189 Y163.097 E11.19746
G1 X128.369 Y164.918 E11.50668
G1 X129.390 Y164.918 E11.62933
G1 X131.211 Y163.097 E11.93854
G1 X132.232 Y163.097 E12.06120
G1 X130.411 Y164.918 E12.37041
G1 X131.433 Y164.918 E12.49307
G1 X133.253 Y163.097 E12.80228
G1 X134.275 Y163.097 E12.92493
G1 X132.454 Y164.918 E13.23415
G1 X133.475 Y164.918 E13.35680
G1 X135.296 Y163.097 E13.66601
G1 X135.518 Y163.097 E13.69270
G1 X135.518 Y163.896 E13.78867
G1 X134.497 Y164.918 E13.96215
G1 E11.96215 F2400.00000
G92 E0
G1 X105.678 Y163.097 F7800.000
G1 E2.00000 F2400.00000
G1 F1800
G1 X105.123 Y163.653 E2.09438
G1 X105.123 Y164.674 E2.21703
G1 X106.699 Y163.097 E2.48487
G1 X107.721 Y163.097 E2.60753
G1 X105.123 Y165.695 E3.04883
G1 X105.123 Y166.717 E3.17148
G1 X106.943 Y164.896 E3.48069
G1 X106.943 Y165.917 E3.60335
G1 X105.123 Y167.738 E3.91256
G1 X105.123 Y168.759 E4.03522
G1 X106.943 Y166.939 E4.34443
G1 X106.943 Y167.960 E4.46708
G1 X105.123 Y169.781 E4.77629
G1 X105.123 Y170.802 E4.89895
G1 X106.943 Y168.981 E5.20816
G1 X106.943 Y170.003 E5.33082
G1 X105.123 Y171.823 E5.64003
G1 X105.123 Y172.844 E5.76268
G1 X106.943 Y171.024 E6.07190
G1 X106.943 Y172.045 E6.19455
G1 X105.123 Y173.866 E6.50376
G1 X105.123 Y174.887 E6.62642
G1 X106.943 Y173.067 E6.93563
G1 X106.943 Y174.088 E7.05829
G1 X105.123 Y175.908 E7.36750
G1 X105.123 Y176.930 E7.49015
G1 X106.943 Y175.109 E7.79936
G1 X106.943 Y176.130 E7.92202
G1 X105.123 Y177.951 E8.23123
G1 X105.123 Y178.972 E8.35389
G1 X106.943 Y177.152 E8.66310
G1 X106.943 Y178.173 E8.78575
G1 X105.123 Y179.994 E9.09496
G1 X105.123 Y181.015 E9.21762
G1 X106.943 Y179.194 E9.52683
G1 X106.943 Y180.216 E9.64949
G1 X105.123 Y182.036 E9.95870
G1 X105.123 Y183.058 E10.08135
G1 X106.943 Y181.237 E10.39057
G1 X106.943 Y182.258 E10.51322
G1 X105.123 Y184.079 E10.82243
G1 X105.123 Y185.100 E10.94509
G1 X106.943 Y183.280 E11.25430
G1 X106.943 Y184.301 E11.37695
G1 X105.123 Y186.121 E11.68617
G1 X105.123 Y187.143 E11.80882
G1 X106.943 Y185.322 E12.11803
G1 X106.943 Y186.343 E12.24069
G1 X105.123 Y188.164 E12.54990
G1 X105.123 Y189.185 E12.67256
G1 X106.943 Y187.365 E12.98177
G1 X106.943 Y188.386 E13.10442
G1 X105.123 Y190.207 E13.41363
G1 X105.123 Y191.228 E13.53629
G1 X106.943 Y189.407 E13.84550
G1 X106.943 Y190.429 E13.96816
G1 X105.123 Y192.249 E14.27737
G1 X105.123 Y193.271 E14.40002
G1 X106.943 Y191.450 E14.70924
G1 X106.943 Y192.471 E14.83189
G1 X105.123 Y194.292 E15.14110
G1 X105.123 Y195.313 E15.26376
G1 X106.943 Y193.493 E15.57297
G1 X106.943 Y194.514 E15.69563
G1 X105.123 Y196.334 E16.00484
G1 X105.123 Y197.356 E16.12749
G1 X106.943 Y195.535 E16.43670
G1 X106.943 Y196.556 E16.55936
G1 X105.123 Y198.377 E16.86857
G1 X105.123 Y199.398 E16.99123
G1 X106.943 Y197.578 E17.30044
G1 X106.943 Y198.599 E17.42309
G1 X105.123 Y200.420 E17.73231
G1 X105.123 Y201.441 E17.85496
G1 X106.943 Y199.620 E18.16417
G1 X106.943 Y200.642 E18.28683
G1 X105.123 Y202.462 E18.59604
G1 X105.123 Y203.484 E18.71870
G1 X106.943 Y201.663 E19.02791
G1 X106.943 Y202.684 E19.15056
