; generated by Slic3r 1.3.0 on 2021-09-26 at 16:39:14

; Printer Config Notes: 
; ; M412 S0 ; disable filament sensor
; 
; external perimeters extrusion width = 0.44mm (4.23mm^3/s)
; perimeters extrusion width = 0.48mm (9.42mm^3/s)
; infill extrusion width = 0.48mm (10.05mm^3/s)
; solid infill extrusion width = 0.48mm (5.03mm^3/s)
; top infill extrusion width = 0.48mm (1.88mm^3/s)
; support material extrusion width = 0.44mm (6.76mm^3/s)

M107
M190 S65 ; set bed temperature and wait for it to be reached
M104 S205 ; set temperature
G21 ;metric values
G90 ;absolute positioning
M82 ;set extruder to absolute mode
M107 ;start with the fan off
G28 X0 Y0 ;move X/Y to min endstops
G28 Z0 ;move Z to min endstops
G1 Z1 F1000 ;move up slightly
G1 Y60.0 Z0 E9.0 F1000.0;intro line
G1 Y100.0 E21.5 F1000.0 ;continue line
G92 E0 ;zero the extruded length again
G1 F80
;Put printing message on LCD screen
M117 Printing...
; Filament gcode

M109 S205 ; set temperature and wait for it to be reached
G21 ; set units to millimeters
G90 ; use absolute coordinates
M82 ; use absolute distances for extrusion
G92 E0
G1 Z0.400 F7800.000
G1 E-2.00000 F2400.00000
G92 E0
G1 X34.015 Y56.984 F7800.000
G1 E2.00000 F2400.00000
G1 F3600
G1 X37.128 Y55.728 E2.39877
G1 X40.825 Y55.237 E2.84167
G1 X174.175 Y55.237 E18.67900
G1 X177.509 Y55.635 E19.07778
G1 X180.655 Y56.808 E19.47655
G1 X183.436 Y58.690 E19.87533
G1 X185.694 Y61.175 E20.27410
G1 X187.304 Y64.121 E20.67288
G1 X188.173 Y67.365 E21.07165
G1 X188.203 Y71.173 E21.52394
G1 X178.460 Y147.373 E30.64753
G1 X177.642 Y150.629 E31.04631
G1 X176.079 Y153.601 E31.44508
G1 X173.859 Y156.121 E31.84386
G1 X171.109 Y158.046 E32.24263
G1 X167.982 Y159.269 E32.64141
G1 X164.432 Y159.722 E33.06643
G1 X50.132 Y159.722 E46.64129
G1 X46.798 Y159.323 E47.04006
G1 X43.652 Y158.150 E47.43884
G1 X40.871 Y156.268 E47.83761
G1 X38.612 Y153.783 E48.23639
G1 X37.003 Y150.837 E48.63516
G1 X36.093 Y147.294 E49.06959
G1 X26.787 Y71.094 E58.18674
G1 X26.778 Y67.736 E58.58552
G1 X27.562 Y64.471 E58.98429
G1 X29.092 Y61.482 E59.38307
G1 X31.285 Y58.939 E59.78184
G1 X33.966 Y57.019 E60.17349
G1 X34.730 Y57.414 F7800.000
G1 F3600
G1 X37.804 Y56.295 E60.56203
G1 X40.825 Y55.951 E60.92317
G1 X174.175 Y55.951 E76.76050
G1 X177.422 Y56.349 E77.14904
G1 X180.477 Y57.521 E77.53758
G1 X183.157 Y59.397 E77.92612
G1 X185.304 Y61.865 E78.31466
G1 X186.791 Y64.779 E78.70320
G1 X187.529 Y67.966 E79.09174
G1 X187.495 Y71.082 E79.46182
G1 X177.751 Y147.282 E88.58541
G1 X176.944 Y150.453 E88.97395
G1 X175.395 Y153.334 E89.36249
G1 X173.194 Y155.755 E89.75103
G1 X170.473 Y157.571 E90.13956
G1 X167.394 Y158.676 E90.52810
G1 X164.432 Y159.007 E90.88215
G1 X50.132 Y159.007 E104.45701
G1 X46.884 Y158.609 E104.84555
G1 X43.830 Y157.437 E105.23409
G1 X41.150 Y155.561 E105.62263
G1 X39.002 Y153.093 E106.01117
G1 X37.516 Y150.179 E106.39971
G1 X36.802 Y147.207 E106.76269
G1 X27.496 Y71.007 E115.87985
G1 X27.498 Y67.736 E116.26839
G1 X28.291 Y64.562 E116.65693
G1 X29.827 Y61.674 E117.04547
G1 X32.017 Y59.243 E117.43401
G1 X34.680 Y57.447 E117.81542
G1 X35.441 Y57.861 F7800.000
G1 F3600
G1 X38.470 Y56.885 E118.19345
G1 X40.825 Y56.665 E118.47433
G1 X174.175 Y56.665 E134.31166
G1 X177.333 Y57.063 E134.68969
G1 X180.293 Y58.234 E135.06772
G1 X182.870 Y60.102 E135.44574
G1 X184.901 Y62.553 E135.82377
G1 X186.261 Y65.431 E136.20180
G1 X186.863 Y68.556 E136.57982
G1 X186.786 Y70.992 E136.86919
G1 X177.043 Y147.192 E145.99278
G1 X176.247 Y150.274 E146.37081
G1 X174.711 Y153.061 E146.74883
G1 X172.531 Y155.380 E147.12686
G1 X169.842 Y157.084 E147.50489
G1 X166.815 Y158.068 E147.88291
G1 X164.432 Y158.293 E148.16725
G1 X50.132 Y158.293 E161.74211
G1 X46.974 Y157.895 E162.12014
G1 X44.014 Y156.724 E162.49817
G1 X41.437 Y154.856 E162.87619
G1 X39.405 Y152.405 E163.25422
G1 X38.046 Y149.527 E163.63224
G1 X37.511 Y147.120 E163.92507
G1 X28.205 Y70.920 E173.04222
G1 X28.217 Y67.737 E173.42025
G1 X29.020 Y64.657 E173.79828
G1 X30.563 Y61.873 E174.17630
G1 X32.749 Y59.560 E174.55433
G1 X35.390 Y57.893 E174.92523
G1 E172.92523 F2400.00000
G92 E0
G1 X83.827 Y96.783 F7800.000
G1 E2.00000 F2400.00000
G1 F3600
G1 X138.283 Y96.783 E8.46755
G1 X138.283 Y71.207 E11.50503
G1 X172.098 Y71.207 E15.52104
G1 X162.822 Y143.751 E24.20681
G1 X51.750 Y143.751 E37.39829
G1 X42.890 Y71.207 E46.07794
G1 X83.827 Y71.207 E50.93977
G1 X83.827 Y96.723 E53.97013
G1 X84.541 Y96.069 F7800.000
G1 F3600
G1 X137.569 Y96.069 E60.26804
G1 X137.569 Y70.493 E63.30553
G1 X172.909 Y70.493 E67.50270
G1 X163.451 Y144.465 E76.35949
G1 X51.118 Y144.465 E89.70072
G1 X42.084 Y70.493 E98.55126
G1 X84.541 Y70.493 E103.59372
G1 X84.541 Y96.009 E106.62407
G1 X85.255 Y95.355 F7800.000
G1 F3600
G1 X136.855 Y95.355 E112.75236
G1 X136.855 Y69.779 E115.78984
G1 X173.721 Y69.779 E120.16818
G1 X164.079 Y145.179 E129.19599
G1 X50.486 Y145.179 E142.68697
G1 X41.277 Y69.779 E151.70841
G1 X85.255 Y69.779 E156.93149
G1 X85.255 Y95.295 E159.96184
G1 X85.391 Y95.731 F7800.000
G1 E157.96184 F2400.00000
G92 E0
G1 X85.655 Y69.467 F7800.000
G1 E2.00000 F2400.00000
G1 F3600
G1 X136.455 Y69.467 E2.75770
G1 E0.75770 F2400.00000
G92 E0
G1 X139.637 Y71.529 F7800.000
G1 E2.00000 F2400.00000
G1 F3600
G1 X139.637 Y75.363 E2.45536
G1 X171.239 Y75.363 E6.20862
G1 X171.331 Y74.649 F7800.000
G1 F3600
G1 X140.351 Y74.649 E9.88790
G1 X140.351 Y71.529 E10.25845
G1 X141.065 Y71.529 F7800.000
G1 F3600
G1 X141.065 Y73.935 E10.54417
G1 X171.422 Y73.935 E14.14949
G1 X171.513 Y73.220 F7800.000
G1 F3600
G1 X141.780 Y73.220 E17.68083
G1 X141.780 Y71.529 E17.88174
G1 X142.494 Y71.529 F7800.000
G1 F3600
G1 X142.494 Y72.506 E17.99783
G1 X171.605 Y72.506 E21.45520
G1 E19.45520 F2400.00000
G92 E0
G1 X171.148 Y76.077 F7800.000
G1 E2.00000 F2400.00000
G1 F3600
G1 X138.605 Y76.077 E5.86503
G1 X138.605 Y76.791 F7800.000
G1 F3600
G1 X171.057 Y76.791 E9.71922
G1 X170.966 Y77.505 F7800.000
G1 F3600
G1 X138.605 Y77.505 E13.56256
G1 X138.605 Y78.219 F7800.000
G1 F3600
G1 X170.874 Y78.219 E17.39506
G1 X170.783 Y78.934 F7800.000
G1 F3600
G1 X138.605 Y78.934 E21.21671
G1 X138.605 Y79.648 F7800.000
G1 F3600
G1 X170.692 Y79.648 E25.02752
G1 X170.600 Y80.362 F7800.000
G1 F3600
G1 X138.605 Y80.362 E28.82748
G1 X138.605 Y81.076 F7800.000
G1 F3600
G1 X170.509 Y81.076 E32.61660
G1 X170.221 Y82.148 F7800.000
G1 F3600
G1 X144.869 Y107.500 E36.87477
G1 X164.536 Y127.167 E40.17802
G1 X164.650 Y126.271 F7800.000
G1 F3600
G1 X145.879 Y107.500 E43.33086
G1 X170.073 Y83.306 E47.39453
G1 X169.925 Y84.464 F7800.000
G1 F3600
G1 X146.889 Y107.500 E51.26369
G1 X164.765 Y125.376 E54.26613
G1 X164.879 Y124.481 F7800.000
G1 F3600
G1 X147.899 Y107.500 E57.11818
G1 X169.777 Y85.622 E60.79283
G1 X169.629 Y86.780 F7800.000
G1 F3600
G1 X148.909 Y107.500 E64.27298
G1 X164.994 Y123.585 E66.97462
G1 X165.108 Y122.690 F7800.000
G1 F3600
G1 X149.919 Y107.500 E69.52585
G1 X169.481 Y87.938 E72.81150
G1 X169.333 Y89.096 F7800.000
G1 F3600
G1 X150.929 Y107.500 E75.90264
G1 X165.223 Y121.794 E78.30347
G1 X165.337 Y120.899 F7800.000
G1 F3600
G1 X151.939 Y107.500 E80.55390
G1 X169.185 Y90.254 E83.45054
G1 X169.037 Y91.412 F7800.000
G1 F3600
G1 X152.949 Y107.500 E86.15267
G1 X165.452 Y120.003 E88.25269
G1 X165.566 Y119.108 F7800.000
G1 F3600
G1 X153.959 Y107.500 E90.20232
G1 X168.889 Y92.570 E92.70994
G1 X168.741 Y93.728 F7800.000
G1 F3600
G1 X154.969 Y107.500 E95.02306
G1 X165.681 Y118.212 E96.82228
G1 X165.795 Y117.317 F7800.000
G1 F3600
G1 X155.979 Y107.500 E98.47110
G1 X168.593 Y94.886 E100.58971
G1 X168.445 Y96.044 F7800.000
G1 F3600
G1 X156.989 Y107.500 E102.51382
G1 X165.910 Y116.421 E104.01224
G1 X166.024 Y115.526 F7800.000
G1 F3600
G1 X157.999 Y107.500 E105.36025
G1 X168.296 Y97.202 E107.08985
G1 X168.148 Y98.360 F7800.000
G1 F3600
G1 X159.009 Y107.500 E108.62495
G1 X166.139 Y114.630 E109.82256
G1 X166.253 Y113.735 F7800.000
G1 F3600
G1 X160.019 Y107.500 E110.86977
G1 X168.000 Y99.518 E112.21036
G1 X167.852 Y100.676 F7800.000
G1 F3600
G1 X161.029 Y107.500 E113.35645
G1 X166.368 Y112.839 E114.25325
G1 X166.482 Y111.944 F7800.000
G1 F3600
G1 X162.039 Y107.500 E114.99965
G1 X167.704 Y101.834 E115.95124
G1 X167.556 Y102.992 F7800.000
G1 F3600
G1 X163.049 Y107.500 E116.70832
G1 X166.597 Y111.048 E117.30431
G1 X166.711 Y110.153 F7800.000
G1 F3600
G1 X164.059 Y107.500 E117.74991
G1 X167.408 Y104.151 E118.31248
G1 X167.260 Y105.309 F7800.000
G1 F3600
G1 X165.068 Y107.500 E118.68055
G1 X166.826 Y109.258 E118.97574
G1 X166.940 Y108.362 F7800.000
G1 F3600
G1 X166.078 Y107.500 E119.12053
G1 X167.112 Y106.467 E119.29409
G1 E117.29409 F2400.00000
G92 E0
G1 X164.421 Y128.062 F7800.000
G1 E2.00000 F2400.00000
G1 F3600
G1 X143.859 Y107.500 E5.45365
G1 X169.569 Y81.790 E9.77184
G1 X138.605 Y81.790 E13.44929
G1 X138.605 Y82.504 F7800.000
G1 F3600
G1 X167.845 Y82.504 E16.92198
G1 X142.849 Y107.500 E21.12022
G1 X164.307 Y128.958 E24.72428
G1 X164.192 Y129.853 F7800.000
G1 F3600
G1 X141.839 Y107.500 E28.47874
G1 X166.120 Y83.219 E32.55702
G1 X138.605 Y83.219 E35.82494
G1 X138.605 Y83.933 F7800.000
G1 F3600
G1 X164.396 Y83.933 E38.88810
G1 X140.829 Y107.500 E42.84643
G1 X164.078 Y130.749 E46.75130
G1 X164.117 Y131.067 F7800.000
G1 F3600
G1 X131.067 Y131.067 E50.67643
G1 X131.067 Y143.429 E52.14462
G1 X130.353 Y143.429 F7800.000
G1 F3600
G1 X130.353 Y130.353 E53.69763
G1 X162.672 Y130.353 E57.53602
G1 X139.819 Y107.500 E61.37441
G1 X162.672 Y84.647 E65.21280
G1 X138.605 Y84.647 E68.07119
G1 X138.605 Y85.361 F7800.000
G1 F3600
G1 X160.948 Y85.361 E70.72480
G1 X138.809 Y107.500 E74.44324
G1 X160.948 Y129.639 E78.16168
G1 X129.639 Y129.639 E81.88012
G1 X129.639 Y143.429 E83.51795
G1 X128.925 Y143.429 F7800.000
G1 F3600
G1 X128.925 Y128.925 E85.24059
G1 X159.224 Y128.925 E88.83908
G1 X137.799 Y107.500 E92.43757
G1 X159.224 Y86.075 E96.03606
G1 X138.605 Y86.075 E98.48491
G1 X138.605 Y86.789 F7800.000
G1 F3600
G1 X157.500 Y86.789 E100.72900
G1 X136.789 Y107.500 E104.20754
G1 X157.500 Y128.211 E107.68608
G1 X128.211 Y128.211 E111.16462
G1 X128.211 Y143.429 E112.97208
G1 X127.496 Y143.429 F7800.000
G1 F3600
G1 X127.496 Y127.496 E114.86436
G1 X155.776 Y127.496 E118.22295
G1 X135.779 Y107.500 E121.58154
G1 X155.776 Y87.504 E124.94013
G1 X138.605 Y87.504 E126.97945
G1 X138.605 Y88.218 F7800.000
G1 F3600
G1 X154.052 Y88.218 E128.81400
G1 X134.769 Y107.500 E132.05264
G1 X154.052 Y126.782 E135.29128
G1 X126.782 Y126.782 E138.52992
G1 X126.782 Y143.429 E140.50702
G1 X126.068 Y143.429 F7800.000
G1 F3600
G1 X126.068 Y126.068 E142.56893
G1 X152.327 Y126.068 E145.68762
G1 X133.759 Y107.500 E148.80631
G1 X152.327 Y88.932 E151.92500
G1 X138.605 Y88.932 E153.55479
G1 X138.605 Y89.646 F7800.000
G1 F3600
G1 X150.603 Y89.646 E154.97980
G1 X132.749 Y107.500 E157.97854
G1 X150.603 Y125.354 E160.97729
G1 X125.354 Y125.354 E163.97603
G1 X125.354 Y143.429 E166.12276
G1 X124.640 Y143.429 F7800.000
G1 F3600
G1 X124.640 Y124.640 E168.35430
G1 X148.879 Y124.640 E171.23310
G1 X131.739 Y107.500 E174.11189
G1 X148.879 Y90.360 E176.99068
G1 X138.605 Y90.360 E178.21093
G1 X138.605 Y91.074 F7800.000
G1 F3600
G1 X147.155 Y91.074 E179.22641
G1 X130.729 Y107.500 E181.98525
G1 X147.155 Y123.926 E184.74410
G1 X123.926 Y123.926 E187.50294
G1 X123.926 Y143.429 E189.81930
G1 X123.211 Y143.429 F7800.000
G1 F3600
G1 X123.211 Y123.211 E192.22048
G1 X145.431 Y123.211 E194.85938
G1 X129.719 Y107.500 E197.49827
G1 X145.431 Y91.789 E200.13716
G1 X138.605 Y91.789 E200.94788
G1 X138.605 Y92.503 F7800.000
G1 F3600
G1 X143.707 Y92.503 E201.55383
G1 X138.720 Y97.490 E202.39145
G1 X138.990 Y97.219 F7800.000
G1 F3600
G1 X128.709 Y107.500 E204.11819
G1 X143.707 Y122.497 E206.63713
G1 X122.497 Y122.497 E209.15607
G1 X122.497 Y143.429 E211.64207
G1 X122.105 Y143.314 F7800.000
G1 F3600
G1 X107.500 Y128.709 E214.09510
G1 X92.895 Y143.314 E216.54813
G1 X93.905 Y143.314 F7800.000
G1 F3600
G1 X107.500 Y129.719 E218.83152
G1 X121.095 Y143.314 E221.11492
G1 X120.085 Y143.314 F7800.000
G1 F3600
G1 X107.500 Y130.729 E223.22868
G1 X94.915 Y143.314 E225.34244
G1 X95.925 Y143.314 F7800.000
G1 F3600
G1 X107.500 Y131.739 E227.28657
G1 X119.075 Y143.314 E229.23069
G1 X118.065 Y143.314 F7800.000
G1 F3600
G1 X107.500 Y132.749 E231.00518
G1 X96.935 Y143.314 E232.77968
G1 X97.945 Y143.314 F7800.000
G1 F3600
G1 X107.500 Y133.759 E234.38453
G1 X117.055 Y143.314 E235.98939
G1 X116.045 Y143.314 F7800.000
G1 F3600
G1 X107.500 Y134.769 E237.42461
G1 X98.955 Y143.314 E238.85984
G1 X99.965 Y143.314 F7800.000
G1 F3600
G1 X107.500 Y135.779 E240.12542
G1 X115.035 Y143.314 E241.39101
G1 X114.025 Y143.314 F7800.000
G1 F3600
G1 X107.500 Y136.789 E242.48697
G1 X100.975 Y143.314 E243.58292
G1 X101.985 Y143.314 F7800.000
G1 F3600
G1 X107.500 Y137.799 E244.50924
G1 X113.015 Y143.314 E245.43556
G1 X112.005 Y143.314 F7800.000
G1 F3600
G1 X107.500 Y138.809 E246.19224
G1 X102.995 Y143.314 E246.94893
G1 X104.005 Y143.314 F7800.000
G1 F3600
G1 X107.500 Y139.819 E247.53598
G1 X110.995 Y143.314 E248.12303
G1 X109.985 Y143.314 F7800.000
G1 F3600
G1 X107.500 Y140.829 E248.54045
G1 X105.015 Y143.314 E248.95786
G1 X106.025 Y143.314 F7800.000
G1 F3600
G1 X107.500 Y141.839 E249.20564
G1 X108.975 Y143.314 E249.45343
G1 X107.965 Y143.314 F7800.000
G1 F3600
G1 X107.500 Y142.849 E249.53157
G1 X107.035 Y143.314 E249.60972
G1 E247.60972 F2400.00000
G92 E0
G1 X91.789 Y143.429 F7800.000
G1 E2.00000 F2400.00000
G1 F3600
G1 X91.789 Y123.211 E4.40118
G1 X69.569 Y123.211 E7.04007
G1 X85.281 Y107.500 E9.67897
G1 X69.569 Y91.789 E12.31786
G1 X83.505 Y91.789 E13.97300
G1 X83.505 Y92.503 F7800.000
G1 F3600
G1 X71.293 Y92.503 E15.42338
G1 X86.291 Y107.500 E17.94232
G1 X71.293 Y122.497 E20.46127
G1 X92.503 Y122.497 E22.98021
G1 X92.503 Y142.697 E25.37920
G1 X107.500 Y127.699 E27.89815
G1 X121.783 Y141.983 E30.29714
G1 X121.783 Y121.783 E32.69613
G1 X141.983 Y121.783 E35.09513
G1 X127.699 Y107.500 E37.49412
G1 X137.980 Y97.219 E39.22086
G1 X136.970 Y97.219 F7800.000
G1 F3600
G1 X126.689 Y107.500 E40.94760
G1 X140.259 Y121.069 E43.22664
G1 X121.069 Y121.069 E45.50568
G1 X121.069 Y140.259 E47.78473
G1 X107.500 Y126.689 E50.06377
G1 X93.217 Y140.973 E52.46277
G1 X93.217 Y121.783 E54.74181
G1 X73.017 Y121.783 E57.14080
G1 X87.301 Y107.500 E59.53980
G1 X73.017 Y93.217 E61.93879
G1 X83.505 Y93.217 E63.18440
G1 X83.505 Y93.931 F7800.000
G1 F3600
G1 X74.741 Y93.931 E64.22524
G1 X88.311 Y107.500 E66.50429
G1 X74.741 Y121.069 E68.78333
G1 X93.931 Y121.069 E71.06237
G1 X93.931 Y139.249 E73.22147
G1 X107.500 Y125.680 E75.50051
G1 X120.355 Y138.534 E77.65961
G1 X120.355 Y120.355 E79.81870
G1 X138.534 Y120.355 E81.97779
G1 X125.680 Y107.500 E84.13689
G1 X135.960 Y97.219 E85.86363
G1 X134.950 Y97.219 F7800.000
G1 F3600
G1 X124.670 Y107.500 E87.59037
G1 X136.810 Y119.641 E89.62951
G1 X119.641 Y119.641 E91.66866
G1 X119.641 Y136.810 E93.70780
G1 X107.500 Y124.670 E95.74694
G1 X94.645 Y137.524 E97.90604
G1 X94.645 Y120.355 E99.94518
G1 X76.466 Y120.355 E102.10428
G1 X89.320 Y107.500 E104.26337
G1 X76.466 Y94.645 E106.42246
G1 X83.505 Y94.645 E107.25854
G1 X83.505 Y95.359 F7800.000
G1 F3600
G1 X78.190 Y95.359 E107.88985
G1 X90.330 Y107.500 E109.92900
G1 X78.190 Y119.641 E111.96814
G1 X95.359 Y119.641 E114.00728
G1 X95.359 Y135.800 E115.92648
G1 X107.500 Y123.660 E117.96562
G1 X118.927 Y135.086 E119.88482
G1 X118.927 Y118.927 E121.80401
G1 X135.086 Y118.927 E123.72321
G1 X123.660 Y107.500 E125.64240
G1 X133.940 Y97.219 E127.36914
G1 X132.930 Y97.219 F7800.000
G1 F3600
G1 X122.650 Y107.500 E129.09588
G1 X133.362 Y118.212 E130.89512
G1 X118.212 Y118.212 E132.69437
G1 X118.212 Y133.362 E134.49361
G1 X107.500 Y122.650 E136.29286
G1 X96.073 Y134.076 E138.21205
G1 X96.073 Y118.927 E140.01130
G1 X79.914 Y118.927 E141.93049
G1 X91.340 Y107.500 E143.84969
G1 X79.914 Y96.073 E145.76888
G1 X83.505 Y96.073 E146.19543
G1 X83.505 Y96.788 F7800.000
G1 F3600
G1 X81.638 Y96.788 E146.41720
G1 X92.350 Y107.500 E148.21645
G1 X81.638 Y118.212 E150.01569
G1 X96.788 Y118.212 E151.81494
G1 X96.788 Y132.352 E153.49423
G1 X107.500 Y121.640 E155.29348
G1 X117.498 Y131.638 E156.97277
G1 X117.498 Y117.498 E158.65207
G1 X131.638 Y117.498 E160.33136
G1 X121.640 Y107.500 E162.01066
