;FLAVOR:RepRap
;TIME:10759
;Filament used: 10.8153m
;Layer height: 0.3
;MINX:45.05
;MINY:64.1
;MINZ:0.3
;MAXX:174.95
;MAXY:155.9
;MAXZ:76.2
;Generated with Cura_SteamEngine 4.11.0
T0
M190 S60
M104 S200
M109 S200
M82 ;absolute extrusion mode
M412 S0 ;disable filament sensor
G28 ;Home
G1 Z15.0 F6000 ;Move the platform down 15mm
;Prime the extruder
G92 E0
G1 F200 E3
G92 E0
M83 ;relative extrusion mode
G1 F1500 E-6.5
;LAYER_COUNT:254
;LAYER:0
M107
G0 F4800 X48.072 Y65.734 Z0.3
;TYPE:SKIRT
G1 F1500 E6.5
G1 F3600 X48.72 Y65.283 E0.01485
G1 X49.411 Y64.899 E0.01487
G1 X50.136 Y64.587 E0.01485
G1 X50.889 Y64.35 E0.01485
G1 X51.663 Y64.191 E0.01486
G1 X52.448 Y64.11 E0.01484
G1 X52.85 Y64.1 E0.00756
G1 X167.15 Y64.1 E2.15005
G1 X167.939 Y64.14 E0.01486
G1 X168.719 Y64.259 E0.01484
G1 X169.484 Y64.457 E0.01486
G1 X170.224 Y64.731 E0.01484
G1 X170.933 Y65.079 E0.01486
G1 X171.604 Y65.497 E0.01487
G1 X172.228 Y65.98 E0.01484
G1 X172.801 Y66.523 E0.01485
G1 X173.316 Y67.122 E0.01486
G1 X173.767 Y67.77 E0.01485
G1 X174.151 Y68.461 E0.01487
G1 X174.463 Y69.186 E0.01485
G1 X174.7 Y69.939 E0.01485
G1 X174.859 Y70.713 E0.01486
G1 X174.94 Y71.498 E0.01484
G1 X174.95 Y71.9 E0.00756
G1 X174.95 Y148.1 E1.43336
G1 X174.91 Y148.889 E0.01486
G1 X174.791 Y149.669 E0.01484
G1 X174.593 Y150.434 E0.01486
G1 X174.319 Y151.174 E0.01484
G1 X173.971 Y151.883 E0.01486
G1 X173.553 Y152.554 E0.01487
G1 X173.07 Y153.178 E0.01484
G1 X172.527 Y153.751 E0.01485
G1 X171.928 Y154.266 E0.01486
G1 X171.28 Y154.717 E0.01485
G1 X170.589 Y155.101 E0.01487
G1 X169.864 Y155.413 E0.01485
G1 X169.111 Y155.65 E0.01485
G1 X168.337 Y155.809 E0.01486
G1 X167.552 Y155.89 E0.01484
G1 X167.15 Y155.9 E0.00756
G1 X52.85 Y155.9 E2.15005
G1 X52.061 Y155.86 E0.01486
G1 X51.281 Y155.741 E0.01484
G1 X50.516 Y155.543 E0.01486
G1 X49.776 Y155.269 E0.01484
G1 X49.067 Y154.921 E0.01486
G1 X48.396 Y154.503 E0.01487
G1 X47.772 Y154.02 E0.01484
G1 X47.199 Y153.477 E0.01485
G1 X46.684 Y152.878 E0.01486
G1 X46.233 Y152.23 E0.01485
G1 X45.849 Y151.539 E0.01487
G1 X45.537 Y150.814 E0.01485
G1 X45.3 Y150.061 E0.01485
G1 X45.141 Y149.287 E0.01486
G1 X45.06 Y148.502 E0.01484
G1 X45.05 Y148.1 E0.00756
G1 X45.05 Y71.9 E1.43336
G1 X45.09 Y71.111 E0.01486
G1 X45.209 Y70.331 E0.01484
G1 X45.407 Y69.566 E0.01486
G1 X45.681 Y68.826 E0.01484
G1 X46.029 Y68.117 E0.01486
G1 X46.447 Y67.446 E0.01487
G1 X46.93 Y66.822 E0.01484
G1 X47.473 Y66.249 E0.01485
G1 X48.072 Y65.734 E0.01486
G0 F4800 X48.461 Y65.942
G1 F3600 X49.103 Y65.519 E0.01446
G1 X49.786 Y65.164 E0.01448
G1 X50.501 Y64.883 E0.01445
G1 X51.243 Y64.677 E0.01449
G1 X52.001 Y64.549 E0.01446
G1 X52.85 Y64.5 E0.016
G1 X167.15 Y64.5 E2.15005
G1 X167.918 Y64.54 E0.01447
G1 X168.678 Y64.659 E0.01447
G1 X169.421 Y64.857 E0.01446
G1 X170.14 Y65.131 E0.01447
G1 X170.826 Y65.478 E0.01446
G1 X171.473 Y65.894 E0.01447
G1 X172.073 Y66.375 E0.01447
G1 X172.62 Y66.916 E0.01447
G1 X173.108 Y67.511 E0.01448
G1 X173.531 Y68.153 E0.01446
G1 X173.886 Y68.836 E0.01448
G1 X174.167 Y69.551 E0.01445
G1 X174.373 Y70.293 E0.01449
G1 X174.501 Y71.051 E0.01446
G1 X174.55 Y71.9 E0.016
G1 X174.55 Y148.1 E1.43336
G1 X174.51 Y148.868 E0.01447
G1 X174.391 Y149.628 E0.01447
G1 X174.193 Y150.371 E0.01446
G1 X173.919 Y151.09 E0.01447
G1 X173.572 Y151.776 E0.01446
G1 X173.156 Y152.423 E0.01447
G1 X172.675 Y153.023 E0.01447
G1 X172.134 Y153.57 E0.01447
G1 X171.539 Y154.058 E0.01448
G1 X170.897 Y154.481 E0.01446
G1 X170.214 Y154.836 E0.01448
G1 X169.499 Y155.117 E0.01445
G1 X168.757 Y155.323 E0.01449
G1 X167.999 Y155.451 E0.01446
G1 X167.15 Y155.5 E0.016
G1 X52.85 Y155.5 E2.15005
G1 X52.082 Y155.46 E0.01447
G1 X51.322 Y155.341 E0.01447
G1 X50.579 Y155.143 E0.01446
G1 X49.86 Y154.869 E0.01447
G1 X49.174 Y154.522 E0.01446
G1 X48.527 Y154.106 E0.01447
G1 X47.927 Y153.625 E0.01447
G1 X47.38 Y153.084 E0.01447
G1 X46.892 Y152.489 E0.01448
G1 X46.469 Y151.847 E0.01446
G1 X46.114 Y151.164 E0.01448
G1 X45.833 Y150.449 E0.01445
G1 X45.627 Y149.707 E0.01449
G1 X45.499 Y148.949 E0.01446
G1 X45.45 Y148.1 E0.016
G1 X45.45 Y71.9 E1.43336
G1 X45.49 Y71.132 E0.01447
G1 X45.609 Y70.372 E0.01447
G1 X45.807 Y69.629 E0.01446
G1 X46.081 Y68.91 E0.01447
G1 X46.428 Y68.224 E0.01446
G1 X46.844 Y67.577 E0.01447
G1 X47.325 Y66.977 E0.01447
G1 X47.866 Y66.43 E0.01447
G1 X48.461 Y65.942 E0.01448
G0 F4800 X48.848 Y66.157
G1 F3600 X49.484 Y65.762 E0.01408
G1 X50.158 Y65.438 E0.01407
G1 X50.863 Y65.188 E0.01407
G1 X51.591 Y65.014 E0.01408
G1 X52.333 Y64.919 E0.01407
G1 X52.85 Y64.9 E0.00973
G1 X167.15 Y64.9 E2.15005
G1 X167.897 Y64.94 E0.01407
G1 X168.635 Y65.059 E0.01406
G1 X169.357 Y65.257 E0.01408
G1 X170.053 Y65.53 E0.01406
G1 X170.716 Y65.877 E0.01408
G1 X171.339 Y66.292 E0.01408
G1 X171.913 Y66.771 E0.01406
G1 X172.434 Y67.308 E0.01407
G1 X172.893 Y67.898 E0.01406
G1 X173.288 Y68.534 E0.01408
G1 X173.612 Y69.208 E0.01407
G1 X173.862 Y69.913 E0.01407
G1 X174.036 Y70.641 E0.01408
G1 X174.131 Y71.383 E0.01407
G1 X174.15 Y71.9 E0.00973
G1 X174.15 Y148.1 E1.43336
G1 X174.11 Y148.847 E0.01407
G1 X173.991 Y149.585 E0.01406
G1 X173.793 Y150.307 E0.01408
G1 X173.52 Y151.003 E0.01406
G1 X173.173 Y151.666 E0.01408
G1 X172.758 Y152.289 E0.01408
G1 X172.279 Y152.863 E0.01406
G1 X171.742 Y153.384 E0.01407
G1 X171.152 Y153.843 E0.01406
G1 X170.516 Y154.238 E0.01408
G1 X169.842 Y154.562 E0.01407
G1 X169.137 Y154.812 E0.01407
G1 X168.409 Y154.986 E0.01408
G1 X167.667 Y155.081 E0.01407
G1 X167.15 Y155.1 E0.00973
G1 X52.85 Y155.1 E2.15005
G1 X52.103 Y155.06 E0.01407
G1 X51.365 Y154.941 E0.01406
G1 X50.643 Y154.743 E0.01408
G1 X49.947 Y154.47 E0.01406
G1 X49.284 Y154.123 E0.01408
G1 X48.661 Y153.708 E0.01408
G1 X48.087 Y153.229 E0.01406
G1 X47.566 Y152.692 E0.01407
G1 X47.107 Y152.102 E0.01406
G1 X46.712 Y151.466 E0.01408
G1 X46.388 Y150.792 E0.01407
G1 X46.138 Y150.087 E0.01407
G1 X45.964 Y149.359 E0.01408
G1 X45.869 Y148.617 E0.01407
G1 X45.85 Y148.1 E0.00973
G1 X45.85 Y71.9 E1.43336
G1 X45.89 Y71.153 E0.01407
G1 X46.009 Y70.415 E0.01406
G1 X46.207 Y69.693 E0.01408
G1 X46.48 Y68.997 E0.01406
G1 X46.827 Y68.334 E0.01408
G1 X47.242 Y67.711 E0.01408
G1 X47.721 Y67.137 E0.01406
G1 X48.258 Y66.616 E0.01407
G1 X48.848 Y66.157 E0.01406
G0 F4800 X48.649 Y66.809
G1 F3600 X49.234 Y66.379 E0.01366
G1 X49.863 Y66.015 E0.01367
G1 X50.528 Y65.722 E0.01367
G1 X51.221 Y65.504 E0.01367
G1 X51.933 Y65.364 E0.01365
G1 X52.85 Y65.3 E0.01729
G1 X167.15 Y65.3 E2.15005
G1 X167.875 Y65.34 E0.01366
G1 X168.592 Y65.459 E0.01367
G1 X169.291 Y65.657 E0.01367
G1 X169.964 Y65.93 E0.01366
G1 X170.603 Y66.275 E0.01366
G1 X171.2 Y66.689 E0.01367
G1 X171.748 Y67.165 E0.01365
G1 X172.241 Y67.699 E0.01367
G1 X172.671 Y68.284 E0.01366
G1 X173.035 Y68.913 E0.01367
G1 X173.328 Y69.578 E0.01367
G1 X173.546 Y70.271 E0.01367
G1 X173.686 Y70.983 E0.01365
G1 X173.75 Y71.9 E0.01729
G1 X173.75 Y148.1 E1.43336
G1 X173.71 Y148.825 E0.01366
G1 X173.591 Y149.542 E0.01367
G1 X173.393 Y150.241 E0.01367
G1 X173.12 Y150.914 E0.01366
G1 X172.775 Y151.553 E0.01366
G1 X172.361 Y152.15 E0.01367
G1 X171.885 Y152.698 E0.01365
G1 X171.351 Y153.191 E0.01367
G1 X170.766 Y153.621 E0.01366
G1 X170.137 Y153.985 E0.01367
G1 X169.472 Y154.278 E0.01367
G1 X168.779 Y154.496 E0.01367
G1 X168.067 Y154.636 E0.01365
G1 X167.15 Y154.7 E0.01729
G1 X52.85 Y154.7 E2.15005
G1 X52.125 Y154.66 E0.01366
G1 X51.408 Y154.541 E0.01367
G1 X50.709 Y154.343 E0.01367
G1 X50.036 Y154.07 E0.01366
G1 X49.397 Y153.725 E0.01366
G1 X48.8 Y153.311 E0.01367
G1 X48.252 Y152.835 E0.01365
G1 X47.759 Y152.301 E0.01367
G1 X47.329 Y151.716 E0.01366
G1 X46.965 Y151.087 E0.01367
G1 X46.672 Y150.422 E0.01367
G1 X46.454 Y149.729 E0.01367
G1 X46.314 Y149.017 E0.01365
G1 X46.25 Y148.1 E0.01729
G1 X46.25 Y71.9 E1.43336
G1 X46.29 Y71.175 E0.01366
G1 X46.409 Y70.458 E0.01367
G1 X46.607 Y69.759 E0.01367
G1 X46.88 Y69.086 E0.01366
G1 X47.225 Y68.447 E0.01366
G1 X47.639 Y67.85 E0.01367
G1 X48.115 Y67.302 E0.01365
G1 X48.649 Y66.809 E0.01367
G0 F4800 X49.039 Y67.009
G1 F3600 X49.618 Y66.609 E0.01324
G1 X50.239 Y66.277 E0.01325
G1 X50.893 Y66.017 E0.01324
G1 X51.573 Y65.833 E0.01325
G1 X52.269 Y65.727 E0.01324
G1 X52.85 Y65.7 E0.01094
G1 X167.15 Y65.7 E2.15005
G1 X167.853 Y65.74 E0.01325
G1 X168.547 Y65.859 E0.01325
G1 X169.222 Y66.057 E0.01323
G1 X169.871 Y66.329 E0.01324
G1 X170.485 Y66.674 E0.01325
G1 X171.056 Y67.085 E0.01323
G1 X171.577 Y67.559 E0.01325
G1 X172.041 Y68.089 E0.01325
G1 X172.441 Y68.668 E0.01324
G1 X172.773 Y69.289 E0.01325
G1 X173.033 Y69.943 E0.01324
G1 X173.217 Y70.623 E0.01325
G1 X173.323 Y71.319 E0.01324
G1 X173.35 Y71.9 E0.01094
G1 X173.35 Y148.1 E1.43336
G1 X173.31 Y148.803 E0.01325
G1 X173.191 Y149.497 E0.01325
G1 X172.993 Y150.172 E0.01323
G1 X172.721 Y150.821 E0.01324
G1 X172.376 Y151.435 E0.01325
G1 X171.965 Y152.006 E0.01323
G1 X171.491 Y152.527 E0.01325
G1 X170.961 Y152.991 E0.01325
G1 X170.382 Y153.391 E0.01324
G1 X169.761 Y153.723 E0.01325
G1 X169.107 Y153.983 E0.01324
G1 X168.427 Y154.167 E0.01325
G1 X167.731 Y154.273 E0.01324
G1 X167.15 Y154.3 E0.01094
G1 X52.85 Y154.3 E2.15005
G1 X52.147 Y154.26 E0.01325
G1 X51.453 Y154.141 E0.01325
G1 X50.778 Y153.943 E0.01323
G1 X50.129 Y153.671 E0.01324
G1 X49.515 Y153.326 E0.01325
G1 X48.944 Y152.915 E0.01323
G1 X48.423 Y152.441 E0.01325
G1 X47.959 Y151.911 E0.01325
G1 X47.559 Y151.332 E0.01324
G1 X47.227 Y150.711 E0.01325
G1 X46.967 Y150.057 E0.01324
G1 X46.783 Y149.377 E0.01325
G1 X46.677 Y148.681 E0.01324
G1 X46.65 Y148.1 E0.01094
G1 X46.65 Y71.9 E1.43336
G1 X46.69 Y71.197 E0.01325
G1 X46.809 Y70.503 E0.01325
G1 X47.007 Y69.828 E0.01323
G1 X47.279 Y69.179 E0.01324
G1 X47.624 Y68.565 E0.01325
G1 X48.035 Y67.994 E0.01323
G1 X48.509 Y67.473 E0.01325
G1 X49.039 Y67.009 E0.01325
G0 F4800 X49.428 Y67.217
G1 F3600 X50 Y66.848 E0.0128
G1 X50.612 Y66.549 E0.01281
G1 X51.254 Y66.324 E0.0128
G1 X51.919 Y66.175 E0.01282
G1 X52.85 Y66.1 E0.01757
G1 X167.15 Y66.1 E2.15005
G1 X167.83 Y66.14 E0.01281
G1 X168.5 Y66.259 E0.0128
G1 X169.152 Y66.456 E0.01281
G1 X169.776 Y66.728 E0.0128
G1 X170.364 Y67.072 E0.01281
G1 X170.908 Y67.482 E0.01281
G1 X171.399 Y67.953 E0.0128
G1 X171.833 Y68.478 E0.01281
G1 X172.202 Y69.05 E0.0128
G1 X172.501 Y69.662 E0.01281
G1 X172.726 Y70.304 E0.0128
G1 X172.875 Y70.969 E0.01282
G1 X172.95 Y71.9 E0.01757
G1 X172.95 Y148.1 E1.43336
G1 X172.91 Y148.78 E0.01281
G1 X172.791 Y149.45 E0.0128
G1 X172.594 Y150.102 E0.01281
G1 X172.322 Y150.726 E0.0128
G1 X171.978 Y151.314 E0.01281
G1 X171.568 Y151.858 E0.01281
G1 X171.097 Y152.349 E0.0128
G1 X170.572 Y152.783 E0.01281
G1 X170 Y153.152 E0.0128
G1 X169.388 Y153.451 E0.01281
G1 X168.746 Y153.676 E0.0128
G1 X168.081 Y153.825 E0.01282
G1 X167.15 Y153.9 E0.01757
G1 X52.85 Y153.9 E2.15005
G1 X52.17 Y153.86 E0.01281
G1 X51.5 Y153.741 E0.0128
G1 X50.848 Y153.544 E0.01281
G1 X50.224 Y153.272 E0.0128
G1 X49.636 Y152.928 E0.01281
G1 X49.092 Y152.518 E0.01281
G1 X48.601 Y152.047 E0.0128
G1 X48.167 Y151.522 E0.01281
G1 X47.798 Y150.95 E0.0128
G1 X47.499 Y150.338 E0.01281
G1 X47.274 Y149.696 E0.0128
G1 X47.125 Y149.031 E0.01282
G1 X47.05 Y148.1 E0.01757
G1 X47.05 Y71.9 E1.43336
G1 X47.09 Y71.22 E0.01281
G1 X47.209 Y70.55 E0.0128
G1 X47.406 Y69.898 E0.01281
G1 X47.678 Y69.274 E0.0128
G1 X48.022 Y68.686 E0.01281
G1 X48.432 Y68.142 E0.01281
G1 X48.903 Y67.651 E0.0128
G1 X49.428 Y67.217 E0.01281
G0 F4800 X49.295 Y67.835
G1 F3600 X49.815 Y67.434 E0.01235
G1 X50.379 Y67.098 E0.01235
G1 X50.981 Y66.834 E0.01236
G1 X51.61 Y66.644 E0.01236
G1 X52.257 Y66.533 E0.01235
G1 X52.85 Y66.5 E0.01117
G1 X167.15 Y66.5 E2.15005
G1 X167.806 Y66.54 E0.01236
G1 X168.452 Y66.659 E0.01236
G1 X169.079 Y66.856 E0.01236
G1 X169.677 Y67.128 E0.01236
G1 X170.238 Y67.47 E0.01236
G1 X170.753 Y67.878 E0.01236
G1 X171.215 Y68.345 E0.01236
G1 X171.616 Y68.865 E0.01235
G1 X171.952 Y69.429 E0.01235
G1 X172.216 Y70.031 E0.01236
G1 X172.406 Y70.66 E0.01236
G1 X172.517 Y71.307 E0.01235
G1 X172.55 Y71.9 E0.01117
G1 X172.55 Y148.1 E1.43336
G1 X172.51 Y148.756 E0.01236
G1 X172.391 Y149.402 E0.01236
G1 X172.194 Y150.029 E0.01236
G1 X171.922 Y150.627 E0.01236
G1 X171.58 Y151.188 E0.01236
G1 X171.172 Y151.703 E0.01236
G1 X170.705 Y152.165 E0.01236
G1 X170.185 Y152.566 E0.01235
G1 X169.621 Y152.902 E0.01235
G1 X169.019 Y153.166 E0.01236
G1 X168.39 Y153.356 E0.01236
G1 X167.743 Y153.467 E0.01235
G1 X167.15 Y153.5 E0.01117
G1 X52.85 Y153.5 E2.15005
G1 X52.194 Y153.46 E0.01236
G1 X51.548 Y153.341 E0.01236
G1 X50.921 Y153.144 E0.01236
G1 X50.323 Y152.872 E0.01236
G1 X49.762 Y152.53 E0.01236
G1 X49.247 Y152.122 E0.01236
G1 X48.785 Y151.655 E0.01236
G1 X48.384 Y151.135 E0.01235
G1 X48.048 Y150.571 E0.01235
G1 X47.784 Y149.969 E0.01236
G1 X47.594 Y149.34 E0.01236
G1 X47.483 Y148.693 E0.01235
G1 X47.45 Y148.1 E0.01117
G1 X47.45 Y71.9 E1.43336
G1 X47.49 Y71.244 E0.01236
G1 X47.609 Y70.598 E0.01236
G1 X47.806 Y69.971 E0.01236
G1 X48.078 Y69.373 E0.01236
G1 X48.42 Y68.812 E0.01236
G1 X48.828 Y68.297 E0.01236
G1 X49.295 Y67.835 E0.01236
G0 F4800 X49.686 Y68.029
G1 F3600 X50.2 Y67.66 E0.0119
G1 X50.756 Y67.36 E0.01188
G1 X51.345 Y67.132 E0.01188
G1 X51.959 Y66.98 E0.0119
G1 X52.85 Y66.9 E0.01683
G1 X167.15 Y66.9 E2.15005
G1 X167.781 Y66.94 E0.01189
G1 X168.402 Y67.059 E0.01189
G1 X169.002 Y67.256 E0.01188
G1 X169.574 Y67.527 E0.01191
G1 X170.106 Y67.867 E0.01188
G1 X170.591 Y68.273 E0.0119
G1 X171.021 Y68.736 E0.01189
G1 X171.39 Y69.25 E0.0119
G1 X171.69 Y69.806 E0.01188
G1 X171.918 Y70.395 E0.01188
G1 X172.07 Y71.009 E0.0119
G1 X172.15 Y71.9 E0.01683
G1 X172.15 Y148.1 E1.43336
G1 X172.11 Y148.731 E0.01189
G1 X171.991 Y149.352 E0.01189
G1 X171.794 Y149.952 E0.01188
G1 X171.523 Y150.524 E0.01191
G1 X171.183 Y151.056 E0.01188
G1 X170.777 Y151.541 E0.0119
G1 X170.314 Y151.971 E0.01189
G1 X169.8 Y152.34 E0.0119
G1 X169.244 Y152.64 E0.01188
G1 X168.655 Y152.868 E0.01188
G1 X168.041 Y153.02 E0.0119
G1 X167.15 Y153.1 E0.01683
G1 X52.85 Y153.1 E2.15005
G1 X52.219 Y153.06 E0.01189
G1 X51.598 Y152.941 E0.01189
G1 X50.998 Y152.744 E0.01188
G1 X50.426 Y152.473 E0.01191
G1 X49.894 Y152.133 E0.01188
G1 X49.409 Y151.727 E0.0119
G1 X48.979 Y151.264 E0.01189
G1 X48.61 Y150.75 E0.0119
G1 X48.31 Y150.194 E0.01188
G1 X48.082 Y149.605 E0.01188
G1 X47.93 Y148.991 E0.0119
G1 X47.85 Y148.1 E0.01683
G1 X47.85 Y71.9 E1.43336
G1 X47.89 Y71.269 E0.01189
G1 X48.009 Y70.648 E0.01189
G1 X48.206 Y70.048 E0.01188
G1 X48.477 Y69.476 E0.01191
G1 X48.817 Y68.944 E0.01188
G1 X49.223 Y68.459 E0.0119
G1 X49.686 Y68.029 E0.01189
G0 F4800 X50.075 Y68.231
G1 F3600 X50.582 Y67.898 E0.01141
G1 X51.128 Y67.634 E0.01141
G1 X51.704 Y67.445 E0.0114
G1 X52.3 Y67.333 E0.01141
G1 X52.85 Y67.3 E0.01036
G1 X167.15 Y67.3 E2.15005
G1 X167.755 Y67.34 E0.01141
G1 X168.349 Y67.459 E0.0114
G1 X168.923 Y67.655 E0.01141
G1 X169.466 Y67.926 E0.01142
G1 X169.969 Y68.265 E0.01141
G1 X170.422 Y68.667 E0.01139
G1 X170.819 Y69.125 E0.0114
G1 X171.152 Y69.632 E0.01141
G1 X171.416 Y70.178 E0.01141
G1 X171.605 Y70.754 E0.0114
G1 X171.717 Y71.35 E0.01141
G1 X171.75 Y71.9 E0.01036
G1 X171.75 Y148.1 E1.43336
G1 X171.71 Y148.705 E0.01141
G1 X171.591 Y149.299 E0.0114
G1 X171.395 Y149.873 E0.01141
G1 X171.124 Y150.416 E0.01142
G1 X170.785 Y150.919 E0.01141
G1 X170.383 Y151.372 E0.01139
G1 X169.925 Y151.769 E0.0114
G1 X169.418 Y152.102 E0.01141
G1 X168.872 Y152.366 E0.01141
G1 X168.296 Y152.555 E0.0114
G1 X167.7 Y152.667 E0.01141
G1 X167.15 Y152.7 E0.01036
G1 X52.85 Y152.7 E2.15005
G1 X52.245 Y152.66 E0.01141
G1 X51.651 Y152.541 E0.0114
G1 X51.077 Y152.345 E0.01141
G1 X50.534 Y152.074 E0.01142
G1 X50.031 Y151.735 E0.01141
G1 X49.578 Y151.333 E0.01139
G1 X49.181 Y150.875 E0.0114
G1 X48.848 Y150.368 E0.01141
G1 X48.584 Y149.822 E0.01141
G1 X48.395 Y149.246 E0.0114
G1 X48.283 Y148.65 E0.01141
G1 X48.25 Y148.1 E0.01036
G1 X48.25 Y71.9 E1.43336
G1 X48.29 Y71.295 E0.01141
G1 X48.409 Y70.701 E0.0114
G1 X48.605 Y70.127 E0.01141
G1 X48.876 Y69.584 E0.01142
G1 X49.215 Y69.081 E0.01141
G1 X49.617 Y68.628 E0.01139
G1 X50.075 Y68.231 E0.0114
G0 F4800 X50.463 Y68.444
G1 F3600 X50.961 Y68.149 E0.01089
G1 X51.495 Y67.924 E0.0109
G1 X52.055 Y67.776 E0.0109
G1 X52.85 Y67.7 E0.01502
G1 X167.15 Y67.7 E2.15005
G1 X167.728 Y67.74 E0.0109
