; generated by Slic3r 1.3.0 on 2021-09-15 at 19:14:35

; external perimeters extrusion width = 0.44mm (5.07mm^3/s)
; perimeters extrusion width = 0.48mm (11.31mm^3/s)
; infill extrusion width = 0.48mm (10.05mm^3/s)
; solid infill extrusion width = 0.48mm (5.03mm^3/s)
; top infill extrusion width = 0.48mm (1.88mm^3/s)

M107
M190 S65 ; set bed temperature and wait for it to be reached
M104 S205 ; set temperature
M412 S0 ; disable filament sensor
G28 ; home all axes
G1 Z5 F5000 ; lift nozzle

; Filament gcode

M109 S205 ; set temperature and wait for it to be reached
G21 ; set units to millimeters
G90 ; use absolute coordinates
M82 ; use absolute distances for extrusion
G92 E0
G1 Z0.400 F7800.000
G1 E-2.00000 F2400.00000
G92 E0
G1 X46.247 Y63.208 F7800.000
G1 E2.00000 F2400.00000
G1 F3600
G1 X48.464 Y62.215 E2.28854
G1 X50.350 Y61.972 E2.51434
G1 X164.650 Y61.972 E16.08919
G1 X167.047 Y62.369 E16.37774
G1 X169.187 Y63.518 E16.66628
G1 X170.842 Y65.297 E16.95483
G1 X171.835 Y67.514 E17.24337
G1 X172.078 Y69.400 E17.46916
G1 X172.078 Y145.600 E26.51907
G1 X171.681 Y147.997 E26.80761
G1 X170.532 Y150.137 E27.09616
G1 X168.753 Y151.792 E27.38470
G1 X166.536 Y152.785 E27.67325
G1 X164.650 Y153.028 E27.89904
G1 X50.350 Y153.028 E41.47390
G1 X47.953 Y152.631 E41.76244
G1 X45.813 Y151.482 E42.05099
G1 X44.158 Y149.703 E42.33953
G1 X43.165 Y147.486 E42.62808
G1 X42.922 Y145.600 E42.85387
G1 X42.922 Y69.400 E51.90377
G1 X43.319 Y67.003 E52.19232
G1 X44.468 Y64.863 E52.48086
G1 X46.203 Y63.249 E52.76228
G1 X46.933 Y63.620 F7800.000
G1 F3600
G1 X49.093 Y62.805 E53.03651
G1 X50.350 Y62.686 E53.18647
G1 X164.650 Y62.686 E66.76133
G1 X166.925 Y63.083 E67.03556
G1 X168.930 Y64.227 E67.30978
G1 X170.430 Y65.983 E67.58401
G1 X171.245 Y68.143 E67.85823
G1 X171.364 Y69.400 E68.00820
G1 X171.364 Y145.600 E77.05810
G1 X170.967 Y147.875 E77.33233
G1 X169.823 Y149.880 E77.60655
G1 X168.067 Y151.380 E77.88078
G1 X165.907 Y152.195 E78.15500
G1 X164.650 Y152.314 E78.30497
G1 X50.350 Y152.314 E91.87983
G1 X48.075 Y151.917 E92.15405
G1 X46.070 Y150.773 E92.42828
G1 X44.570 Y149.017 E92.70250
G1 X43.755 Y146.857 E92.97673
G1 X43.636 Y145.600 E93.12670
G1 X43.636 Y69.400 E102.17660
G1 X44.033 Y67.125 E102.45083
G1 X45.177 Y65.120 E102.72505
G1 X46.887 Y63.659 E102.99215
G1 E100.99215 F2400.00000
G92 E0
G1 X52.178 Y143.772 F7800.000
G1 E2.00000 F2400.00000
G1 F3600
G1 X52.178 Y71.228 E10.61563
G1 X162.822 Y71.228 E23.75620
G1 X162.822 Y143.772 E32.37183
G1 X52.238 Y143.772 E45.50528
G1 X51.464 Y144.486 F7800.000
G1 F3600
G1 X51.464 Y70.514 E54.29054
G1 X163.536 Y70.514 E67.60076
G1 X163.536 Y144.486 E76.38602
G1 X51.524 Y144.486 E89.68910
G1 X50.750 Y145.200 F7800.000
G1 F3600
G1 X50.750 Y69.800 E98.64400
G1 X164.250 Y69.800 E112.12384
G1 X164.250 Y145.200 E121.07874
G1 X50.810 Y145.200 E134.55146
G1 X50.879 Y144.821 F7800.000
G1 E132.55146 F2400.00000
G92 E0
G1 X53.170 Y71.665 F7800.000
G1 E2.00000 F2400.00000
G1 F3600
G1 X52.615 Y72.220 E2.09362
G1 X52.615 Y73.234 E2.21431
G1 X54.183 Y71.665 E2.47862
G1 X55.197 Y71.665 E2.59931
G1 X52.615 Y74.247 E3.03430
G1 X52.615 Y75.260 E3.15499
G1 X56.210 Y71.665 E3.76066
G1 X57.223 Y71.665 E3.88135
G1 X52.615 Y76.273 E4.65770
G1 X52.615 Y77.286 E4.77839
G1 X58.236 Y71.665 E5.72542
G1 X59.249 Y71.665 E5.84612
G1 X52.615 Y78.299 E6.96383
G1 X52.615 Y79.312 E7.08452
G1 X60.262 Y71.665 E8.37292
G1 X61.275 Y71.665 E8.49361
G1 X52.615 Y80.325 E9.95270
G1 X52.615 Y81.338 E10.07339
G1 X62.288 Y71.665 E11.70315
G1 X63.301 Y71.665 E11.82384
G1 X52.615 Y82.351 E13.62429
G1 X52.615 Y83.364 E13.74498
G1 X64.314 Y71.665 E15.71611
G1 X65.327 Y71.665 E15.83680
G1 X52.615 Y84.377 E17.97862
G1 X52.615 Y85.391 E18.09931
G1 X66.341 Y71.665 E20.41180
G1 X67.354 Y71.665 E20.53249
G1 X52.615 Y86.404 E23.01567
G1 X52.615 Y87.417 E23.13636
G1 X68.367 Y71.665 E25.79022
G1 X69.380 Y71.665 E25.91091
G1 X52.615 Y88.430 E28.73546
G1 X52.615 Y89.443 E28.85615
G1 X70.393 Y71.665 E31.85137
G1 X71.406 Y71.665 E31.97206
G1 X52.615 Y90.456 E35.13797
G1 X52.615 Y91.469 E35.25866
G1 X72.419 Y71.665 E38.59525
G1 X73.432 Y71.665 E38.71594
G1 X52.615 Y92.482 E42.22322
G1 X52.615 Y93.495 E42.34391
G1 X74.445 Y71.665 E46.02186
G1 X75.458 Y71.665 E46.14255
G1 X52.615 Y94.508 E49.99119
G1 X52.615 Y95.521 E50.11188
G1 X76.471 Y71.665 E54.13120
G1 X77.485 Y71.665 E54.25189
G1 X52.615 Y96.535 E58.44190
G1 X52.615 Y97.548 E58.56259
G1 X78.498 Y71.665 E62.92327
G1 X79.511 Y71.665 E63.04396
G1 X52.615 Y98.561 E67.57533
G1 X52.615 Y99.574 E67.69602
G1 X80.524 Y71.665 E72.39807
G1 X81.537 Y71.665 E72.51876
G1 X52.615 Y100.587 E77.39150
G1 X52.615 Y101.600 E77.51219
G1 X82.550 Y71.665 E82.55560
G1 X83.563 Y71.665 E82.67630
G1 X52.615 Y102.613 E87.89039
G1 X52.615 Y103.626 E88.01108
G1 X84.576 Y71.665 E93.39587
G1 X85.589 Y71.665 E93.51656
G1 X52.615 Y104.639 E99.07202
G1 X52.615 Y105.652 E99.19271
G1 X86.602 Y71.665 E104.91886
G1 X87.615 Y71.665 E105.03955
G1 X52.615 Y106.665 E110.93638
G1 X52.615 Y107.679 E111.05707
G1 X88.629 Y71.665 E117.12458
G1 X89.642 Y71.665 E117.24527
G1 X52.615 Y108.692 E123.48346
G1 X52.615 Y109.705 E123.60416
G1 X90.655 Y71.665 E130.01303
G1 X91.668 Y71.665 E130.13372
G1 X52.615 Y110.718 E136.71328
G1 X52.615 Y111.731 E136.83397
G1 X92.681 Y71.665 E143.58421
G1 X93.694 Y71.665 E143.70490
G1 X52.615 Y112.744 E150.62583
G1 X52.615 Y113.757 E150.74652
G1 X94.707 Y71.665 E157.83813
G1 X95.720 Y71.665 E157.95882
G1 X52.615 Y114.770 E165.22111
G1 X52.615 Y115.783 E165.34180
G1 X96.733 Y71.665 E172.77477
G1 X97.746 Y71.665 E172.89546
G1 X52.615 Y116.796 E180.49911
G1 X52.615 Y117.809 E180.61980
G1 X98.759 Y71.665 E188.39414
G1 X99.773 Y71.665 E188.51483
G1 X52.615 Y118.822 E196.45985
G1 X52.615 Y119.836 E196.58054
G1 X100.786 Y71.665 E204.69624
G1 X101.799 Y71.665 E204.81693
G1 X52.615 Y120.849 E213.10332
G1 X52.615 Y121.862 E213.22401
G1 X102.812 Y71.665 E221.68108
G1 X103.825 Y71.665 E221.80177
G1 X52.615 Y122.875 E230.42952
G1 X52.615 Y123.888 E230.55021
G1 X104.838 Y71.665 E239.34864
G1 X105.851 Y71.665 E239.46933
G1 X52.615 Y124.901 E248.43844
G1 X52.615 Y125.914 E248.55913
G1 X106.864 Y71.665 E257.69893
G1 X107.877 Y71.665 E257.81962
G1 X52.615 Y126.927 E267.13010
G1 X52.615 Y127.940 E267.25079
G1 X108.890 Y71.665 E276.73196
G1 X109.903 Y71.665 E276.85265
G1 X52.615 Y128.953 E286.50449
G1 X52.615 Y129.966 E286.62518
G1 X110.916 Y71.665 E296.44771
G1 X111.930 Y71.665 E296.56840
G1 X52.615 Y130.980 E306.56161
G1 X52.615 Y131.993 E306.68230
G1 X112.943 Y71.665 E316.84619
G1 X113.956 Y71.665 E316.96688
G1 X52.615 Y133.006 E327.30146
G1 X52.615 Y134.019 E327.42215
G1 X114.969 Y71.665 E337.92741
G1 X115.982 Y71.665 E338.04810
G1 X52.615 Y135.032 E348.72404
G1 X52.615 Y136.045 E348.84473
G1 X116.995 Y71.665 E359.69135
G1 X118.008 Y71.665 E359.81204
G1 X52.615 Y137.058 E370.82935
G1 X52.615 Y138.071 E370.95004
G1 X119.021 Y71.665 E382.13802
G1 X120.034 Y71.665 E382.25871
G1 X52.615 Y139.084 E393.61738
G1 X52.615 Y140.097 E393.73807
G1 X121.047 Y71.665 E405.26743
G1 X122.060 Y71.665 E405.38812
G1 X52.615 Y141.110 E417.08815
G1 X52.615 Y142.124 E417.20884
G1 X123.074 Y71.665 E429.07956
G1 X124.087 Y71.665 E429.20025
G1 X52.615 Y143.137 E441.24165
G1 X52.615 Y143.335 E441.26532
G1 X53.429 Y143.335 E441.36234
G1 X125.100 Y71.665 E453.43722
G1 X126.113 Y71.665 E453.55791
G1 X54.442 Y143.335 E465.63278
G1 X55.455 Y143.335 E465.75347
G1 X127.126 Y71.665 E477.82834
G1 X128.139 Y71.665 E477.94903
G1 X56.468 Y143.335 E490.02390
G1 X57.481 Y143.335 E490.14459
G1 X129.152 Y71.665 E502.21946
G1 X130.165 Y71.665 E502.34015
G1 X58.495 Y143.335 E514.41502
G1 X59.508 Y143.335 E514.53572
G1 X131.178 Y71.665 E526.61059
G1 X132.191 Y71.665 E526.73128
G1 X60.521 Y143.335 E538.80615
G1 X61.534 Y143.335 E538.92684
G1 X133.204 Y71.665 E551.00171
G1 X134.218 Y71.665 E551.12240
G1 X62.547 Y143.335 E563.19727
G1 X63.560 Y143.335 E563.31796
G1 X135.231 Y71.665 E575.39283
G1 X136.244 Y71.665 E575.51352
G1 X64.573 Y143.335 E587.58840
G1 X65.586 Y143.335 E587.70909
G1 X137.257 Y71.665 E599.78396
G1 X138.270 Y71.665 E599.90465
G1 X66.599 Y143.335 E611.97952
G1 X67.612 Y143.335 E612.10021
G1 X139.283 Y71.665 E624.17508
G1 X140.296 Y71.665 E624.29577
G1 X68.625 Y143.335 E636.37064
G1 X69.639 Y143.335 E636.49134
G1 X141.309 Y71.665 E648.56621
G1 X142.322 Y71.665 E648.68690
G1 X70.652 Y143.335 E660.76177
G1 X71.665 Y143.335 E660.88246
G1 X143.335 Y71.665 E672.95733
G1 X144.348 Y71.665 E673.07802
G1 X72.678 Y143.335 E685.15289
G1 X73.691 Y143.335 E685.27358
G1 X145.362 Y71.665 E697.34845
G1 X146.375 Y71.665 E697.46915
G1 X74.704 Y143.335 E709.54402
G1 X75.717 Y143.335 E709.66471
G1 X147.388 Y71.665 E721.73958
G1 X148.401 Y71.665 E721.86027
G1 X76.730 Y143.335 E733.93514
G1 X77.743 Y143.335 E734.05583
G1 X149.414 Y71.665 E746.13070
G1 X150.427 Y71.665 E746.25139
G1 X78.756 Y143.335 E758.32626
G1 X79.769 Y143.335 E758.44695
G1 X151.440 Y71.665 E770.52182
G1 X152.453 Y71.665 E770.64251
G1 X80.783 Y143.335 E782.71739
G1 X81.796 Y143.335 E782.83808
G1 X153.466 Y71.665 E794.91295
G1 X154.479 Y71.665 E795.03364
G1 X82.809 Y143.335 E807.10851
G1 X83.822 Y143.335 E807.22920
G1 X155.492 Y71.665 E819.30407
G1 X156.505 Y71.665 E819.42476
G1 X84.835 Y143.335 E831.49963
G1 X85.848 Y143.335 E831.62032
G1 X157.519 Y71.665 E843.69519
G1 X158.532 Y71.665 E843.81588
G1 X86.861 Y143.335 E855.89075
G1 X87.874 Y143.335 E856.01145
G1 X159.545 Y71.665 E868.08632
G1 X160.558 Y71.665 E868.20701
G1 X88.887 Y143.335 E880.28188
G1 X89.900 Y143.335 E880.40257
G1 X161.571 Y71.665 E892.47744
G1 X162.385 Y71.665 E892.57445
G1 X162.385 Y71.863 E892.59813
G1 X90.913 Y143.335 E904.63952
G1 X91.927 Y143.335 E904.76021
G1 X162.385 Y72.877 E916.63091
G1 X162.385 Y73.890 E916.75160
G1 X92.940 Y143.335 E928.45162
G1 X93.953 Y143.335 E928.57232
G1 X162.385 Y74.903 E940.10166
G1 X162.385 Y75.916 E940.22235
G1 X94.966 Y143.335 E951.58100
G1 X95.979 Y143.335 E951.70169
G1 X162.385 Y76.929 E962.88967
G1 X162.385 Y77.942 E963.01036
G1 X96.992 Y143.335 E974.02765
G1 X98.005 Y143.335 E974.14834
G1 X162.385 Y78.955 E984.99495
G1 X162.385 Y79.968 E985.11564
G1 X99.018 Y143.335 E995.79157
G1 X100.031 Y143.335 E995.91226
G1 X162.385 Y80.981 E1006.41751
G1 X162.385 Y81.994 E1006.53820
G1 X101.044 Y143.335 E1016.87276
G1 X102.057 Y143.335 E1016.99345
G1 X162.385 Y83.007 E1027.15733
G1 X162.385 Y84.021 E1027.27802
G1 X103.070 Y143.335 E1037.27122
G1 X104.084 Y143.335 E1037.39191
G1 X162.385 Y85.034 E1047.21442
G1 X162.385 Y86.047 E1047.33511
G1 X105.097 Y143.335 E1056.98695
G1 X106.110 Y143.335 E1057.10764
G1 X162.385 Y87.060 E1066.58879
G1 X162.385 Y88.073 E1066.70948
G1 X107.123 Y143.335 E1076.01994
G1 X108.136 Y143.335 E1076.14064
G1 X162.385 Y89.086 E1085.28042
G1 X162.385 Y90.099 E1085.40111
G1 X109.149 Y143.335 E1094.37021
G1 X110.162 Y143.335 E1094.49090
G1 X162.385 Y91.112 E1103.28932
G1 X162.385 Y92.125 E1103.41002
G1 X111.175 Y143.335 E1112.03775
G1 X112.188 Y143.335 E1112.15844
G1 X162.385 Y93.138 E1120.61550
G1 X162.385 Y94.151 E1120.73619
G1 X113.201 Y143.335 E1129.02256
G1 X114.214 Y143.335 E1129.14325
G1 X162.385 Y95.164 E1137.25894
G1 X162.385 Y96.178 E1137.37963
G1 X115.228 Y143.335 E1145.32464
G1 X116.241 Y143.335 E1145.44533
G1 X162.385 Y97.191 E1153.21965
G1 X162.385 Y98.204 E1153.34034
G1 X117.254 Y143.335 E1160.94399
G1 X118.267 Y143.335 E1161.06468
G1 X162.385 Y99.217 E1168.49764
G1 X162.385 Y100.230 E1168.61833
G1 X119.280 Y143.335 E1175.88060
G1 X120.293 Y143.335 E1176.00130
G1 X162.385 Y101.243 E1183.09289
G1 X162.385 Y102.256 E1183.21358
G1 X121.306 Y143.335 E1190.13449
G1 X122.319 Y143.335 E1190.25518
G1 X162.385 Y103.269 E1197.00541
G1 X162.385 Y104.282 E1197.12610
G1 X123.332 Y143.335 E1203.70565
G1 X124.345 Y143.335 E1203.82634
G1 X162.385 Y105.295 E1210.23521
G1 X162.385 Y106.308 E1210.35590
G1 X125.358 Y143.335 E1216.59408
G1 X126.372 Y143.335 E1216.71477
G1 X162.385 Y107.322 E1222.78227
G1 X162.385 Y108.335 E1222.90296
G1 X127.385 Y143.335 E1228.79978
G1 X128.398 Y143.335 E1228.92047
G1 X162.385 Y109.348 E1234.64660
G1 X162.385 Y110.361 E1234.76729
G1 X129.411 Y143.335 E1240.32274
G1 X130.424 Y143.335 E1240.44343
G1 X162.385 Y111.374 E1245.82820
G1 X162.385 Y112.387 E1245.94889
G1 X131.437 Y143.335 E1251.16298
G1 X132.450 Y143.335 E1251.28367
G1 X162.385 Y113.400 E1256.32708
G1 X162.385 Y114.413 E1256.44777
G1 X133.463 Y143.335 E1261.32049
G1 X134.476 Y143.335 E1261.44118
G1 X162.385 Y115.426 E1266.14322
G1 X162.385 Y116.439 E1266.26391
G1 X135.489 Y143.335 E1270.79527
G1 X136.502 Y143.335 E1270.91596
G1 X162.385 Y117.452 E1275.27663
G1 X162.385 Y118.466 E1275.39732
G1 X137.516 Y143.335 E1279.58731
G1 X138.529 Y143.335 E1279.70800
G1 X162.385 Y119.479 E1283.72731
G1 X162.385 Y120.492 E1283.84800
G1 X139.542 Y143.335 E1287.69663
G1 X140.555 Y143.335 E1287.81732
G1 X162.385 Y121.505 E1291.49526
G1 X162.385 Y122.518 E1291.61596
G1 X141.568 Y143.335 E1295.12322
G1 X142.581 Y143.335 E1295.24391
G1 X162.385 Y123.531 E1298.58049
G1 X162.385 Y124.544 E1298.70118
G1 X143.594 Y143.335 E1301.86707
G1 X144.607 Y143.335 E1301.98776
G1 X162.385 Y125.557 E1304.98298
G1 X162.385 Y126.570 E1305.10367
G1 X145.620 Y143.335 E1307.92820
G1 X146.633 Y143.335 E1308.04889
G1 X162.385 Y127.583 E1310.70274
G1 X162.385 Y128.596 E1310.82343
G1 X147.646 Y143.335 E1313.30660
G1 X148.660 Y143.335 E1313.42729
G1 X162.385 Y129.610 E1315.73977
G1 X162.385 Y130.623 E1315.86046
G1 X149.673 Y143.335 E1318.00226
G1 X150.686 Y143.335 E1318.12295
G1 X162.385 Y131.636 E1320.09407
G1 X162.385 Y132.649 E1320.21476
G1 X151.699 Y143.335 E1322.01520
G1 X152.712 Y143.335 E1322.13589
G1 X162.385 Y133.662 E1323.76564
G1 X162.385 Y134.675 E1323.88633
G1 X153.725 Y143.335 E1325.34540
G1 X154.738 Y143.335 E1325.46609
G1 X162.385 Y135.688 E1326.75448
G1 X162.385 Y136.701 E1326.87517
G1 X155.751 Y143.335 E1327.99288
G1 X156.764 Y143.335 E1328.11357
G1 X162.385 Y137.714 E1329.06059
G1 X162.385 Y138.727 E1329.18129
G1 X157.777 Y143.335 E1329.95763
G1 X158.790 Y143.335 E1330.07832
G1 X162.385 Y139.740 E1330.68397
G1 X162.385 Y140.753 E1330.80467
G1 X159.803 Y143.335 E1331.23964
G1 X160.817 Y143.335 E1331.36033
G1 X162.385 Y141.767 E1331.62463
G1 X162.385 Y142.780 E1331.74532
G1 X161.830 Y143.335 E1331.83893
M104 S200 ; set temperature
M140 S60 ; set bed temperature
G1 Z0.700 F7800.000
G1 X51.386 Y144.564 F7800.000
G1 F5400
G1 X51.386 Y70.436 E1335.71172
G1 X163.614 Y70.436 E1341.57505
G1 X163.614 Y144.564 E1345.44785
G1 X51.446 Y144.564 E1351.30804
G1 X50.967 Y144.983 F7800.000
G1 F5400
G1 X50.967 Y70.017 E1355.22461
G1 X164.033 Y70.017 E1361.13170
G1 X164.033 Y144.983 E1365.04827
G1 X51.027 Y144.983 E1370.95223
G1 X50.570 Y145.380 F7800.000
G1 F2700
G1 X50.570 Y69.620 E1374.50153
G1 X164.430 Y69.620 E1379.83580
G1 X164.430 Y145.380 E1383.38510
G1 X50.630 Y145.380 E1388.71656
G1 X50.699 Y145.001 F7800.000
G1 X51.968 Y144.308 F7800.000
G1 F2400
G1 X51.642 Y143.982 E1388.74069
G1 X51.642 Y143.388 E1388.77179
G1 X52.562 Y144.308 E1388.83992
G1 X53.156 Y144.308 E1388.87102
G1 X51.642 Y142.794 E1388.98313
G1 X51.642 Y142.200 E1389.01423
G1 X53.750 Y144.308 E1389.17032
G1 X54.343 Y144.308 E1389.20142
G1 X51.642 Y141.607 E1389.40149
G1 X51.642 Y141.013 E1389.43259
G1 X54.937 Y144.308 E1389.67665
G1 X55.531 Y144.308 E1389.70775
G1 X51.642 Y140.419 E1389.99578
G1 X51.642 Y139.825 E1390.02688
G1 X56.125 Y144.308 E1390.35890
G1 X56.719 Y144.308 E1390.39000
G1 X51.642 Y139.231 E1390.76600
G1 X51.642 Y138.637 E1390.79710
G1 X57.313 Y144.308 E1391.21709
G1 X57.906 Y144.308 E1391.24819
G1 X51.642 Y138.044 E1391.71215
G1 X51.642 Y137.450 E1391.74325
G1 X58.500 Y144.308 E1392.25120
G1 X59.094 Y144.308 E1392.28230
G1 X51.642 Y136.856 E1392.83422
G1 X51.642 Y136.262 E1392.86532
G1 X59.688 Y144.308 E1393.46123
G1 X60.282 Y144.308 E1393.49233
G1 X51.642 Y135.668 E1394.13222
G1 X51.642 Y135.075 E1394.16332
G1 X60.875 Y144.308 E1394.84720
G1 X61.469 Y144.308 E1394.87830
G1 X51.642 Y134.481 E1395.60615
G1 X51.642 Y133.887 E1395.63725
G1 X62.063 Y144.308 E1396.40909
G1 X62.657 Y144.308 E1396.44019
G1 X51.642 Y133.293 E1397.25601
