; generated by Slic3r 1.3.0 on 2021-09-15 at 22:14:01

; external perimeters extrusion width = 0.44mm (5.07mm^3/s)
; perimeters extrusion width = 0.48mm (11.31mm^3/s)
; infill extrusion width = 0.48mm (10.05mm^3/s)
; solid infill extrusion width = 0.48mm (5.03mm^3/s)
; top infill extrusion width = 0.48mm (1.88mm^3/s)

M107
M190 S65 ; set bed temperature and wait for it to be reached
M104 S205 ; set temperature
M412 S0 ; disable filament sensor
G28 ; home all axes
G1 Z5 F5000 ; lift nozzle

; Filament gcode

M109 S205 ; set temperature and wait for it to be reached
G21 ; set units to millimeters
G90 ; use absolute coordinates
M82 ; use absolute distances for extrusion
G92 E0
G1 Z0.400 F7800.000
G1 E-2.00000 F2400.00000
G92 E0
G1 X44.468 Y23.763 F7800.000
G1 E2.00000 F2400.00000
G1 F3600
G1 X46.247 Y22.108 E2.28854
G1 X48.464 Y21.115 E2.57709
G1 X50.350 Y20.872 E2.80288
G1 X164.650 Y20.872 E16.37774
G1 X167.047 Y21.269 E16.66628
G1 X169.187 Y22.418 E16.95483
G1 X170.842 Y24.197 E17.24337
G1 X171.835 Y26.414 E17.53192
G1 X172.078 Y28.300 E17.75771
G1 X172.078 Y186.700 E36.57011
G1 X171.681 Y189.097 E36.85866
G1 X170.532 Y191.237 E37.14720
G1 X168.753 Y192.892 E37.43575
G1 X166.536 Y193.885 E37.72429
G1 X164.650 Y194.128 E37.95008
G1 X50.350 Y194.128 E51.52494
G1 X47.953 Y193.731 E51.81348
G1 X45.813 Y192.582 E52.10203
G1 X44.158 Y190.803 E52.39057
G1 X43.165 Y188.586 E52.67912
G1 X42.922 Y186.700 E52.90491
G1 X42.922 Y28.300 E71.71731
G1 X43.319 Y25.903 E72.00586
G1 X44.440 Y23.816 E72.28728
G1 X45.177 Y24.020 F7800.000
G1 F3600
G1 X46.933 Y22.520 E72.56150
G1 X49.093 Y21.705 E72.83572
G1 X50.350 Y21.586 E72.98569
G1 X164.650 Y21.586 E86.56055
G1 X166.925 Y21.983 E86.83478
G1 X168.930 Y23.127 E87.10900
G1 X170.430 Y24.883 E87.38323
G1 X171.245 Y27.043 E87.65745
G1 X171.364 Y28.300 E87.80742
G1 X171.364 Y186.700 E106.61982
G1 X170.967 Y188.975 E106.89405
G1 X169.823 Y190.980 E107.16827
G1 X168.067 Y192.480 E107.44250
G1 X165.907 Y193.295 E107.71672
G1 X164.650 Y193.414 E107.86669
G1 X50.350 Y193.414 E121.44155
G1 X48.075 Y193.017 E121.71577
G1 X46.070 Y191.873 E121.99000
G1 X44.570 Y190.117 E122.26422
G1 X43.755 Y187.957 E122.53845
G1 X43.636 Y186.700 E122.68841
G1 X43.636 Y28.300 E141.50082
G1 X44.033 Y26.025 E141.77504
G1 X45.147 Y24.072 E142.04214
G1 E140.04214 F2400.00000
G92 E0
G1 X52.178 Y30.128 F7800.000
G1 E2.00000 F2400.00000
G1 F3600
G1 X162.822 Y30.128 E15.14058
G1 X162.822 Y102.672 E23.75620
G1 X52.178 Y102.672 E36.89678
G1 X52.178 Y30.188 E45.50528
G1 X51.464 Y29.414 F7800.000
G1 F3600
G1 X163.536 Y29.414 E58.81550
G1 X163.536 Y103.386 E67.60076
G1 X51.464 Y103.386 E80.91097
G1 X51.464 Y29.474 E89.68910
G1 X50.750 Y28.700 F7800.000
G1 F3600
G1 X164.250 Y28.700 E103.16895
G1 X164.250 Y104.100 E112.12384
G1 X50.750 Y104.100 E125.60369
G1 X50.750 Y28.760 E134.55146
G1 X51.142 Y28.778 F7800.000
G1 E132.55146 F2400.00000
G92 E0
G1 X53.170 Y30.565 F7800.000
G1 E2.00000 F2400.00000
G1 F3600
G1 X52.615 Y31.120 E2.09362
G1 X52.615 Y32.134 E2.21431
G1 X54.183 Y30.565 E2.47862
G1 X55.197 Y30.565 E2.59931
G1 X52.615 Y33.147 E3.03430
G1 X52.615 Y34.160 E3.15499
G1 X56.210 Y30.565 E3.76066
G1 X57.223 Y30.565 E3.88135
G1 X52.615 Y35.173 E4.65770
G1 X52.615 Y36.186 E4.77839
G1 X58.236 Y30.565 E5.72542
G1 X59.249 Y30.565 E5.84612
G1 X52.615 Y37.199 E6.96383
G1 X52.615 Y38.212 E7.08452
G1 X60.262 Y30.565 E8.37292
G1 X61.275 Y30.565 E8.49361
G1 X52.615 Y39.225 E9.95270
G1 X52.615 Y40.238 E10.07339
G1 X62.288 Y30.565 E11.70315
G1 X63.301 Y30.565 E11.82384
G1 X52.615 Y41.251 E13.62429
G1 X52.615 Y42.264 E13.74498
G1 X64.314 Y30.565 E15.71611
G1 X65.327 Y30.565 E15.83680
G1 X52.615 Y43.277 E17.97862
G1 X52.615 Y44.291 E18.09931
G1 X66.341 Y30.565 E20.41180
G1 X67.354 Y30.565 E20.53249
G1 X52.615 Y45.304 E23.01567
G1 X52.615 Y46.317 E23.13636
G1 X68.367 Y30.565 E25.79022
G1 X69.380 Y30.565 E25.91091
G1 X52.615 Y47.330 E28.73546
G1 X52.615 Y48.343 E28.85615
G1 X70.393 Y30.565 E31.85137
G1 X71.406 Y30.565 E31.97206
G1 X52.615 Y49.356 E35.13797
G1 X52.615 Y50.369 E35.25866
G1 X72.419 Y30.565 E38.59525
G1 X73.432 Y30.565 E38.71594
G1 X52.615 Y51.382 E42.22322
G1 X52.615 Y52.395 E42.34391
G1 X74.445 Y30.565 E46.02186
G1 X75.458 Y30.565 E46.14255
G1 X52.615 Y53.408 E49.99119
G1 X52.615 Y54.421 E50.11188
G1 X76.471 Y30.565 E54.13120
G1 X77.485 Y30.565 E54.25189
G1 X52.615 Y55.435 E58.44190
G1 X52.615 Y56.448 E58.56259
G1 X78.498 Y30.565 E62.92327
G1 X79.511 Y30.565 E63.04396
G1 X52.615 Y57.461 E67.57533
G1 X52.615 Y58.474 E67.69602
G1 X80.524 Y30.565 E72.39807
G1 X81.537 Y30.565 E72.51876
G1 X52.615 Y59.487 E77.39150
G1 X52.615 Y60.500 E77.51219
G1 X82.550 Y30.565 E82.55560
G1 X83.563 Y30.565 E82.67630
G1 X52.615 Y61.513 E87.89039
G1 X52.615 Y62.526 E88.01108
G1 X84.576 Y30.565 E93.39587
G1 X85.589 Y30.565 E93.51656
G1 X52.615 Y63.539 E99.07202
G1 X52.615 Y64.552 E99.19271
G1 X86.602 Y30.565 E104.91886
G1 X87.615 Y30.565 E105.03955
G1 X52.615 Y65.565 E110.93638
G1 X52.615 Y66.579 E111.05707
G1 X88.629 Y30.565 E117.12458
G1 X89.642 Y30.565 E117.24527
G1 X52.615 Y67.592 E123.48346
G1 X52.615 Y68.605 E123.60416
G1 X90.655 Y30.565 E130.01303
G1 X91.668 Y30.565 E130.13372
G1 X52.615 Y69.618 E136.71328
G1 X52.615 Y70.631 E136.83397
G1 X92.681 Y30.565 E143.58421
G1 X93.694 Y30.565 E143.70490
G1 X52.615 Y71.644 E150.62583
G1 X52.615 Y72.657 E150.74652
G1 X94.707 Y30.565 E157.83813
G1 X95.720 Y30.565 E157.95882
G1 X52.615 Y73.670 E165.22111
G1 X52.615 Y74.683 E165.34180
G1 X96.733 Y30.565 E172.77477
G1 X97.746 Y30.565 E172.89546
G1 X52.615 Y75.696 E180.49911
G1 X52.615 Y76.709 E180.61980
G1 X98.759 Y30.565 E188.39414
G1 X99.773 Y30.565 E188.51483
G1 X52.615 Y77.722 E196.45985
G1 X52.615 Y78.736 E196.58054
G1 X100.786 Y30.565 E204.69624
G1 X101.799 Y30.565 E204.81693
G1 X52.615 Y79.749 E213.10332
G1 X52.615 Y80.762 E213.22401
G1 X102.812 Y30.565 E221.68108
G1 X103.825 Y30.565 E221.80177
G1 X52.615 Y81.775 E230.42952
G1 X52.615 Y82.788 E230.55021
G1 X104.838 Y30.565 E239.34864
G1 X105.851 Y30.565 E239.46933
G1 X52.615 Y83.801 E248.43844
G1 X52.615 Y84.814 E248.55913
G1 X106.864 Y30.565 E257.69893
G1 X107.877 Y30.565 E257.81962
G1 X52.615 Y85.827 E267.13010
G1 X52.615 Y86.840 E267.25079
G1 X108.890 Y30.565 E276.73196
G1 X109.903 Y30.565 E276.85265
G1 X52.615 Y87.853 E286.50449
G1 X52.615 Y88.866 E286.62518
G1 X110.916 Y30.565 E296.44771
G1 X111.930 Y30.565 E296.56840
G1 X52.615 Y89.880 E306.56161
G1 X52.615 Y90.893 E306.68230
G1 X112.943 Y30.565 E316.84619
G1 X113.956 Y30.565 E316.96688
G1 X52.615 Y91.906 E327.30146
G1 X52.615 Y92.919 E327.42215
G1 X114.969 Y30.565 E337.92741
G1 X115.982 Y30.565 E338.04810
G1 X52.615 Y93.932 E348.72404
G1 X52.615 Y94.945 E348.84473
G1 X116.995 Y30.565 E359.69135
G1 X118.008 Y30.565 E359.81204
G1 X52.615 Y95.958 E370.82935
G1 X52.615 Y96.971 E370.95004
G1 X119.021 Y30.565 E382.13802
G1 X120.034 Y30.565 E382.25871
G1 X52.615 Y97.984 E393.61738
G1 X52.615 Y98.997 E393.73807
G1 X121.047 Y30.565 E405.26743
G1 X122.060 Y30.565 E405.38812
G1 X52.615 Y100.010 E417.08815
G1 X52.615 Y101.024 E417.20884
G1 X123.074 Y30.565 E429.07956
G1 X124.087 Y30.565 E429.20025
G1 X52.615 Y102.037 E441.24165
G1 X52.615 Y102.235 E441.26532
G1 X53.429 Y102.235 E441.36234
G1 X125.100 Y30.565 E453.43722
G1 X126.113 Y30.565 E453.55791
G1 X54.442 Y102.235 E465.63278
G1 X55.455 Y102.235 E465.75347
G1 X127.126 Y30.565 E477.82834
G1 X128.139 Y30.565 E477.94903
G1 X56.468 Y102.235 E490.02390
G1 X57.481 Y102.235 E490.14459
G1 X129.152 Y30.565 E502.21946
G1 X130.165 Y30.565 E502.34015
G1 X58.495 Y102.235 E514.41502
G1 X59.508 Y102.235 E514.53572
G1 X131.178 Y30.565 E526.61059
G1 X132.191 Y30.565 E526.73128
G1 X60.521 Y102.235 E538.80615
G1 X61.534 Y102.235 E538.92684
G1 X133.204 Y30.565 E551.00171
G1 X134.218 Y30.565 E551.12240
G1 X62.547 Y102.235 E563.19727
G1 X63.560 Y102.235 E563.31796
G1 X135.231 Y30.565 E575.39283
G1 X136.244 Y30.565 E575.51352
G1 X64.573 Y102.235 E587.58840
G1 X65.586 Y102.235 E587.70909
G1 X137.257 Y30.565 E599.78396
G1 X138.270 Y30.565 E599.90465
G1 X66.599 Y102.235 E611.97952
G1 X67.612 Y102.235 E612.10021
G1 X139.283 Y30.565 E624.17508
G1 X140.296 Y30.565 E624.29577
G1 X68.625 Y102.235 E636.37064
G1 X69.639 Y102.235 E636.49134
G1 X141.309 Y30.565 E648.56621
G1 X142.322 Y30.565 E648.68690
G1 X70.652 Y102.235 E660.76177
G1 X71.665 Y102.235 E660.88246
G1 X143.335 Y30.565 E672.95733
G1 X144.348 Y30.565 E673.07802
G1 X72.678 Y102.235 E685.15289
G1 X73.691 Y102.235 E685.27358
G1 X145.362 Y30.565 E697.34845
G1 X146.375 Y30.565 E697.46915
G1 X74.704 Y102.235 E709.54402
G1 X75.717 Y102.235 E709.66471
G1 X147.388 Y30.565 E721.73958
G1 X148.401 Y30.565 E721.86027
G1 X76.730 Y102.235 E733.93514
G1 X77.743 Y102.235 E734.05583
G1 X149.414 Y30.565 E746.13070
G1 X150.427 Y30.565 E746.25139
G1 X78.756 Y102.235 E758.32626
G1 X79.769 Y102.235 E758.44695
G1 X151.440 Y30.565 E770.52182
G1 X152.453 Y30.565 E770.64251
G1 X80.783 Y102.235 E782.71739
G1 X81.796 Y102.235 E782.83808
G1 X153.466 Y30.565 E794.91295
G1 X154.479 Y30.565 E795.03364
G1 X82.809 Y102.235 E807.10851
G1 X83.822 Y102.235 E807.22920
G1 X155.492 Y30.565 E819.30407
G1 X156.505 Y30.565 E819.42476
G1 X84.835 Y102.235 E831.49963
G1 X85.848 Y102.235 E831.62032
G1 X157.519 Y30.565 E843.69519
G1 X158.532 Y30.565 E843.81588
G1 X86.861 Y102.235 E855.89075
G1 X87.874 Y102.235 E856.01145
G1 X159.545 Y30.565 E868.08632
G1 X160.558 Y30.565 E868.20701
G1 X88.887 Y102.235 E880.28188
G1 X89.900 Y102.235 E880.40257
G1 X161.571 Y30.565 E892.47744
G1 X162.385 Y30.565 E892.57445
G1 X162.385 Y30.763 E892.59813
G1 X90.913 Y102.235 E904.63952
G1 X91.927 Y102.235 E904.76021
G1 X162.385 Y31.777 E916.63091
G1 X162.385 Y32.790 E916.75160
G1 X92.940 Y102.235 E928.45162
G1 X93.953 Y102.235 E928.57232
G1 X162.385 Y33.803 E940.10166
G1 X162.385 Y34.816 E940.22235
G1 X94.966 Y102.235 E951.58100
G1 X95.979 Y102.235 E951.70169
G1 X162.385 Y35.829 E962.88967
G1 X162.385 Y36.842 E963.01036
G1 X96.992 Y102.235 E974.02765
G1 X98.005 Y102.235 E974.14834
G1 X162.385 Y37.855 E984.99495
G1 X162.385 Y38.868 E985.11564
G1 X99.018 Y102.235 E995.79157
G1 X100.031 Y102.235 E995.91226
G1 X162.385 Y39.881 E1006.41751
G1 X162.385 Y40.894 E1006.53820
G1 X101.044 Y102.235 E1016.87276
G1 X102.057 Y102.235 E1016.99345
G1 X162.385 Y41.907 E1027.15733
G1 X162.385 Y42.921 E1027.27802
G1 X103.070 Y102.235 E1037.27122
G1 X104.084 Y102.235 E1037.39191
G1 X162.385 Y43.934 E1047.21442
G1 X162.385 Y44.947 E1047.33511
G1 X105.097 Y102.235 E1056.98695
G1 X106.110 Y102.235 E1057.10764
G1 X162.385 Y45.960 E1066.58879
G1 X162.385 Y46.973 E1066.70948
G1 X107.123 Y102.235 E1076.01994
G1 X108.136 Y102.235 E1076.14064
G1 X162.385 Y47.986 E1085.28042
G1 X162.385 Y48.999 E1085.40111
G1 X109.149 Y102.235 E1094.37021
G1 X110.162 Y102.235 E1094.49090
G1 X162.385 Y50.012 E1103.28932
G1 X162.385 Y51.025 E1103.41002
G1 X111.175 Y102.235 E1112.03775
G1 X112.188 Y102.235 E1112.15844
G1 X162.385 Y52.038 E1120.61550
G1 X162.385 Y53.051 E1120.73619
G1 X113.201 Y102.235 E1129.02256
G1 X114.214 Y102.235 E1129.14325
G1 X162.385 Y54.064 E1137.25894
G1 X162.385 Y55.078 E1137.37963
G1 X115.228 Y102.235 E1145.32464
G1 X116.241 Y102.235 E1145.44533
G1 X162.385 Y56.091 E1153.21965
G1 X162.385 Y57.104 E1153.34034
G1 X117.254 Y102.235 E1160.94399
G1 X118.267 Y102.235 E1161.06468
G1 X162.385 Y58.117 E1168.49764
G1 X162.385 Y59.130 E1168.61833
G1 X119.280 Y102.235 E1175.88060
G1 X120.293 Y102.235 E1176.00130
G1 X162.385 Y60.143 E1183.09289
G1 X162.385 Y61.156 E1183.21358
G1 X121.306 Y102.235 E1190.13449
G1 X122.319 Y102.235 E1190.25518
G1 X162.385 Y62.169 E1197.00541
G1 X162.385 Y63.182 E1197.12610
G1 X123.332 Y102.235 E1203.70565
G1 X124.345 Y102.235 E1203.82634
G1 X162.385 Y64.195 E1210.23521
G1 X162.385 Y65.208 E1210.35590
G1 X125.358 Y102.235 E1216.59408
G1 X126.372 Y102.235 E1216.71477
G1 X162.385 Y66.222 E1222.78227
G1 X162.385 Y67.235 E1222.90296
G1 X127.385 Y102.235 E1228.79978
G1 X128.398 Y102.235 E1228.92047
G1 X162.385 Y68.248 E1234.64660
G1 X162.385 Y69.261 E1234.76729
G1 X129.411 Y102.235 E1240.32274
G1 X130.424 Y102.235 E1240.44343
G1 X162.385 Y70.274 E1245.82820
G1 X162.385 Y71.287 E1245.94889
G1 X131.437 Y102.235 E1251.16298
G1 X132.450 Y102.235 E1251.28367
G1 X162.385 Y72.300 E1256.32708
G1 X162.385 Y73.313 E1256.44777
G1 X133.463 Y102.235 E1261.32049
G1 X134.476 Y102.235 E1261.44118
G1 X162.385 Y74.326 E1266.14322
G1 X162.385 Y75.339 E1266.26391
G1 X135.489 Y102.235 E1270.79527
G1 X136.502 Y102.235 E1270.91596
G1 X162.385 Y76.352 E1275.27663
G1 X162.385 Y77.366 E1275.39732
G1 X137.516 Y102.235 E1279.58731
G1 X138.529 Y102.235 E1279.70800
G1 X162.385 Y78.379 E1283.72731
G1 X162.385 Y79.392 E1283.84800
G1 X139.542 Y102.235 E1287.69663
G1 X140.555 Y102.235 E1287.81732
G1 X162.385 Y80.405 E1291.49526
G1 X162.385 Y81.418 E1291.61596
G1 X141.568 Y102.235 E1295.12322
G1 X142.581 Y102.235 E1295.24391
G1 X162.385 Y82.431 E1298.58049
G1 X162.385 Y83.444 E1298.70118
G1 X143.594 Y102.235 E1301.86707
G1 X144.607 Y102.235 E1301.98776
G1 X162.385 Y84.457 E1304.98298
G1 X162.385 Y85.470 E1305.10367
G1 X145.620 Y102.235 E1307.92820
G1 X146.633 Y102.235 E1308.04889
G1 X162.385 Y86.483 E1310.70274
G1 X162.385 Y87.496 E1310.82343
G1 X147.646 Y102.235 E1313.30660
G1 X148.660 Y102.235 E1313.42729
G1 X162.385 Y88.510 E1315.73977
G1 X162.385 Y89.523 E1315.86046
G1 X149.673 Y102.235 E1318.00226
G1 X150.686 Y102.235 E1318.12295
G1 X162.385 Y90.536 E1320.09407
G1 X162.385 Y91.549 E1320.21476
G1 X151.699 Y102.235 E1322.01520
G1 X152.712 Y102.235 E1322.13589
G1 X162.385 Y92.562 E1323.76564
G1 X162.385 Y93.575 E1323.88633
G1 X153.725 Y102.235 E1325.34540
G1 X154.738 Y102.235 E1325.46609
G1 X162.385 Y94.588 E1326.75448
G1 X162.385 Y95.601 E1326.87517
G1 X155.751 Y102.235 E1327.99288
G1 X156.764 Y102.235 E1328.11357
G1 X162.385 Y96.614 E1329.06059
G1 X162.385 Y97.627 E1329.18129
G1 X157.777 Y102.235 E1329.95763
G1 X158.790 Y102.235 E1330.07832
G1 X162.385 Y98.640 E1330.68397
G1 X162.385 Y99.653 E1330.80467
G1 X159.803 Y102.235 E1331.23964
G1 X160.817 Y102.235 E1331.36033
G1 X162.385 Y100.667 E1331.62463
G1 X162.385 Y101.680 E1331.74532
G1 X161.830 Y102.235 E1331.83893
G1 E1329.83893 F2400.00000
G92 E0
G1 X52.178 Y112.328 F7800.000
G1 E2.00000 F2400.00000
G1 F3600
G1 X162.822 Y112.328 E15.14058
G1 X162.822 Y184.872 E23.75620
G1 X52.178 Y184.872 E36.89678
G1 X52.178 Y112.388 E45.50528
G1 X51.464 Y111.614 F7800.000
G1 F3600
G1 X163.536 Y111.614 E58.81550
G1 X163.536 Y185.586 E67.60076
G1 X51.464 Y185.586 E80.91097
G1 X51.464 Y111.674 E89.68910
G1 X50.750 Y110.900 F7800.000
G1 F3600
G1 X164.250 Y110.900 E103.16895
G1 X164.250 Y186.300 E112.12384
G1 X50.750 Y186.300 E125.60369
G1 X50.750 Y110.960 E134.55146
G1 X51.142 Y110.978 F7800.000
G1 E132.55146 F2400.00000
G92 E0
G1 X53.170 Y112.765 F7800.000
G1 E2.00000 F2400.00000
G1 F3600
G1 X52.615 Y113.320 E2.09362
G1 X52.615 Y114.333 E2.21431
G1 X54.183 Y112.765 E2.47862
G1 X55.197 Y112.765 E2.59931
G1 X52.615 Y115.347 E3.03430
G1 X52.615 Y116.360 E3.15499
G1 X56.210 Y112.765 E3.76066
G1 X57.223 Y112.765 E3.88135
G1 X52.615 Y117.373 E4.65770
G1 X52.615 Y118.386 E4.77839
G1 X58.236 Y112.765 E5.72542
G1 X59.249 Y112.765 E5.84612
G1 X52.615 Y119.399 E6.96383
G1 X52.615 Y120.412 E7.08452
G1 X60.262 Y112.765 E8.37292
G1 X61.275 Y112.765 E8.49361
G1 X52.615 Y121.425 E9.95270
G1 X52.615 Y122.438 E10.07339
G1 X62.288 Y112.765 E11.70315
G1 X63.301 Y112.765 E11.82384
G1 X52.615 Y123.451 E13.62429
G1 X52.615 Y124.464 E13.74498
G1 X64.314 Y112.765 E15.71611
G1 X65.327 Y112.765 E15.83680
G1 X52.615 Y125.477 E17.97862
G1 X52.615 Y126.491 E18.09931
G1 X66.341 Y112.765 E20.41180
G1 X67.354 Y112.765 E20.53249
G1 X52.615 Y127.504 E23.01567
G1 X52.615 Y128.517 E23.13636
G1 X68.367 Y112.765 E25.79022
G1 X69.380 Y112.765 E25.91091
G1 X52.615 Y129.530 E28.73546
G1 X52.615 Y130.543 E28.85615
G1 X70.393 Y112.765 E31.85137
G1 X71.406 Y112.765 E31.97206
G1 X52.615 Y131.556 E35.13797
G1 X52.615 Y132.569 E35.25866
G1 X72.419 Y112.765 E38.59525
G1 X73.432 Y112.765 E38.71594
G1 X52.615 Y133.582 E42.22322
G1 X52.615 Y134.595 E42.34391
