; generated by Slic3r 1.3.0 on 2021-07-06 at 22:53:34

; external perimeters extrusion width = 0.44mm (3.38mm^3/s)
; perimeters extrusion width = 0.48mm (7.54mm^3/s)
; infill extrusion width = 0.48mm (10.05mm^3/s)
; solid infill extrusion width = 0.48mm (2.51mm^3/s)
; top infill extrusion width = 0.48mm (1.88mm^3/s)

M107
M190 S65 ; set bed temperature and wait for it to be reached
M104 S205 ; set temperature
G28 ; home all axes
G1 Z5 F5000 ; lift nozzle

; Filament gcode

M109 S205 ; set temperature and wait for it to be reached
G21 ; set units to millimeters
G90 ; use absolute coordinates
M82 ; use absolute distances for extrusion
G92 E0
G1 Z0.400 F7800.000
G1 E-2.00000 F2400.00000
G92 E0
G1 X55.636 Y86.331 F7800.000
G1 E2.00000 F2400.00000
G1 F1800
G1 X97.036 Y67.631 E7.39520
G1 X99.800 Y67.036 E7.73097
G1 X135.200 Y67.036 E11.93526
G1 X137.964 Y67.631 E12.27103
G1 X179.364 Y86.331 E17.66623
G1 X181.273 Y87.629 E17.94045
G1 X182.630 Y89.498 E18.21468
G1 X183.314 Y92.450 E18.57462
G1 X183.314 Y123.850 E22.30385
G1 X182.917 Y126.125 E22.57807
G1 X181.101 Y128.832 E22.96529
G1 X139.701 Y166.232 E29.59141
G1 X137.747 Y167.462 E29.86564
G1 X135.200 Y167.964 E30.17393
G1 X99.800 Y167.964 E34.37822
G1 X97.525 Y167.567 E34.65244
G1 X95.299 Y166.232 E34.96073
G1 X53.899 Y128.832 E41.58685
G1 X52.477 Y127.013 E41.86108
G1 X51.686 Y123.850 E42.24830
G1 X51.686 Y92.450 E45.97753
G1 X52.083 Y90.175 E46.25175
G1 X53.227 Y88.170 E46.52598
G1 X55.588 Y86.367 E46.87879
G1 E44.87879 F2400.00000
G92 E0
G1 X133.372 Y159.422 F7800.000
G1 E2.00000 F2400.00000
G1 F1800
G1 X101.628 Y159.422 E5.77001
G1 X101.628 Y150.378 E6.84404
G1 X133.372 Y150.378 E10.61405
G1 X133.372 Y159.362 E11.68096
G1 X134.086 Y160.136 F7800.000
G1 F1800
G1 X100.914 Y160.136 E15.62060
G1 X100.914 Y149.664 E16.86427
G1 X134.086 Y149.664 E20.80391
G1 X134.086 Y160.076 E22.04046
G1 X134.800 Y160.850 F7800.000
G1 F1800
G1 X100.200 Y160.850 E26.14973
G1 X100.200 Y148.950 E27.56304
G1 X134.800 Y148.950 E31.67231
G1 X134.800 Y160.790 E33.07849
G1 X134.402 Y160.806 F7800.000
G1 E31.07849 F2400.00000
G92 E0
G1 X132.380 Y158.985 F7800.000
G1 E2.00000 F2400.00000
G1 F1800
G1 X132.935 Y158.430 E2.09472
G1 X132.935 Y157.405 E2.21830
G1 X131.355 Y158.985 E2.48779
G1 X130.329 Y158.985 E2.61136
G1 X132.935 Y156.379 E3.05562
G1 X132.935 Y155.354 E3.17919
G1 X129.304 Y158.985 E3.79821
G1 X128.279 Y158.985 E3.92179
G1 X132.935 Y154.329 E4.71557
G1 X132.935 Y153.304 E4.83914
G1 X127.254 Y158.985 E5.80769
G1 X126.229 Y158.985 E5.93127
G1 X132.935 Y152.279 E7.07457
G1 X132.935 Y151.254 E7.19815
G1 X125.204 Y158.985 E8.51623
G1 X124.179 Y158.985 E8.63980
G1 X132.349 Y150.815 E10.03272
G1 X131.324 Y150.815 E10.15630
G1 X123.153 Y158.985 E11.54922
G1 X122.128 Y158.985 E11.67279
G1 X130.299 Y150.815 E13.06571
G1 X129.274 Y150.815 E13.18929
G1 X121.103 Y158.985 E14.58221
G1 X120.078 Y158.985 E14.70579
G1 X128.249 Y150.815 E16.09871
G1 X127.224 Y150.815 E16.22228
G1 X119.053 Y158.985 E17.61520
G1 X118.028 Y158.985 E17.73878
G1 X126.198 Y150.815 E19.13170
G1 X125.173 Y150.815 E19.25528
G1 X117.003 Y158.985 E20.64820
G1 X115.978 Y158.985 E20.77177
G1 X124.148 Y150.815 E22.16469
G1 X123.123 Y150.815 E22.28827
G1 X114.952 Y158.985 E23.68119
G1 X113.927 Y158.985 E23.80477
G1 X122.098 Y150.815 E25.19768
G1 X121.073 Y150.815 E25.32126
G1 X112.902 Y158.985 E26.71418
G1 X111.877 Y158.985 E26.83776
G1 X120.048 Y150.815 E28.23068
G1 X119.022 Y150.815 E28.35425
G1 X110.852 Y158.985 E29.74717
G1 X109.827 Y158.985 E29.87075
G1 X117.997 Y150.815 E31.26367
G1 X116.972 Y150.815 E31.38725
G1 X108.802 Y158.985 E32.78017
G1 X107.777 Y158.985 E32.90374
G1 X115.947 Y150.815 E34.29666
G1 X114.922 Y150.815 E34.42024
G1 X106.751 Y158.985 E35.81316
G1 X105.726 Y158.985 E35.93673
G1 X113.897 Y150.815 E37.32965
G1 X112.872 Y150.815 E37.45323
G1 X104.701 Y158.985 E38.84615
G1 X103.676 Y158.985 E38.96973
G1 X111.847 Y150.815 E40.36264
G1 X110.821 Y150.815 E40.48622
G1 X102.651 Y158.985 E41.87914
G1 X102.065 Y158.985 E41.94980
G1 X102.065 Y158.546 E42.00272
G1 X109.796 Y150.815 E43.32080
G1 X108.771 Y150.815 E43.44438
G1 X102.065 Y157.521 E44.58769
G1 X102.065 Y156.496 E44.71127
G1 X107.746 Y150.815 E45.67982
G1 X106.721 Y150.815 E45.80340
G1 X102.065 Y155.471 E46.59719
G1 X102.065 Y154.446 E46.72076
G1 X105.696 Y150.815 E47.33979
G1 X104.671 Y150.815 E47.46336
G1 X102.065 Y153.421 E47.90762
G1 X102.065 Y152.396 E48.03120
G1 X103.646 Y150.815 E48.30070
G1 X102.620 Y150.815 E48.42427
G1 X102.065 Y151.370 E48.51897
G1 E46.51897 F2400.00000
G92 E0
G1 X133.372 Y140.722 F7800.000
G1 E2.00000 F2400.00000
G1 F1800
G1 X101.628 Y140.722 E5.77001
G1 X101.628 Y131.678 E6.84404
G1 X133.372 Y131.678 E10.61405
G1 X133.372 Y140.662 E11.68096
G1 X134.086 Y141.436 F7800.000
G1 F1800
G1 X100.914 Y141.436 E15.62060
G1 X100.914 Y130.964 E16.86427
G1 X134.086 Y130.964 E20.80391
G1 X134.086 Y141.376 E22.04046
G1 X134.800 Y142.150 F7800.000
G1 F1800
G1 X100.200 Y142.150 E26.14973
G1 X100.200 Y130.250 E27.56304
G1 X134.800 Y130.250 E31.67231
G1 X134.800 Y142.090 E33.07849
G1 X134.402 Y142.106 F7800.000
G1 E31.07849 F2400.00000
G92 E0
G1 X132.380 Y140.285 F7800.000
G1 E2.00000 F2400.00000
G1 F1800
G1 X132.935 Y139.730 E2.09472
G1 X132.935 Y138.705 E2.21830
G1 X131.355 Y140.285 E2.48779
G1 X130.329 Y140.285 E2.61136
G1 X132.935 Y137.679 E3.05562
G1 X132.935 Y136.654 E3.17919
G1 X129.304 Y140.285 E3.79821
G1 X128.279 Y140.285 E3.92179
G1 X132.935 Y135.629 E4.71557
G1 X132.935 Y134.604 E4.83914
G1 X127.254 Y140.285 E5.80769
G1 X126.229 Y140.285 E5.93127
G1 X132.935 Y133.579 E7.07457
G1 X132.935 Y132.554 E7.19815
G1 X125.204 Y140.285 E8.51623
G1 X124.179 Y140.285 E8.63980
G1 X132.349 Y132.115 E10.03272
G1 X131.324 Y132.115 E10.15630
G1 X123.153 Y140.285 E11.54922
G1 X122.128 Y140.285 E11.67279
G1 X130.299 Y132.115 E13.06571
G1 X129.274 Y132.115 E13.18929
G1 X121.103 Y140.285 E14.58221
G1 X120.078 Y140.285 E14.70579
G1 X128.249 Y132.115 E16.09871
G1 X127.224 Y132.115 E16.22228
G1 X119.053 Y140.285 E17.61520
G1 X118.028 Y140.285 E17.73878
G1 X126.198 Y132.115 E19.13170
G1 X125.173 Y132.115 E19.25528
G1 X117.003 Y140.285 E20.64820
G1 X115.978 Y140.285 E20.77177
G1 X124.148 Y132.115 E22.16469
G1 X123.123 Y132.115 E22.28827
G1 X114.952 Y140.285 E23.68119
G1 X113.927 Y140.285 E23.80477
G1 X122.098 Y132.115 E25.19768
G1 X121.073 Y132.115 E25.32126
G1 X112.902 Y140.285 E26.71418
G1 X111.877 Y140.285 E26.83776
G1 X120.048 Y132.115 E28.23068
G1 X119.022 Y132.115 E28.35425
G1 X110.852 Y140.285 E29.74717
G1 X109.827 Y140.285 E29.87075
G1 X117.997 Y132.115 E31.26367
G1 X116.972 Y132.115 E31.38725
G1 X108.802 Y140.285 E32.78017
G1 X107.777 Y140.285 E32.90374
G1 X115.947 Y132.115 E34.29666
G1 X114.922 Y132.115 E34.42024
G1 X106.751 Y140.285 E35.81316
G1 X105.726 Y140.285 E35.93673
G1 X113.897 Y132.115 E37.32965
G1 X112.872 Y132.115 E37.45323
G1 X104.701 Y140.285 E38.84615
G1 X103.676 Y140.285 E38.96973
G1 X111.847 Y132.115 E40.36264
G1 X110.821 Y132.115 E40.48622
G1 X102.651 Y140.285 E41.87914
G1 X102.065 Y140.285 E41.94980
G1 X102.065 Y139.846 E42.00272
G1 X109.796 Y132.115 E43.32080
G1 X108.771 Y132.115 E43.44438
G1 X102.065 Y138.821 E44.58769
G1 X102.065 Y137.796 E44.71127
G1 X107.746 Y132.115 E45.67982
G1 X106.721 Y132.115 E45.80340
G1 X102.065 Y136.771 E46.59719
G1 X102.065 Y135.746 E46.72076
G1 X105.696 Y132.115 E47.33979
G1 X104.671 Y132.115 E47.46336
G1 X102.065 Y134.721 E47.90762
G1 X102.065 Y133.696 E48.03120
G1 X103.646 Y132.115 E48.30070
G1 X102.620 Y132.115 E48.42427
G1 X102.065 Y132.670 E48.51897
G1 E46.51897 F2400.00000
G92 E0
G1 X133.372 Y103.322 F7800.000
G1 E2.00000 F2400.00000
G1 F1800
G1 X101.628 Y103.322 E5.77001
G1 X101.628 Y94.278 E6.84404
G1 X133.372 Y94.278 E10.61405
G1 X133.372 Y103.262 E11.68096
G1 X134.086 Y104.036 F7800.000
G1 F1800
G1 X100.914 Y104.036 E15.62060
G1 X100.914 Y93.564 E16.86427
G1 X134.086 Y93.564 E20.80391
G1 X134.086 Y103.976 E22.04046
G1 X134.800 Y104.750 F7800.000
G1 F1800
G1 X100.200 Y104.750 E26.14973
G1 X100.200 Y92.850 E27.56304
G1 X134.800 Y92.850 E31.67231
G1 X134.800 Y104.690 E33.07849
G1 X134.402 Y104.706 F7800.000
G1 E31.07849 F2400.00000
G92 E0
G1 X132.380 Y102.885 F7800.000
G1 E2.00000 F2400.00000
G1 F1800
G1 X132.935 Y102.330 E2.09472
G1 X132.935 Y101.305 E2.21830
G1 X131.355 Y102.885 E2.48779
G1 X130.329 Y102.885 E2.61136
G1 X132.935 Y100.279 E3.05562
G1 X132.935 Y99.254 E3.17919
G1 X129.304 Y102.885 E3.79821
G1 X128.279 Y102.885 E3.92179
G1 X132.935 Y98.229 E4.71557
G1 X132.935 Y97.204 E4.83914
G1 X127.254 Y102.885 E5.80769
G1 X126.229 Y102.885 E5.93127
G1 X132.935 Y96.179 E7.07457
G1 X132.935 Y95.154 E7.19815
G1 X125.204 Y102.885 E8.51623
G1 X124.179 Y102.885 E8.63980
G1 X132.349 Y94.715 E10.03272
G1 X131.324 Y94.715 E10.15630
G1 X123.153 Y102.885 E11.54922
G1 X122.128 Y102.885 E11.67279
G1 X130.299 Y94.715 E13.06571
G1 X129.274 Y94.715 E13.18929
G1 X121.103 Y102.885 E14.58221
G1 X120.078 Y102.885 E14.70579
G1 X128.249 Y94.715 E16.09871
G1 X127.224 Y94.715 E16.22228
G1 X119.053 Y102.885 E17.61520
G1 X118.028 Y102.885 E17.73878
G1 X126.198 Y94.715 E19.13170
G1 X125.173 Y94.715 E19.25528
G1 X117.003 Y102.885 E20.64820
G1 X115.978 Y102.885 E20.77177
G1 X124.148 Y94.715 E22.16469
G1 X123.123 Y94.715 E22.28827
G1 X114.952 Y102.885 E23.68119
G1 X113.927 Y102.885 E23.80477
G1 X122.098 Y94.715 E25.19768
G1 X121.073 Y94.715 E25.32126
G1 X112.902 Y102.885 E26.71418
G1 X111.877 Y102.885 E26.83776
G1 X120.048 Y94.715 E28.23068
G1 X119.022 Y94.715 E28.35425
G1 X110.852 Y102.885 E29.74717
G1 X109.827 Y102.885 E29.87075
G1 X117.997 Y94.715 E31.26367
G1 X116.972 Y94.715 E31.38725
G1 X108.802 Y102.885 E32.78017
G1 X107.777 Y102.885 E32.90374
G1 X115.947 Y94.715 E34.29666
G1 X114.922 Y94.715 E34.42024
G1 X106.751 Y102.885 E35.81316
G1 X105.726 Y102.885 E35.93673
G1 X113.897 Y94.715 E37.32965
G1 X112.872 Y94.715 E37.45323
G1 X104.701 Y102.885 E38.84615
G1 X103.676 Y102.885 E38.96973
G1 X111.847 Y94.715 E40.36264
G1 X110.821 Y94.715 E40.48622
G1 X102.651 Y102.885 E41.87914
G1 X102.065 Y102.885 E41.94980
G1 X102.065 Y102.446 E42.00272
G1 X109.796 Y94.715 E43.32080
G1 X108.771 Y94.715 E43.44438
G1 X102.065 Y101.421 E44.58769
G1 X102.065 Y100.396 E44.71127
G1 X107.746 Y94.715 E45.67982
G1 X106.721 Y94.715 E45.80340
G1 X102.065 Y99.371 E46.59719
G1 X102.065 Y98.346 E46.72076
G1 X105.696 Y94.715 E47.33979
G1 X104.671 Y94.715 E47.46336
G1 X102.065 Y97.321 E47.90762
G1 X102.065 Y96.296 E48.03120
G1 X103.646 Y94.715 E48.30070
G1 X102.620 Y94.715 E48.42427
G1 X102.065 Y95.270 E48.51897
G1 E46.51897 F2400.00000
G92 E0
G1 X133.372 Y84.622 F7800.000
G1 E2.00000 F2400.00000
G1 F1800
G1 X101.628 Y84.622 E5.77001
G1 X101.628 Y75.578 E6.84404
G1 X133.372 Y75.578 E10.61405
G1 X133.372 Y84.562 E11.68096
G1 X134.086 Y85.336 F7800.000
G1 F1800
G1 X100.914 Y85.336 E15.62060
G1 X100.914 Y74.864 E16.86427
G1 X134.086 Y74.864 E20.80391
G1 X134.086 Y85.276 E22.04046
G1 X134.800 Y86.050 F7800.000
G1 F1800
G1 X100.200 Y86.050 E26.14973
G1 X100.200 Y74.150 E27.56304
G1 X134.800 Y74.150 E31.67231
G1 X134.800 Y85.990 E33.07849
G1 X134.402 Y86.006 F7800.000
G1 E31.07849 F2400.00000
G92 E0
G1 X132.380 Y84.185 F7800.000
G1 E2.00000 F2400.00000
G1 F1800
G1 X132.935 Y83.630 E2.09472
G1 X132.935 Y82.605 E2.21830
G1 X131.355 Y84.185 E2.48779
G1 X130.329 Y84.185 E2.61136
G1 X132.935 Y81.579 E3.05562
G1 X132.935 Y80.554 E3.17919
G1 X129.304 Y84.185 E3.79821
G1 X128.279 Y84.185 E3.92179
G1 X132.935 Y79.529 E4.71557
G1 X132.935 Y78.504 E4.83914
G1 X127.254 Y84.185 E5.80769
G1 X126.229 Y84.185 E5.93127
G1 X132.935 Y77.479 E7.07457
G1 X132.935 Y76.454 E7.19815
G1 X125.204 Y84.185 E8.51623
G1 X124.179 Y84.185 E8.63980
G1 X132.349 Y76.015 E10.03272
G1 X131.324 Y76.015 E10.15630
G1 X123.153 Y84.185 E11.54922
G1 X122.128 Y84.185 E11.67279
G1 X130.299 Y76.015 E13.06571
G1 X129.274 Y76.015 E13.18929
G1 X121.103 Y84.185 E14.58221
G1 X120.078 Y84.185 E14.70579
G1 X128.249 Y76.015 E16.09871
G1 X127.224 Y76.015 E16.22228
G1 X119.053 Y84.185 E17.61520
G1 X118.028 Y84.185 E17.73878
G1 X126.198 Y76.015 E19.13170
G1 X125.173 Y76.015 E19.25528
G1 X117.003 Y84.185 E20.64820
G1 X115.978 Y84.185 E20.77177
G1 X124.148 Y76.015 E22.16469
G1 X123.123 Y76.015 E22.28827
G1 X114.952 Y84.185 E23.68119
G1 X113.927 Y84.185 E23.80477
G1 X122.098 Y76.015 E25.19768
G1 X121.073 Y76.015 E25.32126
G1 X112.902 Y84.185 E26.71418
G1 X111.877 Y84.185 E26.83776
G1 X120.048 Y76.015 E28.23068
G1 X119.022 Y76.015 E28.35425
G1 X110.852 Y84.185 E29.74717
G1 X109.827 Y84.185 E29.87075
G1 X117.997 Y76.015 E31.26367
G1 X116.972 Y76.015 E31.38725
G1 X108.802 Y84.185 E32.78017
G1 X107.777 Y84.185 E32.90374
G1 X115.947 Y76.015 E34.29666
G1 X114.922 Y76.015 E34.42024
G1 X106.751 Y84.185 E35.81316
G1 X105.726 Y84.185 E35.93673
G1 X113.897 Y76.015 E37.32965
G1 X112.872 Y76.015 E37.45323
G1 X104.701 Y84.185 E38.84615
G1 X103.676 Y84.185 E38.96973
G1 X111.847 Y76.015 E40.36264
G1 X110.821 Y76.015 E40.48622
G1 X102.651 Y84.185 E41.87914
G1 X102.065 Y84.185 E41.94980
G1 X102.065 Y83.746 E42.00272
G1 X109.796 Y76.015 E43.32080
G1 X108.771 Y76.015 E43.44438
G1 X102.065 Y82.721 E44.58769
G1 X102.065 Y81.696 E44.71127
G1 X107.746 Y76.015 E45.67982
G1 X106.721 Y76.015 E45.80340
G1 X102.065 Y80.671 E46.59719
G1 X102.065 Y79.646 E46.72076
G1 X105.696 Y76.015 E47.33979
G1 X104.671 Y76.015 E47.46336
G1 X102.065 Y78.621 E47.90762
G1 X102.065 Y77.596 E48.03120
G1 X103.646 Y76.015 E48.30070
G1 X102.620 Y76.015 E48.42427
G1 X102.065 Y76.570 E48.51897
G1 E46.51897 F2400.00000
G92 E0
G1 X174.772 Y103.322 F7800.000
G1 E2.00000 F2400.00000
G1 F1800
G1 X143.028 Y103.322 E5.77001
G1 X143.028 Y94.278 E6.84404
G1 X174.772 Y94.278 E10.61405
G1 X174.772 Y103.262 E11.68096
G1 X175.486 Y104.036 F7800.000
G1 F1800
G1 X142.314 Y104.036 E15.62060
G1 X142.314 Y93.564 E16.86427
G1 X175.486 Y93.564 E20.80391
G1 X175.486 Y103.976 E22.04046
G1 X176.200 Y104.750 F7800.000
G1 F1800
G1 X141.600 Y104.750 E26.14973
G1 X141.600 Y92.850 E27.56304
G1 X176.200 Y92.850 E31.67231
G1 X176.200 Y104.690 E33.07849
G1 X175.802 Y104.706 F7800.000
G1 E31.07849 F2400.00000
G92 E0
G1 X173.780 Y102.885 F7800.000
G1 E2.00000 F2400.00000
G1 F1800
G1 X174.335 Y102.330 E2.09472
G1 X174.335 Y101.305 E2.21830
G1 X172.755 Y102.885 E2.48779
G1 X171.729 Y102.885 E2.61136
G1 X174.335 Y100.279 E3.05562
G1 X174.335 Y99.254 E3.17919
G1 X170.704 Y102.885 E3.79821
G1 X169.679 Y102.885 E3.92179
G1 X174.335 Y98.229 E4.71557
G1 X174.335 Y97.204 E4.83914
G1 X168.654 Y102.885 E5.80769
G1 X167.629 Y102.885 E5.93127
G1 X174.335 Y96.179 E7.07457
G1 X174.335 Y95.154 E7.19815
G1 X166.604 Y102.885 E8.51623
G1 X165.579 Y102.885 E8.63980
G1 X173.749 Y94.715 E10.03272
G1 X172.724 Y94.715 E10.15630
G1 X164.553 Y102.885 E11.54922
G1 X163.528 Y102.885 E11.67279
G1 X171.699 Y94.715 E13.06571
G1 X170.674 Y94.715 E13.18929
G1 X162.503 Y102.885 E14.58221
G1 X161.478 Y102.885 E14.70579
G1 X169.649 Y94.715 E16.09871
G1 X168.624 Y94.715 E16.22228
G1 X160.453 Y102.885 E17.61520
G1 X159.428 Y102.885 E17.73878
G1 X167.598 Y94.715 E19.13170
G1 X166.573 Y94.715 E19.25528
G1 X158.403 Y102.885 E20.64820
G1 X157.378 Y102.885 E20.77177
G1 X165.548 Y94.715 E22.16469
G1 X164.523 Y94.715 E22.28827
G1 X156.352 Y102.885 E23.68119
G1 X155.327 Y102.885 E23.80477
G1 X163.498 Y94.715 E25.19768
G1 X162.473 Y94.715 E25.32126
G1 X154.302 Y102.885 E26.71418
G1 X153.277 Y102.885 E26.83776
G1 X161.448 Y94.715 E28.23068
G1 X160.422 Y94.715 E28.35425
G1 X152.252 Y102.885 E29.74717
G1 X151.227 Y102.885 E29.87075
G1 X159.397 Y94.715 E31.26367
G1 X158.372 Y94.715 E31.38725
G1 X150.202 Y102.885 E32.78017
G1 X149.177 Y102.885 E32.90374
G1 X157.347 Y94.715 E34.29666
G1 X156.322 Y94.715 E34.42024
G1 X148.151 Y102.885 E35.81316
G1 X147.126 Y102.885 E35.93673
G1 X155.297 Y94.715 E37.32965
G1 X154.272 Y94.715 E37.45323
G1 X146.101 Y102.885 E38.84615
G1 X145.076 Y102.885 E38.96973
G1 X153.247 Y94.715 E40.36264
G1 X152.221 Y94.715 E40.48622
G1 X144.051 Y102.885 E41.87914
G1 X143.465 Y102.885 E41.94980
G1 X143.465 Y102.446 E42.00272
G1 X151.196 Y94.715 E43.32080
G1 X150.171 Y94.715 E43.44438
G1 X143.465 Y101.421 E44.58769
