; generated by Slic3r 1.3.0 on 2021-07-02 at 17:38:34

; external perimeters extrusion width = 0.44mm (3.38mm^3/s)
; perimeters extrusion width = 0.48mm (7.54mm^3/s)
; infill extrusion width = 0.48mm (10.05mm^3/s)
; solid infill extrusion width = 0.48mm (2.51mm^3/s)
; top infill extrusion width = 0.48mm (1.88mm^3/s)

M107
M190 S65 ; set bed temperature and wait for it to be reached
M104 S205 ; set temperature
G28 ; home all axes
G1 Z5 F5000 ; lift nozzle

; Filament gcode

M109 S205 ; set temperature and wait for it to be reached
G21 ; set units to millimeters
G90 ; use absolute coordinates
M82 ; use absolute distances for extrusion
G92 E0
G1 Z0.400 F7800.000
G1 E-2.00000 F2400.00000
G92 E0
G1 X53.665 Y59.775 F7800.000
G1 E2.00000 F2400.00000
G1 F1800
G1 X94.590 Y2.975 E10.31449
G1 X96.242 Y1.362 E10.58872
G1 X98.343 Y0.403 E10.86294
G1 X100.038 Y0.186 E11.06590
G1 X134.963 Y0.186 E15.21377
G1 X137.237 Y0.583 E15.48800
G1 X139.243 Y1.727 E15.76222
G1 X140.410 Y2.975 E15.96518
G1 X181.335 Y59.775 E24.27967
G1 X182.343 Y61.853 E24.55389
G1 X182.602 Y63.700 E24.77545
G1 X182.602 Y158.600 E36.04626
G1 X182.205 Y160.875 E36.32049
G1 X181.335 Y162.525 E36.54205
G1 X140.410 Y219.325 E44.85654
G1 X138.758 Y220.938 E45.13076
G1 X137.689 Y221.535 E45.27617
G1 X109.114 Y234.235 E48.98997
G1 X106.388 Y234.814 E49.32104
G1 X100.038 Y234.814 E50.07520
G1 X97.763 Y234.417 E50.34942
G1 X95.757 Y233.273 E50.62365
G1 X94.590 Y232.025 E50.82660
G1 X53.665 Y175.225 E59.14109
G1 X52.658 Y173.147 E59.41532
G1 X52.398 Y171.300 E59.63688
G1 X52.398 Y63.700 E72.41601
G1 X52.795 Y61.425 E72.69023
G1 X53.637 Y59.828 E72.90466
G1 E70.90466 F2400.00000
G92 E0
G1 X104.559 Y11.422 F7800.000
G1 E2.00000 F2400.00000
G1 F1800
G1 X104.559 Y55.872 E7.27911
G1 X101.866 Y55.872 E7.59899
G1 X101.866 Y8.728 E13.19798
G1 X133.134 Y8.728 E16.91157
G1 X133.134 Y18.361 E18.05561
G1 X126.195 Y11.422 E19.22114
G1 X104.619 Y11.422 E21.78357
G1 X105.273 Y12.136 F7800.000
G1 F1800
G1 X105.273 Y56.586 E27.06268
G1 X101.152 Y56.586 E27.55220
G1 X101.152 Y8.014 E33.32082
G1 X133.848 Y8.014 E37.20405
G1 X133.848 Y20.085 E38.63766
G1 X125.899 Y12.136 E39.97283
G1 X105.333 Y12.136 E42.41531
G1 E40.41531 F2400.00000
G92 E0
G1 X129.851 Y21.428 F7800.000
G1 E2.00000 F2400.00000
G1 F1800
G1 X133.134 Y21.428 E2.38987
G1 X133.134 Y24.711 E2.77975
G1 X129.894 Y21.471 E3.32399
G1 X128.127 Y20.714 F7800.000
G1 F1800
G1 X133.848 Y20.714 E4.00345
G1 X133.848 Y26.435 E4.68291
G1 X128.170 Y20.757 E5.63668
G1 E3.63668 F2400.00000
G92 E0
G1 X129.851 Y27.778 F7800.000
G1 E2.00000 F2400.00000
G1 F1800
G1 X133.134 Y27.778 E2.38987
G1 X133.134 Y31.061 E2.77975
G1 X129.894 Y27.821 E3.32399
G1 X128.127 Y27.064 F7800.000
G1 F1800
G1 X133.848 Y27.064 E4.00345
G1 X133.848 Y32.785 E4.68290
G1 X128.170 Y27.107 E5.63668
G1 E3.63668 F2400.00000
G92 E0
G1 X129.851 Y34.128 F7800.000
G1 E2.00000 F2400.00000
G1 F1800
G1 X133.134 Y34.128 E2.38987
G1 X133.134 Y37.411 E2.77975
G1 X129.894 Y34.171 E3.32399
G1 X128.127 Y33.414 F7800.000
G1 F1800
G1 X133.848 Y33.414 E4.00345
G1 X133.848 Y39.135 E4.68290
G1 X128.170 Y33.457 E5.63668
G1 E3.63668 F2400.00000
G92 E0
G1 X129.851 Y40.478 F7800.000
G1 E2.00000 F2400.00000
G1 F1800
G1 X133.134 Y40.478 E2.38987
G1 X133.134 Y43.172 E2.70975
G1 X132.545 Y43.172 E2.77975
G1 X129.894 Y40.521 E3.22500
G1 X128.127 Y39.764 F7800.000
G1 F1800
G1 X133.848 Y39.764 E3.90446
G1 X133.848 Y43.886 E4.39397
G1 X132.249 Y43.886 E4.58392
G1 X128.170 Y39.807 E5.26906
G1 E3.26906 F2400.00000
G92 E0
G1 X132.753 Y39.050 F7800.000
G1 E2.00000 F2400.00000
G1 F1800
G1 X126.403 Y32.700 E3.06654
G1 X132.753 Y32.700 E3.82070
G1 X126.403 Y26.350 E4.88724
G1 X132.753 Y26.350 E5.64140
G1 X126.403 Y20.000 E6.70794
G1 X132.753 Y20.000 E7.46210
G1 X125.603 Y12.850 E8.66301
G1 X105.988 Y12.850 E10.99267
G1 X105.988 Y57.300 E16.27178
G1 X100.438 Y57.300 E16.93093
G1 X100.438 Y7.300 E22.86919
G1 X134.563 Y7.300 E26.92205
G1 X134.563 Y44.600 E31.35199
G1 X131.953 Y44.600 E31.66189
G1 X126.403 Y39.050 E32.59406
G1 X132.693 Y39.050 E33.34109
G1 X132.969 Y38.714 F7800.000
G1 E31.34109 F2400.00000
G92 E0
G1 X131.576 Y41.192 F7800.000
G1 E2.00000 F2400.00000
G1 F1800
G1 X132.420 Y41.192 E2.11861
G1 X132.420 Y42.037 E2.23721
G1 X131.618 Y41.235 E2.39652
G1 E0.39652 F2400.00000
G92 E0
G1 X131.576 Y34.842 F7800.000
G1 E2.00000 F2400.00000
G1 F1800
G1 X132.420 Y34.842 E2.11861
G1 X132.420 Y35.687 E2.23721
G1 X131.618 Y34.885 E2.39652
G1 E0.39652 F2400.00000
G92 E0
G1 X131.576 Y28.492 F7800.000
G1 E2.00000 F2400.00000
G1 F1800
G1 X132.420 Y28.492 E2.11861
G1 X132.420 Y29.337 E2.23721
G1 X131.618 Y28.535 E2.39652
G1 E0.39652 F2400.00000
G92 E0
G1 X131.576 Y22.142 F7800.000
G1 E2.00000 F2400.00000
G1 F1800
G1 X132.420 Y22.142 E2.11861
G1 X132.420 Y22.987 E2.23721
G1 X131.618 Y22.185 E2.39652
G1 E0.39652 F2400.00000
G92 E0
G1 X128.740 Y10.898 F7800.000
G1 E2.00000 F2400.00000
G1 F1800
G1 X130.964 Y10.898 E2.26927
G1 X130.964 Y13.123 E2.53854
G1 X128.782 Y10.940 E2.91209
G1 X126.983 Y10.170 F7800.000
G1 F1800
G1 X131.692 Y10.170 E3.48211
G1 X131.692 Y14.880 E4.05214
G1 X127.025 Y10.213 E4.85102
G1 X126.491 Y10.708 F7800.000
G1 F1800
G1 X103.845 Y10.708 E7.59192
G1 X103.845 Y55.158 E12.97192
G1 X102.580 Y55.158 E13.12504
G1 X102.580 Y9.442 E18.65816
G1 X132.420 Y9.442 E22.26985
G1 X132.420 Y16.637 E23.14063
G1 X126.533 Y10.750 E24.14830
G1 E22.14830 F2400.00000
G92 E0
G1 X104.559 Y68.222 F7800.000
G1 E2.00000 F2400.00000
G1 F1800
G1 X104.559 Y112.672 E7.27911
G1 X101.866 Y112.672 E7.59899
G1 X101.866 Y65.528 E13.19798
G1 X133.134 Y65.528 E16.91157
G1 X133.134 Y75.161 E18.05561
G1 X126.195 Y68.222 E19.22114
G1 X104.619 Y68.222 E21.78357
G1 X105.273 Y68.936 F7800.000
G1 F1800
G1 X105.273 Y113.386 E27.06268
G1 X101.152 Y113.386 E27.55220
G1 X101.152 Y64.814 E33.32082
G1 X133.848 Y64.814 E37.20405
G1 X133.848 Y76.885 E38.63766
G1 X125.899 Y68.936 E39.97283
G1 X105.333 Y68.936 E42.41531
G1 E40.41531 F2400.00000
G92 E0
G1 X129.851 Y78.228 F7800.000
G1 E2.00000 F2400.00000
G1 F1800
G1 X133.134 Y78.228 E2.38987
G1 X133.134 Y81.511 E2.77975
G1 X129.894 Y78.271 E3.32399
G1 X128.127 Y77.514 F7800.000
G1 F1800
G1 X133.848 Y77.514 E4.00345
G1 X133.848 Y83.235 E4.68291
G1 X128.170 Y77.557 E5.63668
G1 E3.63668 F2400.00000
G92 E0
G1 X129.851 Y84.578 F7800.000
G1 E2.00000 F2400.00000
G1 F1800
G1 X133.134 Y84.578 E2.38987
G1 X133.134 Y87.861 E2.77975
G1 X129.894 Y84.621 E3.32399
G1 X128.127 Y83.864 F7800.000
G1 F1800
G1 X133.848 Y83.864 E4.00345
G1 X133.848 Y89.585 E4.68290
G1 X128.170 Y83.907 E5.63668
G1 E3.63668 F2400.00000
G92 E0
G1 X129.851 Y90.928 F7800.000
G1 E2.00000 F2400.00000
G1 F1800
G1 X133.134 Y90.928 E2.38987
G1 X133.134 Y94.211 E2.77975
G1 X129.894 Y90.971 E3.32399
G1 X128.127 Y90.214 F7800.000
G1 F1800
G1 X133.848 Y90.214 E4.00345
G1 X133.848 Y95.935 E4.68290
G1 X128.170 Y90.257 E5.63668
G1 E3.63668 F2400.00000
G92 E0
G1 X129.851 Y97.278 F7800.000
G1 E2.00000 F2400.00000
G1 F1800
G1 X133.134 Y97.278 E2.38987
G1 X133.134 Y99.972 E2.70975
G1 X132.545 Y99.972 E2.77975
G1 X129.894 Y97.321 E3.22500
G1 X128.127 Y96.564 F7800.000
G1 F1800
G1 X133.848 Y96.564 E3.90446
G1 X133.848 Y100.686 E4.39397
G1 X132.249 Y100.686 E4.58392
G1 X128.170 Y96.607 E5.26906
G1 E3.26906 F2400.00000
G92 E0
G1 X132.753 Y95.850 F7800.000
G1 E2.00000 F2400.00000
G1 F1800
G1 X126.403 Y89.500 E3.06654
G1 X132.753 Y89.500 E3.82070
G1 X126.403 Y83.150 E4.88724
G1 X132.753 Y83.150 E5.64140
G1 X126.403 Y76.800 E6.70794
G1 X132.753 Y76.800 E7.46210
G1 X125.603 Y69.650 E8.66301
G1 X105.988 Y69.650 E10.99267
G1 X105.988 Y114.100 E16.27178
G1 X100.438 Y114.100 E16.93093
G1 X100.438 Y64.100 E22.86919
G1 X134.563 Y64.100 E26.92205
G1 X134.563 Y101.400 E31.35199
G1 X131.953 Y101.400 E31.66189
G1 X126.403 Y95.850 E32.59406
G1 X132.693 Y95.850 E33.34109
G1 X132.969 Y95.514 F7800.000
G1 E31.34109 F2400.00000
G92 E0
G1 X131.576 Y97.992 F7800.000
G1 E2.00000 F2400.00000
G1 F1800
G1 X132.420 Y97.992 E2.11861
G1 X132.420 Y98.837 E2.23721
G1 X131.618 Y98.035 E2.39652
G1 E0.39652 F2400.00000
G92 E0
G1 X131.576 Y91.642 F7800.000
G1 E2.00000 F2400.00000
G1 F1800
G1 X132.420 Y91.642 E2.11861
G1 X132.420 Y92.487 E2.23721
G1 X131.618 Y91.685 E2.39652
G1 E0.39652 F2400.00000
G92 E0
G1 X131.576 Y85.292 F7800.000
G1 E2.00000 F2400.00000
G1 F1800
G1 X132.420 Y85.292 E2.11861
G1 X132.420 Y86.137 E2.23721
G1 X131.618 Y85.335 E2.39652
G1 E0.39652 F2400.00000
G92 E0
G1 X131.576 Y78.942 F7800.000
G1 E2.00000 F2400.00000
G1 F1800
G1 X132.420 Y78.942 E2.11861
G1 X132.420 Y79.787 E2.23721
G1 X131.618 Y78.985 E2.39652
G1 E0.39652 F2400.00000
G92 E0
G1 X128.740 Y67.698 F7800.000
G1 E2.00000 F2400.00000
G1 F1800
G1 X130.964 Y67.698 E2.26927
G1 X130.964 Y69.923 E2.53854
G1 X128.782 Y67.740 E2.91209
G1 X126.983 Y66.970 F7800.000
G1 F1800
G1 X131.692 Y66.970 E3.48211
G1 X131.692 Y71.680 E4.05214
G1 X127.025 Y67.013 E4.85102
G1 X126.491 Y67.508 F7800.000
G1 F1800
G1 X103.845 Y67.508 E7.59192
G1 X103.845 Y111.958 E12.97192
G1 X102.580 Y111.958 E13.12504
G1 X102.580 Y66.242 E18.65816
G1 X132.420 Y66.242 E22.26985
G1 X132.420 Y73.437 E23.14063
G1 X126.533 Y67.550 E24.14830
G1 E22.14830 F2400.00000
G92 E0
G1 X145.484 Y68.222 F7800.000
G1 E2.00000 F2400.00000
G1 F1800
G1 X145.484 Y112.672 E7.27911
G1 X142.791 Y112.672 E7.59899
G1 X142.791 Y65.528 E13.19798
G1 X174.059 Y65.528 E16.91157
G1 X174.059 Y75.161 E18.05561
G1 X167.120 Y68.222 E19.22114
G1 X145.544 Y68.222 E21.78357
G1 X146.198 Y68.936 F7800.000
G1 F1800
G1 X146.198 Y113.386 E27.06268
G1 X142.077 Y113.386 E27.55220
G1 X142.077 Y64.814 E33.32082
G1 X174.773 Y64.814 E37.20405
G1 X174.773 Y76.885 E38.63766
G1 X166.824 Y68.936 E39.97283
G1 X146.258 Y68.936 E42.41531
G1 E40.41531 F2400.00000
G92 E0
G1 X170.776 Y78.228 F7800.000
G1 E2.00000 F2400.00000
G1 F1800
G1 X174.059 Y78.228 E2.38987
G1 X174.059 Y81.511 E2.77975
G1 X170.819 Y78.271 E3.32399
G1 X169.052 Y77.514 F7800.000
G1 F1800
G1 X174.773 Y77.514 E4.00345
G1 X174.773 Y83.235 E4.68291
G1 X169.095 Y77.557 E5.63668
G1 E3.63668 F2400.00000
G92 E0
G1 X170.776 Y84.578 F7800.000
G1 E2.00000 F2400.00000
G1 F1800
G1 X174.059 Y84.578 E2.38987
G1 X174.059 Y87.861 E2.77975
G1 X170.819 Y84.621 E3.32399
G1 X169.052 Y83.864 F7800.000
G1 F1800
G1 X174.773 Y83.864 E4.00345
G1 X174.773 Y89.585 E4.68290
G1 X169.095 Y83.907 E5.63668
G1 E3.63668 F2400.00000
G92 E0
G1 X170.776 Y90.928 F7800.000
G1 E2.00000 F2400.00000
G1 F1800
G1 X174.059 Y90.928 E2.38987
G1 X174.059 Y94.211 E2.77975
G1 X170.819 Y90.971 E3.32399
G1 X169.052 Y90.214 F7800.000
G1 F1800
G1 X174.773 Y90.214 E4.00345
G1 X174.773 Y95.935 E4.68290
G1 X169.095 Y90.257 E5.63668
G1 E3.63668 F2400.00000
G92 E0
G1 X170.776 Y97.278 F7800.000
G1 E2.00000 F2400.00000
G1 F1800
G1 X174.059 Y97.278 E2.38987
G1 X174.059 Y99.972 E2.70975
G1 X173.470 Y99.972 E2.77975
G1 X170.819 Y97.321 E3.22500
G1 X169.052 Y96.564 F7800.000
G1 F1800
G1 X174.773 Y96.564 E3.90446
G1 X174.773 Y100.686 E4.39397
G1 X173.174 Y100.686 E4.58392
G1 X169.095 Y96.607 E5.26906
G1 E3.26906 F2400.00000
G92 E0
G1 X173.678 Y95.850 F7800.000
G1 E2.00000 F2400.00000
G1 F1800
G1 X167.328 Y89.500 E3.06654
G1 X173.678 Y89.500 E3.82070
G1 X167.328 Y83.150 E4.88724
G1 X173.678 Y83.150 E5.64140
G1 X167.328 Y76.800 E6.70794
G1 X173.678 Y76.800 E7.46210
G1 X166.528 Y69.650 E8.66301
G1 X146.912 Y69.650 E10.99267
G1 X146.912 Y114.100 E16.27178
G1 X141.363 Y114.100 E16.93093
G1 X141.363 Y64.100 E22.86919
G1 X175.488 Y64.100 E26.92205
G1 X175.488 Y101.400 E31.35199
G1 X172.878 Y101.400 E31.66189
G1 X167.328 Y95.850 E32.59406
G1 X173.618 Y95.850 E33.34109
G1 X173.894 Y95.514 F7800.000
G1 E31.34109 F2400.00000
G92 E0
G1 X172.501 Y97.992 F7800.000
G1 E2.00000 F2400.00000
G1 F1800
G1 X173.345 Y97.992 E2.11861
G1 X173.345 Y98.837 E2.23721
G1 X172.543 Y98.035 E2.39652
G1 E0.39652 F2400.00000
G92 E0
G1 X172.501 Y91.642 F7800.000
G1 E2.00000 F2400.00000
G1 F1800
G1 X173.345 Y91.642 E2.11861
G1 X173.345 Y92.487 E2.23721
G1 X172.543 Y91.685 E2.39652
G1 E0.39652 F2400.00000
G92 E0
G1 X172.501 Y85.292 F7800.000
G1 E2.00000 F2400.00000
G1 F1800
G1 X173.345 Y85.292 E2.11861
G1 X173.345 Y86.137 E2.23721
G1 X172.543 Y85.335 E2.39652
G1 E0.39652 F2400.00000
G92 E0
G1 X172.501 Y78.942 F7800.000
G1 E2.00000 F2400.00000
G1 F1800
G1 X173.345 Y78.942 E2.11861
G1 X173.345 Y79.787 E2.23721
G1 X172.543 Y78.985 E2.39652
G1 E0.39652 F2400.00000
G92 E0
G1 X169.665 Y67.698 F7800.000
G1 E2.00000 F2400.00000
G1 F1800
G1 X171.889 Y67.698 E2.26927
G1 X171.889 Y69.923 E2.53854
G1 X169.707 Y67.740 E2.91209
G1 X167.908 Y66.970 F7800.000
G1 F1800
G1 X172.617 Y66.970 E3.48211
G1 X172.617 Y71.680 E4.05214
G1 X167.950 Y67.013 E4.85102
G1 X167.416 Y67.508 F7800.000
G1 F1800
G1 X144.770 Y67.508 E7.59192
G1 X144.770 Y111.958 E12.97192
G1 X143.505 Y111.958 E13.12504
G1 X143.505 Y66.242 E18.65816
G1 X173.345 Y66.242 E22.26985
G1 X173.345 Y73.437 E23.14063
G1 X167.458 Y67.550 E24.14830
G1 E22.14830 F2400.00000
G92 E0
G1 X145.484 Y125.022 F7800.000
G1 E2.00000 F2400.00000
G1 F1800
G1 X145.484 Y169.472 E7.27911
G1 X142.791 Y169.472 E7.59899
G1 X142.791 Y122.328 E13.19798
G1 X174.059 Y122.328 E16.91157
G1 X174.059 Y131.961 E18.05561
G1 X167.120 Y125.022 E19.22114
G1 X145.544 Y125.022 E21.78357
G1 X146.198 Y125.736 F7800.000
G1 F1800
G1 X146.198 Y170.186 E27.06268
G1 X142.077 Y170.186 E27.55220
G1 X142.077 Y121.614 E33.32082
G1 X174.773 Y121.614 E37.20405
G1 X174.773 Y133.685 E38.63766
G1 X166.824 Y125.736 E39.97283
G1 X146.258 Y125.736 E42.41531
G1 E40.41531 F2400.00000
G92 E0
G1 X170.776 Y135.028 F7800.000
G1 E2.00000 F2400.00000
G1 F1800
G1 X174.059 Y135.028 E2.38987
G1 X174.059 Y138.311 E2.77975
G1 X170.819 Y135.071 E3.32399
G1 X169.052 Y134.314 F7800.000
G1 F1800
G1 X174.773 Y134.314 E4.00345
G1 X174.773 Y140.035 E4.68291
G1 X169.095 Y134.357 E5.63668
G1 E3.63668 F2400.00000
G92 E0
G1 X170.776 Y141.378 F7800.000
G1 E2.00000 F2400.00000
G1 F1800
G1 X174.059 Y141.378 E2.38987
G1 X174.059 Y144.661 E2.77975
G1 X170.819 Y141.421 E3.32399
G1 X169.052 Y140.664 F7800.000
G1 F1800
G1 X174.773 Y140.664 E4.00345
G1 X174.773 Y146.385 E4.68290
G1 X169.095 Y140.707 E5.63668
G1 E3.63668 F2400.00000
G92 E0
G1 X170.776 Y147.728 F7800.000
G1 E2.00000 F2400.00000
G1 F1800
G1 X174.059 Y147.728 E2.38987
G1 X174.059 Y151.011 E2.77975
G1 X170.819 Y147.771 E3.32399
G1 X169.052 Y147.014 F7800.000
G1 F1800
G1 X174.773 Y147.014 E4.00345
G1 X174.773 Y152.735 E4.68290
G1 X169.095 Y147.057 E5.63668
G1 E3.63668 F2400.00000
G92 E0
G1 X170.776 Y154.078 F7800.000
G1 E2.00000 F2400.00000
G1 F1800
G1 X174.059 Y154.078 E2.38987
G1 X174.059 Y156.772 E2.70975
G1 X173.470 Y156.772 E2.77975
G1 X170.819 Y154.121 E3.22500
G1 X169.052 Y153.364 F7800.000
G1 F1800
G1 X174.773 Y153.364 E3.90446
G1 X174.773 Y157.486 E4.39397
G1 X173.174 Y157.486 E4.58392
G1 X169.095 Y153.407 E5.26906
G1 E3.26906 F2400.00000
G92 E0
G1 X173.678 Y152.650 F7800.000
G1 E2.00000 F2400.00000
G1 F1800
G1 X167.328 Y146.300 E3.06654
G1 X173.678 Y146.300 E3.82070
G1 X167.328 Y139.950 E4.88724
G1 X173.678 Y139.950 E5.64140
G1 X167.328 Y133.600 E6.70794
G1 X173.678 Y133.600 E7.46210
G1 X166.528 Y126.450 E8.66301
G1 X146.912 Y126.450 E10.99267
G1 X146.912 Y170.900 E16.27178
G1 X141.363 Y170.900 E16.93093
G1 X141.363 Y120.900 E22.86919
G1 X175.488 Y120.900 E26.92205
G1 X175.488 Y158.200 E31.35199
G1 X172.878 Y158.200 E31.66189
G1 X167.328 Y152.650 E32.59406
G1 X173.618 Y152.650 E33.34109
G1 X173.894 Y152.314 F7800.000
G1 E31.34109 F2400.00000
G92 E0
G1 X172.501 Y154.792 F7800.000
G1 E2.00000 F2400.00000
G1 F1800
G1 X173.345 Y154.792 E2.11861
G1 X173.345 Y155.637 E2.23721
G1 X172.543 Y154.835 E2.39652
G1 E0.39652 F2400.00000
G92 E0
G1 X172.501 Y148.442 F7800.000
G1 E2.00000 F2400.00000
G1 F1800
G1 X173.345 Y148.442 E2.11861
G1 X173.345 Y149.287 E2.23721
G1 X172.543 Y148.485 E2.39652
G1 E0.39652 F2400.00000
G92 E0
G1 X172.501 Y142.092 F7800.000
G1 E2.00000 F2400.00000
G1 F1800
G1 X173.345 Y142.092 E2.11861
G1 X173.345 Y142.937 E2.23721
G1 X172.543 Y142.135 E2.39652
G1 E0.39652 F2400.00000
G92 E0
G1 X172.501 Y135.742 F7800.000
G1 E2.00000 F2400.00000
G1 F1800
G1 X173.345 Y135.742 E2.11861
