; generated by Slic3r 1.3.0 on 2021-09-22 at 23:30:01

; Printer Config Notes: 
; ; M412 S0 ; disable filament sensor
; 
; external perimeters extrusion width = 0.44mm (4.23mm^3/s)
; perimeters extrusion width = 0.48mm (9.42mm^3/s)
; infill extrusion width = 0.48mm (10.05mm^3/s)
; solid infill extrusion width = 0.48mm (5.03mm^3/s)
; top infill extrusion width = 0.48mm (1.88mm^3/s)
; support material extrusion width = 0.44mm (6.76mm^3/s)

M107
M190 S65 ; set bed temperature and wait for it to be reached
M104 S205 ; set temperature
G28 ; home all axes
G1 Z5 F5000 ; lift nozzle

; Filament gcode

M109 S205 ; set temperature and wait for it to be reached
G21 ; set units to millimeters
G90 ; use absolute coordinates
M82 ; use absolute distances for extrusion
G92 E0
G1 Z0.400 F7800.000
G1 E-2.00000 F2400.00000
G92 E0
G1 X26.961 Y22.039 F7800.000
G1 E2.00000 F2400.00000
G1 F3600
G1 X29.446 Y19.781 E2.39877
G1 X32.392 Y18.171 E2.79755
G1 X35.636 Y17.302 E3.19632
G1 X37.650 Y17.158 E3.43618
G1 X177.350 Y17.158 E20.02767
G1 X180.684 Y17.556 E20.42645
G1 X183.830 Y18.729 E20.82522
G1 X186.611 Y20.611 E21.22400
G1 X188.869 Y23.096 E21.62277
G1 X190.479 Y26.042 E22.02155
G1 X191.348 Y29.286 E22.42032
G1 X191.492 Y31.300 E22.66018
G1 X191.492 Y183.700 E40.75999
G1 X191.094 Y187.034 E41.15876
G1 X189.921 Y190.180 E41.55754
G1 X188.039 Y192.961 E41.95631
G1 X185.554 Y195.219 E42.35509
G1 X182.608 Y196.829 E42.75386
G1 X179.364 Y197.698 E43.15264
G1 X177.350 Y197.842 E43.39249
G1 X37.650 Y197.842 E59.98399
G1 X34.316 Y197.444 E60.38276
G1 X31.170 Y196.271 E60.78154
G1 X28.389 Y194.389 E61.18031
G1 X26.131 Y191.904 E61.57909
G1 X24.521 Y188.958 E61.97786
G1 X23.652 Y185.714 E62.37664
G1 X23.508 Y183.700 E62.61649
G1 X23.508 Y31.300 E80.71630
G1 X23.906 Y27.966 E81.11508
G1 X25.079 Y24.820 E81.51385
G1 X26.928 Y22.089 E81.90550
G1 X27.668 Y22.318 F7800.000
G1 F3600
G1 X30.136 Y20.171 E82.29404
G1 X33.050 Y18.684 E82.68258
G1 X37.650 Y17.872 E83.23734
G1 X177.350 Y17.872 E99.82884
G1 X180.597 Y18.270 E100.21738
G1 X183.652 Y19.442 E100.60592
G1 X186.332 Y21.318 E100.99446
G1 X188.479 Y23.786 E101.38300
G1 X189.966 Y26.700 E101.77154
G1 X190.778 Y31.300 E102.32630
G1 X190.778 Y183.700 E120.42611
G1 X190.380 Y186.947 E120.81465
G1 X189.208 Y190.002 E121.20319
G1 X187.332 Y192.682 E121.59173
G1 X184.864 Y194.829 E121.98027
G1 X181.950 Y196.316 E122.36881
G1 X177.350 Y197.128 E122.92357
G1 X37.650 Y197.128 E139.51507
G1 X34.403 Y196.730 E139.90361
G1 X31.348 Y195.558 E140.29215
G1 X28.668 Y193.682 E140.68068
G1 X26.521 Y191.214 E141.06922
G1 X25.034 Y188.300 E141.45776
G1 X24.222 Y183.700 E142.01253
G1 X24.222 Y31.300 E160.11234
G1 X24.620 Y28.053 E160.50088
G1 X25.792 Y24.998 E160.88942
G1 X27.633 Y22.367 E161.27083
G1 X28.373 Y22.605 F7800.000
G1 F3600
G1 X30.824 Y20.574 E161.64886
G1 X33.702 Y19.214 E162.02688
G1 X37.650 Y18.586 E162.50170
G1 X177.350 Y18.586 E179.09320
G1 X180.508 Y18.984 E179.47123
G1 X183.468 Y20.155 E179.84925
G1 X186.045 Y22.023 E180.22728
G1 X188.076 Y24.474 E180.60530
G1 X189.436 Y27.352 E180.98333
G1 X190.064 Y31.300 E181.45815
G1 X190.064 Y183.700 E199.55796
G1 X189.666 Y186.858 E199.93599
G1 X188.495 Y189.818 E200.31402
G1 X186.627 Y192.395 E200.69204
G1 X184.176 Y194.426 E201.07007
G1 X181.298 Y195.786 E201.44810
G1 X177.350 Y196.414 E201.92292
G1 X37.650 Y196.414 E218.51441
G1 X34.492 Y196.016 E218.89244
G1 X31.532 Y194.845 E219.27046
G1 X28.955 Y192.977 E219.64849
G1 X26.924 Y190.526 E220.02652
G1 X25.564 Y187.648 E220.40454
G1 X24.936 Y183.700 E220.87936
G1 X24.936 Y31.300 E238.97918
G1 X25.334 Y28.142 E239.35720
G1 X26.505 Y25.182 E239.73523
G1 X28.338 Y22.654 E240.10613
G1 E238.10613 F2400.00000
G92 E0
G1 X172.828 Y173.096 F7800.000
G1 E2.00000 F2400.00000
G1 F3600
G1 X175.522 Y173.096 E2.31988
G1 X175.522 Y181.872 E3.36216
G1 X172.828 Y181.872 E3.68204
G1 X172.828 Y173.156 E4.71720
G1 X172.114 Y172.382 F7800.000
G1 F3600
G1 X176.236 Y172.382 E5.20671
G1 X176.236 Y182.586 E6.41862
G1 X172.114 Y182.586 E6.90814
G1 X172.114 Y172.442 E8.11293
G1 X171.400 Y171.667 F7800.000
G1 F3600
G1 X176.950 Y171.667 E8.77207
G1 X176.950 Y183.300 E10.15363
G1 X171.400 Y183.300 E10.81277
G1 X171.400 Y171.727 E12.18720
G1 X171.772 Y171.814 F7800.000
G1 E10.18720 F2400.00000
G92 E0
G1 X175.200 Y173.917 F7800.000
G1 E2.00000 F2400.00000
G1 F3600
G1 X173.917 Y173.917 E2.15244
G1 X173.917 Y181.550 E3.05904
G1 X174.631 Y181.550 F7800.000
G1 F3600
G1 X174.631 Y174.631 E3.88082
G1 X175.200 Y174.631 E3.94845
G1 E1.94845 F2400.00000
G92 E0
G1 X44.986 Y173.096 F7800.000
G1 E2.00000 F2400.00000
G1 F3600
G1 X143.772 Y173.096 E13.73225
G1 X143.772 Y181.872 E14.77453
G1 X39.478 Y181.872 E27.16095
G1 X39.478 Y33.128 E44.82649
G1 X143.772 Y33.128 E57.21291
G1 X143.772 Y40.248 E58.05849
G1 X44.986 Y40.248 E69.79074
G1 X44.986 Y173.036 E85.56128
G1 X45.701 Y172.382 F7800.000
G1 F3600
G1 X144.486 Y172.382 E97.29353
G1 X144.486 Y182.586 E98.50545
G1 X38.764 Y182.586 E111.06150
G1 X38.764 Y32.414 E128.89667
G1 X144.486 Y32.414 E141.45272
G1 X144.486 Y40.962 E142.46794
G1 X45.701 Y40.962 E154.20019
G1 X45.701 Y172.322 E169.80109
G1 X46.415 Y171.667 F7800.000
G1 F3600
G1 X145.200 Y171.667 E181.53335
G1 X145.200 Y183.300 E182.91490
G1 X38.050 Y183.300 E195.64059
G1 X38.050 Y31.700 E213.64539
G1 X145.200 Y31.700 E226.37108
G1 X145.200 Y41.676 E227.55593
G1 X46.415 Y41.676 E239.28818
G1 X46.415 Y171.607 E254.71945
G1 X46.329 Y172.058 F7800.000
G1 X46.082 Y173.417 F7800.000
G1 F3600
G1 X46.082 Y181.550 E255.68540
G1 X45.368 Y181.550 F7800.000
G1 F3600
G1 X45.368 Y173.417 E256.65135
G1 X44.654 Y173.417 F7800.000
G1 F3600
G1 X44.654 Y181.550 E257.61731
G1 X43.940 Y181.550 F7800.000
G1 F3600
G1 X43.940 Y171.060 E258.86318
G1 X39.800 Y171.060 E259.35488
G1 X39.800 Y171.774 F7800.000
G1 F3600
G1 X43.226 Y171.774 E259.76178
G1 X43.226 Y181.550 E260.92283
G1 X42.512 Y181.550 F7800.000
G1 F3600
G1 X42.512 Y172.488 E261.99906
G1 X39.800 Y172.488 E262.32114
G1 X39.800 Y173.203 F7800.000
G1 F3600
G1 X41.797 Y173.203 E262.55839
G1 X41.797 Y181.550 E263.54981
G1 X41.083 Y181.550 F7800.000
G1 F3600
G1 X41.083 Y173.917 E264.45641
G1 X39.800 Y173.917 E264.60885
G1 X39.800 Y174.631 F7800.000
G1 F3600
G1 X40.369 Y174.631 E264.67647
G1 X40.369 Y181.550 E265.49825
G1 E263.49825 F2400.00000
G92 E0
G1 X46.796 Y181.550 F7800.000
G1 E2.00000 F2400.00000
G1 F3600
G1 X46.796 Y173.417 E2.96595
G1 X47.511 Y173.417 F7800.000
G1 F3600
G1 X47.511 Y181.550 E3.93191
G1 X48.225 Y181.550 F7800.000
G1 F3600
G1 X48.225 Y173.417 E4.89786
G1 X48.939 Y173.417 F7800.000
G1 F3600
G1 X48.939 Y181.550 E5.86381
G1 X49.653 Y181.550 F7800.000
G1 F3600
G1 X49.653 Y173.417 E6.82977
G1 X50.367 Y173.417 F7800.000
G1 F3600
G1 X50.367 Y181.550 E7.79572
G1 X51.081 Y181.550 F7800.000
G1 F3600
G1 X51.081 Y173.417 E8.76167
G1 X51.796 Y173.417 F7800.000
G1 F3600
G1 X51.796 Y181.550 E9.72762
G1 X52.510 Y181.550 F7800.000
G1 F3600
G1 X52.510 Y173.417 E10.69358
G1 X53.224 Y173.417 F7800.000
G1 F3600
G1 X53.224 Y181.550 E11.65953
G1 X53.938 Y181.550 F7800.000
G1 F3600
G1 X53.938 Y173.417 E12.62548
G1 X54.652 Y173.417 F7800.000
G1 F3600
G1 X54.652 Y181.550 E13.59144
G1 X55.366 Y181.550 F7800.000
G1 F3600
G1 X55.366 Y173.417 E14.55739
G1 X56.081 Y173.417 F7800.000
G1 F3600
G1 X56.081 Y181.550 E15.52334
G1 X56.795 Y181.550 F7800.000
G1 F3600
G1 X56.795 Y173.417 E16.48930
G1 X57.509 Y173.417 F7800.000
G1 F3600
G1 X57.509 Y181.550 E17.45525
G1 X58.223 Y181.550 F7800.000
G1 F3600
G1 X58.223 Y173.417 E18.42120
G1 X58.937 Y173.417 F7800.000
G1 F3600
G1 X58.937 Y181.550 E19.38715
G1 X59.651 Y181.550 F7800.000
G1 F3600
G1 X59.651 Y173.417 E20.35311
G1 X60.366 Y173.417 F7800.000
G1 F3600
G1 X60.366 Y181.550 E21.31906
G1 X61.080 Y181.550 F7800.000
G1 F3600
G1 X61.080 Y173.417 E22.28501
G1 X61.794 Y173.417 F7800.000
G1 F3600
G1 X61.794 Y181.550 E23.25097
G1 X62.508 Y181.550 F7800.000
G1 F3600
G1 X62.508 Y173.417 E24.21692
G1 X63.222 Y173.417 F7800.000
G1 F3600
G1 X63.222 Y181.550 E25.18287
G1 X63.936 Y181.550 F7800.000
G1 F3600
G1 X63.936 Y173.417 E26.14883
G1 X64.650 Y173.417 F7800.000
G1 F3600
G1 X64.650 Y181.550 E27.11478
G1 X65.365 Y181.550 F7800.000
G1 F3600
G1 X65.365 Y173.417 E28.08073
G1 X66.079 Y173.417 F7800.000
G1 F3600
G1 X66.079 Y181.550 E29.04669
G1 X66.793 Y181.550 F7800.000
G1 F3600
G1 X66.793 Y173.417 E30.01264
G1 X67.507 Y173.417 F7800.000
G1 F3600
G1 X67.507 Y181.550 E30.97859
G1 X68.221 Y181.550 F7800.000
G1 F3600
G1 X68.221 Y173.417 E31.94454
G1 X68.935 Y173.417 F7800.000
G1 F3600
G1 X68.935 Y181.550 E32.91050
G1 X69.650 Y181.550 F7800.000
G1 F3600
G1 X69.650 Y173.417 E33.87645
G1 X70.364 Y173.417 F7800.000
G1 F3600
G1 X70.364 Y181.550 E34.84240
G1 X71.078 Y181.550 F7800.000
G1 F3600
G1 X71.078 Y173.417 E35.80836
G1 X71.792 Y173.417 F7800.000
G1 F3600
G1 X71.792 Y181.550 E36.77431
G1 X72.506 Y181.550 F7800.000
G1 F3600
G1 X72.506 Y173.417 E37.74026
G1 X73.220 Y173.417 F7800.000
G1 F3600
G1 X73.220 Y181.550 E38.70622
G1 X73.935 Y181.550 F7800.000
G1 F3600
G1 X73.935 Y173.417 E39.67217
G1 X74.649 Y173.417 F7800.000
G1 F3600
G1 X74.649 Y181.550 E40.63812
G1 X75.363 Y181.550 F7800.000
G1 F3600
G1 X75.363 Y173.417 E41.60407
G1 X76.077 Y173.417 F7800.000
G1 F3600
G1 X76.077 Y181.550 E42.57003
G1 X76.994 Y181.435 F7800.000
G1 F3600
G1 X84.897 Y173.532 E43.89745
G1 X83.887 Y173.532 F7800.000
G1 F3600
G1 X76.791 Y180.628 E45.08923
G1 X76.791 Y173.417 E45.94560
G1 X77.505 Y173.417 F7800.000
G1 F3600
G1 X77.505 Y178.904 E46.59721
G1 X82.877 Y173.532 E47.49941
G1 X81.867 Y173.532 F7800.000
G1 F3600
G1 X78.219 Y177.179 E48.11202
G1 X78.219 Y173.417 E48.55886
G1 X78.934 Y173.417 F7800.000
G1 F3600
G1 X78.934 Y175.455 E48.80094
G1 X80.857 Y173.532 E49.12397
G1 E47.12397 F2400.00000
G92 E0
G1 X85.907 Y173.532 F7800.000
G1 E2.00000 F2400.00000
G1 F3600
G1 X78.004 Y181.435 E3.32742
G1 X79.014 Y181.435 F7800.000
G1 F3600
G1 X86.917 Y173.532 E4.65484
G1 X87.927 Y173.532 F7800.000
G1 F3600
G1 X80.023 Y181.435 E5.98225
G1 X81.033 Y181.435 F7800.000
G1 F3600
G1 X88.937 Y173.532 E7.30967
G1 X89.947 Y173.532 F7800.000
G1 F3600
G1 X82.043 Y181.435 E8.63709
G1 X83.053 Y181.435 F7800.000
G1 F3600
G1 X90.957 Y173.532 E9.96451
G1 X91.967 Y173.532 F7800.000
G1 F3600
G1 X84.063 Y181.435 E11.29193
G1 X85.073 Y181.435 F7800.000
G1 F3600
G1 X92.977 Y173.532 E12.61935
G1 X93.987 Y173.532 F7800.000
G1 F3600
G1 X86.083 Y181.435 E13.94676
G1 X87.093 Y181.435 F7800.000
G1 F3600
G1 X94.997 Y173.532 E15.27418
G1 X96.006 Y173.532 F7800.000
G1 F3600
G1 X88.103 Y181.435 E16.60160
G1 X89.113 Y181.435 F7800.000
G1 F3600
G1 X97.016 Y173.532 E17.92902
G1 X98.026 Y173.532 F7800.000
G1 F3600
G1 X90.123 Y181.435 E19.25644
G1 X91.133 Y181.435 F7800.000
G1 F3600
G1 X99.036 Y173.532 E20.58386
G1 X100.046 Y173.532 F7800.000
G1 F3600
G1 X92.143 Y181.435 E21.91128
G1 X93.153 Y181.435 F7800.000
G1 F3600
G1 X101.056 Y173.532 E23.23869
G1 X102.066 Y173.532 F7800.000
G1 F3600
G1 X94.163 Y181.435 E24.56611
G1 X95.173 Y181.435 F7800.000
G1 F3600
G1 X103.076 Y173.532 E25.89353
G1 X104.086 Y173.532 F7800.000
G1 F3600
G1 X96.183 Y181.435 E27.22095
G1 X97.193 Y181.435 F7800.000
G1 F3600
G1 X105.096 Y173.532 E28.54837
G1 X106.106 Y173.532 F7800.000
G1 F3600
G1 X98.203 Y181.435 E29.87579
G1 X99.213 Y181.435 F7800.000
G1 F3600
G1 X107.116 Y173.532 E31.20320
G1 X107.884 Y173.532 F7800.000
G1 F3600
G1 X115.787 Y181.435 E32.53062
G1 X114.777 Y181.435 F7800.000
G1 F3600
G1 X107.500 Y174.158 E33.75287
G1 X100.223 Y181.435 E34.97512
G1 X101.233 Y181.435 F7800.000
G1 F3600
G1 X107.500 Y175.168 E36.02773
G1 X113.767 Y181.435 E37.08035
G1 X112.757 Y181.435 F7800.000
G1 F3600
G1 X107.500 Y176.178 E37.96333
G1 X102.243 Y181.435 E38.84630
G1 X103.253 Y181.435 F7800.000
G1 F3600
G1 X107.500 Y177.188 E39.55965
G1 X111.747 Y181.435 E40.27299
G1 X110.737 Y181.435 F7800.000
G1 F3600
G1 X107.500 Y178.198 E40.81671
G1 X104.263 Y181.435 E41.36042
G1 X105.273 Y181.435 F7800.000
G1 F3600
G1 X107.500 Y179.208 E41.73449
G1 X109.727 Y181.435 E42.10857
G1 X108.717 Y181.435 F7800.000
G1 F3600
G1 X107.500 Y180.218 E42.31301
G1 X106.283 Y181.435 E42.51745
G1 E40.51745 F2400.00000
G92 E0
G1 X108.894 Y173.532 F7800.000
G1 E2.00000 F2400.00000
G1 F3600
G1 X116.797 Y181.435 E3.32742
G1 X117.807 Y181.435 F7800.000
G1 F3600
G1 X109.904 Y173.532 E4.65484
G1 X110.914 Y173.532 F7800.000
G1 F3600
G1 X118.817 Y181.435 E5.98225
G1 X119.827 Y181.435 F7800.000
G1 F3600
G1 X111.924 Y173.532 E7.30967
G1 X112.934 Y173.532 F7800.000
G1 F3600
G1 X120.837 Y181.435 E8.63709
G1 X121.847 Y181.435 F7800.000
G1 F3600
G1 X113.944 Y173.532 E9.96451
G1 X114.954 Y173.532 F7800.000
G1 F3600
G1 X122.857 Y181.435 E11.29193
G1 X123.867 Y181.435 F7800.000
G1 F3600
G1 X115.964 Y173.532 E12.61935
G1 X116.974 Y173.532 F7800.000
G1 F3600
G1 X124.877 Y181.435 E13.94676
G1 X125.887 Y181.435 F7800.000
G1 F3600
G1 X117.984 Y173.532 E15.27418
G1 X118.994 Y173.532 F7800.000
G1 F3600
G1 X126.897 Y181.435 E16.60160
G1 X127.907 Y181.435 F7800.000
G1 F3600
G1 X120.003 Y173.532 E17.92902
G1 X121.013 Y173.532 F7800.000
G1 F3600
G1 X128.917 Y181.435 E19.25644
G1 X129.927 Y181.435 F7800.000
G1 F3600
G1 X122.023 Y173.532 E20.58386
G1 X123.033 Y173.532 F7800.000
G1 F3600
G1 X130.937 Y181.435 E21.91127
G1 X131.947 Y181.435 F7800.000
G1 F3600
G1 X124.043 Y173.532 E23.23869
G1 X125.053 Y173.532 F7800.000
G1 F3600
G1 X132.957 Y181.435 E24.56611
G1 X133.967 Y181.435 F7800.000
G1 F3600
G1 X126.063 Y173.532 E25.89353
G1 X127.073 Y173.532 F7800.000
G1 F3600
G1 X134.977 Y181.435 E27.22095
G1 X135.986 Y181.435 F7800.000
G1 F3600
G1 X128.083 Y173.532 E28.54837
G1 X129.093 Y173.532 F7800.000
G1 F3600
G1 X136.996 Y181.435 E29.87578
G1 X138.006 Y181.435 F7800.000
G1 F3600
G1 X130.103 Y173.532 E31.20320
G1 X131.113 Y173.532 F7800.000
G1 F3600
G1 X137.495 Y179.914 E32.27503
G1 X137.495 Y173.417 E33.04659
G1 X136.781 Y173.417 F7800.000
G1 F3600
G1 X136.781 Y178.189 E33.61339
G1 X132.123 Y173.532 E34.39563
G1 X133.133 Y173.532 F7800.000
G1 F3600
G1 X136.066 Y176.465 E34.88829
G1 X136.066 Y173.417 E35.25032
G1 X135.352 Y173.417 F7800.000
G1 F3600
G1 X135.352 Y174.741 E35.40758
G1 X134.143 Y173.532 E35.61066
G1 E33.61066 F2400.00000
G92 E0
G1 X138.209 Y173.417 F7800.000
G1 E2.00000 F2400.00000
G1 F3600
G1 X138.209 Y181.550 E2.96595
G1 X138.923 Y181.550 F7800.000
G1 F3600
G1 X138.923 Y173.417 E3.93191
G1 X139.637 Y173.417 F7800.000
G1 F3600
G1 X139.637 Y181.550 E4.89786
G1 X140.351 Y181.550 F7800.000
G1 F3600
G1 X140.351 Y173.417 E5.86381
G1 X141.065 Y173.417 F7800.000
G1 F3600
G1 X141.065 Y181.550 E6.82977
G1 X141.780 Y181.550 F7800.000
G1 F3600
G1 X141.780 Y173.417 E7.79572
G1 X142.494 Y173.417 F7800.000
G1 F3600
G1 X142.494 Y181.550 E8.76167
G1 E6.76167 F2400.00000
G92 E0
G1 X44.665 Y170.346 F7800.000
G1 E2.00000 F2400.00000
G1 F3600
G1 X39.800 Y170.346 E2.57784
G1 X39.800 Y169.632 F7800.000
G1 F3600
G1 X44.665 Y169.632 E3.15568
G1 X44.665 Y168.918 F7800.000
G1 F3600
G1 X39.800 Y168.918 E3.73352
G1 X39.800 Y168.204 F7800.000
G1 F3600
G1 X44.665 Y168.204 E4.31135
G1 X44.665 Y167.489 F7800.000
G1 F3600
G1 X39.800 Y167.489 E4.88919
G1 X39.800 Y166.775 F7800.000
G1 F3600
G1 X44.665 Y166.775 E5.46703
G1 X44.665 Y166.061 F7800.000
G1 F3600
G1 X39.800 Y166.061 E6.04487
G1 X39.800 Y165.347 F7800.000
G1 F3600
G1 X44.665 Y165.347 E6.62271
G1 X44.665 Y164.633 F7800.000
G1 F3600
G1 X39.800 Y164.633 E7.20055
G1 X39.800 Y163.919 F7800.000
G1 F3600
G1 X44.665 Y163.919 E7.77839
G1 X44.665 Y163.204 F7800.000
G1 F3600
G1 X39.800 Y163.204 E8.35623
G1 X39.800 Y162.490 F7800.000
G1 F3600
G1 X44.665 Y162.490 E8.93406
G1 X44.665 Y161.776 F7800.000
G1 F3600
G1 X39.800 Y161.776 E9.51190
G1 X39.800 Y161.062 F7800.000
G1 F3600
G1 X44.665 Y161.062 E10.08974
G1 X44.665 Y160.348 F7800.000
G1 F3600
G1 X39.800 Y160.348 E10.66758
G1 X39.800 Y159.634 F7800.000
G1 F3600
G1 X44.665 Y159.634 E11.24542
G1 X44.665 Y158.919 F7800.000
G1 F3600
G1 X39.800 Y158.919 E11.82326
G1 X39.800 Y158.205 F7800.000
G1 F3600
G1 X44.665 Y158.205 E12.40110
G1 X44.665 Y157.491 F7800.000
G1 F3600
G1 X39.800 Y157.491 E12.97893
G1 X39.800 Y156.777 F7800.000
G1 F3600
G1 X44.665 Y156.777 E13.55677
