; generated by Slic3r 1.3.0 on 2021-07-02 at 15:31:23

; external perimeters extrusion width = 0.55mm (4.37mm^3/s)
; perimeters extrusion width = 0.70mm (11.44mm^3/s)
; infill extrusion width = 0.63mm (13.45mm^3/s)
; solid infill extrusion width = 0.70mm (3.81mm^3/s)
; top infill extrusion width = 0.70mm (2.86mm^3/s)

M107
M104 S200 ; set temperature
G28 ; home all axes
G1 Z5 F5000 ; lift nozzle

; Filament gcode

M109 S200 ; set temperature and wait for it to be reached
G21 ; set units to millimeters
G90 ; use absolute coordinates
M82 ; use absolute distances for extrusion
G92 E0
G1 Z0.350 F7800.000
G1 E-2.00000 F2400.00000
G92 E0
G1 X59.787 Y59.008 F7800.000
G1 E2.00000 F2400.00000
G1 F1800
G1 X61.880 Y57.055 E2.08859
G1 X64.015 Y55.253 E2.17502
G1 X66.614 Y53.280 E2.27599
G1 X68.984 Y51.674 E2.36458
G1 X71.432 Y50.188 E2.45317
G1 X73.950 Y48.826 E2.54176
G1 X76.533 Y47.591 E2.63035
G1 X79.175 Y46.486 E2.71894
G1 X81.868 Y45.515 E2.80753
G1 X84.607 Y44.679 E2.89612
G1 X87.383 Y43.980 E2.98472
G1 X90.191 Y43.421 E3.07331
G1 X93.024 Y43.002 E3.16190
G1 X95.873 Y42.725 E3.25049
G1 X98.734 Y42.591 E3.33908
G1 X101.597 Y42.599 E3.42767
G1 X104.456 Y42.750 E3.51626
G1 X107.304 Y43.043 E3.60485
G1 X110.134 Y43.478 E3.69344
G1 X112.939 Y44.054 E3.78203
G1 X115.711 Y44.768 E3.87063
G1 X118.445 Y45.620 E3.95922
G1 X121.133 Y46.607 E4.04781
G1 X123.768 Y47.727 E4.13639
G1 X126.344 Y48.976 E4.22499
G1 X128.854 Y50.353 E4.31358
G1 X131.293 Y51.853 E4.40217
G1 X133.654 Y53.473 E4.49076
G1 X135.932 Y55.208 E4.57935
G1 X138.120 Y57.055 E4.66794
G1 X140.213 Y59.008 E4.75653
G1 X142.206 Y61.063 E4.84512
G1 X143.882 Y62.963 E4.92350
G1 X145.674 Y65.196 E5.01209
G1 X147.352 Y67.516 E5.10068
G1 X148.912 Y69.917 E5.18927
G1 X150.351 Y72.392 E5.27786
G1 X151.665 Y74.936 E5.36645
G1 X152.850 Y77.543 E5.45504
G1 X153.903 Y80.205 E5.54364
G1 X154.823 Y82.917 E5.63223
G1 X155.606 Y85.670 E5.72082
G1 X156.252 Y88.460 E5.80941
G1 X156.757 Y91.278 E5.89800
G1 X157.121 Y94.118 E5.98659
G1 X157.343 Y96.973 E6.07518
G1 X157.423 Y99.835 E6.16377
G1 X157.360 Y102.698 E6.25238
G1 X157.154 Y105.553 E6.34095
G1 X156.806 Y108.395 E6.42955
G1 X156.317 Y111.216 E6.51814
G1 X155.688 Y114.010 E6.60673
G1 X154.920 Y116.768 E6.69532
G1 X154.016 Y119.485 E6.78391
G1 X152.978 Y122.153 E6.87250
G1 X151.808 Y124.766 E6.96109
G1 X150.509 Y127.318 E7.04968
G1 X149.084 Y129.801 E7.13827
G1 X147.538 Y132.211 E7.22686
G1 X145.873 Y134.541 E7.31546
G1 X144.095 Y136.784 E7.40405
G1 X142.206 Y138.936 E7.49264
G1 X140.213 Y140.992 E7.58124
G1 X138.120 Y142.945 E7.66982
G1 X135.932 Y144.792 E7.75841
G1 X133.654 Y146.527 E7.84700
G1 X131.293 Y148.147 E7.93561
G1 X128.854 Y149.647 E8.02419
G1 X126.344 Y151.024 E8.11278
G1 X123.768 Y152.273 E8.20137
G1 X121.133 Y153.393 E8.28996
G1 X118.445 Y154.380 E8.37856
G1 X115.711 Y155.232 E8.46714
G1 X112.939 Y155.946 E8.55573
G1 X110.134 Y156.522 E8.64432
G1 X107.304 Y156.957 E8.73291
G1 X104.456 Y157.250 E8.82150
G1 X101.597 Y157.401 E8.91009
G1 X98.734 Y157.409 E8.99868
G1 X95.873 Y157.275 E9.08728
G1 X93.023 Y156.998 E9.17587
G1 X90.191 Y156.579 E9.26446
G1 X87.383 Y156.020 E9.35305
G1 X84.289 Y155.232 E9.45186
G1 X81.555 Y154.380 E9.54044
G1 X78.867 Y153.393 E9.62904
G1 X76.232 Y152.273 E9.71763
G1 X73.656 Y151.024 E9.80622
G1 X71.146 Y149.647 E9.89481
G1 X68.707 Y148.147 E9.98340
G1 X66.346 Y146.527 E10.07199
G1 X64.068 Y144.792 E10.16058
G1 X61.880 Y142.945 E10.24917
G1 X59.787 Y140.992 E10.33777
G1 X57.794 Y138.937 E10.42635
G1 X56.118 Y137.037 E10.50473
G1 X54.326 Y134.804 E10.59332
G1 X52.648 Y132.484 E10.68191
G1 X51.088 Y130.083 E10.77050
G1 X49.649 Y127.608 E10.85909
G1 X48.335 Y125.064 E10.94769
G1 X47.150 Y122.457 E11.03628
G1 X46.097 Y119.795 E11.12487
G1 X45.177 Y117.084 E11.21346
G1 X44.394 Y114.329 E11.30205
G1 X43.748 Y111.540 E11.39064
G1 X43.243 Y108.722 E11.47923
G1 X42.879 Y105.882 E11.56782
G1 X42.657 Y103.027 E11.65641
G1 X42.577 Y100.165 E11.74501
G1 X42.640 Y97.303 E11.83359
G1 X42.846 Y94.447 E11.92219
G1 X43.194 Y91.605 E12.01078
G1 X43.683 Y88.784 E12.09937
G1 X44.312 Y85.991 E12.18796
G1 X45.080 Y83.232 E12.27655
G1 X45.984 Y80.515 E12.36514
G1 X47.022 Y77.847 E12.45373
G1 X48.192 Y75.234 E12.54232
G1 X49.491 Y72.682 E12.63091
G1 X50.915 Y70.199 E12.71950
G1 X52.462 Y67.789 E12.80810
G1 X54.127 Y65.459 E12.89669
G1 X55.905 Y63.216 E12.98528
G1 X57.794 Y61.064 E13.07387
G1 X59.735 Y59.062 E13.16014
G1 E11.16014 F2400.00000
G92 E0
G1 X140.793 Y100.759 F7800.000
G1 E2.00000 F2400.00000
G1 F1800
G1 X140.716 Y100.379 E2.01202
G1 X140.679 Y100.004 E2.02367
G1 X140.679 Y99.627 E2.03532
G1 X140.716 Y99.253 E2.04697
G1 X140.791 Y98.884 E2.05862
G1 X140.902 Y98.524 E2.07026
G1 X141.048 Y98.177 E2.08191
G1 X141.228 Y97.847 E2.09356
G1 X141.440 Y97.536 E2.10521
G1 X141.682 Y97.247 E2.11685
G1 X141.951 Y96.984 E2.12850
G1 X142.246 Y96.750 E2.14015
G1 X142.562 Y96.546 E2.15180
G1 X142.897 Y96.374 E2.16344
G1 X143.247 Y96.236 E2.17509
G1 X143.610 Y96.134 E2.18674
G1 X143.980 Y96.069 E2.19839
G1 X144.356 Y96.041 E2.21004
G1 X144.732 Y96.050 E2.22168
G1 X145.106 Y96.097 E2.23333
G1 X145.473 Y96.181 E2.24498
G1 X145.830 Y96.301 E2.25663
G1 X146.173 Y96.455 E2.26827
G1 X146.499 Y96.644 E2.27992
G1 X146.804 Y96.863 E2.29157
G1 X147.087 Y97.113 E2.30322
G1 X147.343 Y97.389 E2.31487
G1 X147.570 Y97.689 E2.32651
G1 X147.766 Y98.010 E2.33816
G1 X147.930 Y98.349 E2.34981
G1 X148.058 Y98.703 E2.36146
G1 X148.154 Y99.080 E2.37350
G1 X148.222 Y99.622 E2.39040
G1 X148.221 Y100.004 E2.40223
G1 X148.184 Y100.379 E2.41387
G1 X148.109 Y100.748 E2.42552
G1 X147.998 Y101.107 E2.43716
G1 X147.852 Y101.454 E2.44881
G1 X147.672 Y101.785 E2.46046
G1 X147.460 Y102.096 E2.47211
G1 X147.218 Y102.384 E2.48375
G1 X146.949 Y102.647 E2.49540
G1 X146.654 Y102.882 E2.50705
G1 X146.338 Y103.086 E2.51870
G1 X146.003 Y103.258 E2.53034
G1 X145.653 Y103.395 E2.54199
G1 X145.290 Y103.497 E2.55364
G1 X144.920 Y103.563 E2.56529
G1 X144.544 Y103.591 E2.57694
G1 X144.168 Y103.581 E2.58858
G1 X143.794 Y103.534 E2.60023
G1 X143.427 Y103.451 E2.61188
G1 X143.070 Y103.331 E2.62353
G1 X142.727 Y103.176 E2.63517
G1 X142.401 Y102.988 E2.64682
G1 X142.096 Y102.768 E2.65847
G1 X141.813 Y102.519 E2.67012
G1 X141.557 Y102.243 E2.68177
G1 X141.330 Y101.943 E2.69341
G1 X141.134 Y101.622 E2.70506
G1 X140.965 Y101.272 E2.71709
G1 X140.817 Y100.831 E2.73148
G1 X141.398 Y100.597 F7800.000
G1 F1800
G1 X141.335 Y100.285 E2.74133
G1 X141.303 Y99.973 E2.75105
G1 X141.303 Y99.659 E2.76077
G1 X141.335 Y99.346 E2.77049
G1 X141.397 Y99.038 E2.78020
G1 X141.490 Y98.738 E2.78992
G1 X141.612 Y98.449 E2.79964
G1 X141.762 Y98.173 E2.80936
G1 X141.939 Y97.913 E2.81908
G1 X142.141 Y97.673 E2.82879
G1 X142.365 Y97.454 E2.83851
G1 X142.611 Y97.258 E2.84823
G1 X142.875 Y97.087 E2.85795
G1 X143.154 Y96.944 E2.86766
G1 X143.447 Y96.829 E2.87738
G1 X143.749 Y96.744 E2.88710
G1 X144.058 Y96.690 E2.89682
G1 X144.371 Y96.666 E2.90654
G1 X144.685 Y96.674 E2.91625
G1 X144.997 Y96.713 E2.92597
G1 X145.303 Y96.783 E2.93569
G1 X145.601 Y96.883 E2.94541
G1 X145.887 Y97.012 E2.95513
G1 X146.159 Y97.169 E2.96484
G1 X146.414 Y97.353 E2.97456
G1 X146.650 Y97.560 E2.98428
G1 X146.863 Y97.791 E2.99400
G1 X147.053 Y98.041 E3.00371
G1 X147.217 Y98.309 E3.01343
G1 X147.353 Y98.592 E3.02315
G1 X147.460 Y98.887 E3.03287
G1 X147.539 Y99.196 E3.04273
G1 X147.597 Y99.660 E3.05721
G1 X147.597 Y99.973 E3.06688
G1 X147.565 Y100.285 E3.07659
G1 X147.503 Y100.593 E3.08631
G1 X147.410 Y100.893 E3.09603
G1 X147.288 Y101.183 E3.10574
G1 X147.138 Y101.458 E3.11546
G1 X146.961 Y101.718 E3.12518
G1 X146.759 Y101.959 E3.13490
G1 X146.535 Y102.178 E3.14462
G1 X146.289 Y102.374 E3.15433
G1 X146.025 Y102.544 E3.16405
G1 X145.746 Y102.687 E3.17377
G1 X145.453 Y102.802 E3.18349
G1 X145.151 Y102.887 E3.19320
G1 X144.842 Y102.942 E3.20292
G1 X144.529 Y102.965 E3.21264
G1 X144.215 Y102.957 E3.22236
G1 X143.903 Y102.918 E3.23208
G1 X143.597 Y102.848 E3.24179
G1 X143.299 Y102.748 E3.25151
G1 X143.013 Y102.619 E3.26123
G1 X142.741 Y102.462 E3.27095
G1 X142.486 Y102.279 E3.28067
G1 X142.250 Y102.071 E3.29038
G1 X142.037 Y101.841 E3.30010
G1 X141.847 Y101.590 E3.30982
G1 X141.683 Y101.322 E3.31954
G1 X141.545 Y101.036 E3.32939
G1 X141.422 Y100.669 E3.34137
G1 X141.398 Y100.597 F7800.000
G1 E1.34137 F2400.00000
G92 E0
G1 X145.864 Y104.865 F7800.000
G1 E2.00000 F2400.00000
G1 F1800
G1 X145.219 Y108.720 E2.12093
G1 X144.735 Y110.937 E2.19117
G1 X144.141 Y113.128 E2.26140
G1 X143.441 Y115.288 E2.33164
G1 X142.635 Y117.410 E2.40188
G1 X141.725 Y119.489 E2.47211
G1 X140.714 Y121.522 E2.54235
G1 X139.604 Y123.502 E2.61258
G1 X138.398 Y125.425 E2.68282
G1 X137.098 Y127.286 E2.75306
G1 X135.709 Y129.081 E2.82329
G1 X134.232 Y130.805 E2.89353
G1 X132.673 Y132.455 E2.96377
G1 X131.034 Y134.025 E3.03400
G1 X129.319 Y135.513 E3.10424
G1 X127.534 Y136.915 E3.17447
G1 X125.681 Y138.227 E3.24471
G1 X123.766 Y139.446 E3.31495
G1 X121.794 Y140.569 E3.38518
G1 X119.768 Y141.594 E3.45542
G1 X117.695 Y142.517 E3.52566
G1 X115.578 Y143.337 E3.59589
G1 X113.482 Y144.033 E3.66423
G1 X111.238 Y144.660 E3.73633
G1 X109.022 Y145.160 E3.80660
G1 X106.786 Y145.549 E3.87683
G1 X104.533 Y145.829 E3.94707
G1 X102.269 Y145.996 E4.01731
G1 X100.000 Y146.052 E4.08754
G1 X97.731 Y145.996 E4.15778
G1 X95.467 Y145.829 E4.22802
G1 X93.214 Y145.549 E4.29825
G1 X90.978 Y145.160 E4.36849
G1 X88.764 Y144.660 E4.43872
G1 X86.576 Y144.052 E4.50896
G1 X84.422 Y143.337 E4.57920
G1 X82.305 Y142.517 E4.64943
G1 X80.232 Y141.594 E4.71967
G1 X78.206 Y140.569 E4.78991
G1 X76.287 Y139.476 E4.85824
G1 X74.320 Y138.227 E4.93034
G1 X72.466 Y136.915 E5.00061
G1 X70.681 Y135.513 E5.07085
G1 X68.966 Y134.025 E5.14109
G1 X67.327 Y132.455 E5.21132
G1 X65.768 Y130.805 E5.28156
G1 X64.291 Y129.081 E5.35179
G1 X62.902 Y127.286 E5.42203
G1 X61.602 Y125.425 E5.49227
G1 X60.396 Y123.502 E5.56250
G1 X59.286 Y121.522 E5.63274
G1 X58.275 Y119.489 E5.70298
G1 X57.365 Y117.410 E5.77321
G1 X56.559 Y115.288 E5.84345
G1 X55.859 Y113.128 E5.91368
G1 X55.265 Y110.937 E5.98392
G1 X54.781 Y108.720 E6.05416
G1 X54.136 Y104.865 E6.17509
G1 X56.382 Y104.598 E6.24509
G1 X57.086 Y104.421 E6.26754
G1 X57.738 Y104.148 E6.28943
G1 X58.177 Y103.898 E6.30505
G1 X58.741 Y103.472 E6.32691
G1 X59.104 Y103.122 E6.34253
G1 X59.554 Y102.560 E6.36478
G1 X59.922 Y101.925 E6.38749
G1 X60.099 Y101.509 E6.40149
G1 X60.248 Y101.035 E6.41686
G1 X60.346 Y100.561 E6.43184
G1 X60.396 Y100.070 E6.44710
G1 X60.398 Y99.574 E6.46246
G1 X60.311 Y98.872 E6.48433
G1 X60.193 Y98.402 E6.49933
G1 X60.029 Y97.946 E6.51432
G1 X59.820 Y97.509 E6.52931
G1 X59.569 Y97.095 E6.54431
G1 X59.277 Y96.707 E6.55930
G1 X58.949 Y96.352 E6.57427
G1 X58.580 Y96.025 E6.58953
G1 X58.005 Y95.628 E6.61115
G1 X57.556 Y95.397 E6.62677
G1 X57.106 Y95.219 E6.64176
G1 X56.639 Y95.086 E6.65675
G1 X56.143 Y94.998 E6.67237
G1 X54.170 Y94.797 E6.73373
G1 X54.860 Y90.880 E6.85679
G1 X55.343 Y88.764 E6.92396
G1 X55.992 Y86.432 E6.99883
G1 X56.724 Y84.253 E7.06995
G1 X57.562 Y82.116 E7.14101
G1 X58.481 Y80.079 E7.21014
G1 X59.554 Y77.980 E7.28308
G1 X60.702 Y75.990 E7.35416
G1 X61.948 Y74.061 E7.42522
G1 X63.288 Y72.196 E7.49627
G1 X64.720 Y70.401 E7.56733
G1 X66.239 Y68.679 E7.63838
G1 X67.843 Y67.035 E7.70943
G1 X69.526 Y65.473 E7.78049
G1 X71.285 Y63.996 E7.85154
G1 X73.115 Y62.610 E7.92260
G1 X75.013 Y61.316 E7.99365
G1 X76.972 Y60.119 E8.06470
G1 X78.989 Y59.020 E8.13576
G1 X81.058 Y58.024 E8.20681
G1 X83.174 Y57.132 E8.27787
G1 X85.342 Y56.343 E8.34924
G1 X87.526 Y55.669 E8.41998
G1 X89.752 Y55.103 E8.49103
G1 X92.002 Y54.648 E8.56208
G1 X94.273 Y54.305 E8.63314
G1 X96.558 Y54.077 E8.70419
G1 X98.852 Y53.962 E8.77524
G1 X101.148 Y53.962 E8.84630
G1 X103.442 Y54.077 E8.91735
G1 X105.727 Y54.305 E8.98840
G1 X107.998 Y54.648 E9.05946
G1 X110.248 Y55.103 E9.13051
G1 X112.474 Y55.669 E9.20157
G1 X114.668 Y56.346 E9.27262
G1 X116.826 Y57.132 E9.34367
G1 X118.942 Y58.024 E9.41473
G1 X121.011 Y59.020 E9.48578
G1 X123.028 Y60.119 E9.55684
G1 X124.987 Y61.316 E9.62789
G1 X126.885 Y62.610 E9.69894
G1 X128.715 Y63.996 E9.77000
G1 X130.426 Y65.433 E9.83913
G1 X132.157 Y67.034 E9.91207
G1 X133.761 Y68.679 E9.98316
G1 X135.280 Y70.401 E10.05421
G1 X136.712 Y72.196 E10.12526
G1 X138.052 Y74.061 E10.19632
G1 X139.298 Y75.990 E10.26737
G1 X140.446 Y77.979 E10.33843
G1 X141.493 Y80.022 E10.40948
G1 X142.438 Y82.116 E10.48053
G1 X143.276 Y84.253 E10.55159
G1 X144.008 Y86.430 E10.62264
G1 X144.629 Y88.641 E10.69370
G1 X145.126 Y90.819 E10.76283
G1 X145.832 Y94.794 E10.88774
G1 X143.850 Y94.999 E10.94941
G1 X143.145 Y95.140 E10.97166
G1 X142.667 Y95.302 E10.98727
G1 X142.030 Y95.608 E11.00914
G1 X141.591 Y95.893 E11.02534
G1 X141.052 Y96.351 E11.04722
G1 X140.723 Y96.708 E11.06223
G1 X140.310 Y97.282 E11.08412
G1 X139.978 Y97.927 E11.10657
G1 X139.746 Y98.616 E11.12906
G1 X139.645 Y99.130 E11.14526
G1 X139.597 Y99.828 E11.16690
G1 X139.623 Y100.321 E11.18217
G1 X139.697 Y100.799 E11.19714
G1 X139.824 Y101.287 E11.21275
G1 X140.088 Y101.943 E11.23462
G1 X140.322 Y102.367 E11.24961
G1 X140.597 Y102.766 E11.26461
G1 X141.065 Y103.295 E11.28648
G1 X141.439 Y103.622 E11.30184
G1 X141.841 Y103.908 E11.31710
G1 X142.261 Y104.147 E11.33207
G1 X142.704 Y104.344 E11.34707
G1 X143.165 Y104.496 E11.36206
G1 X143.638 Y104.600 E11.37705
G1 X145.790 Y104.856 E11.44411
G1 X145.140 Y105.408 F7800.000
G1 F1800
G1 X144.605 Y108.601 E11.54429
G1 X144.127 Y110.789 E11.61357
G1 X143.542 Y112.950 E11.68286
G1 X142.851 Y115.080 E11.75214
G1 X142.056 Y117.173 E11.82142
G1 X141.159 Y119.225 E11.89070
G1 X140.161 Y121.230 E11.95999
G1 X139.066 Y123.183 E12.02927
G1 X137.876 Y125.080 E12.09855
G1 X136.595 Y126.916 E12.16784
G1 X135.224 Y128.686 E12.23712
G1 X133.768 Y130.387 E12.30640
G1 X132.229 Y132.014 E12.37568
G1 X130.612 Y133.563 E12.44497
G1 X128.921 Y135.031 E12.51425
G1 X127.160 Y136.414 E12.58353
G1 X125.333 Y137.708 E12.65282
G1 X123.444 Y138.910 E12.72210
G1 X121.498 Y140.018 E12.79138
G1 X119.500 Y141.029 E12.86066
G1 X117.454 Y141.940 E12.92995
G1 X115.367 Y142.749 E12.99923
G1 X113.299 Y143.435 E13.06663
G1 X111.085 Y144.054 E13.13777
G1 X108.900 Y144.547 E13.20708
G1 X106.694 Y144.931 E13.27636
G1 X104.472 Y145.207 E13.34564
G1 X102.238 Y145.372 E13.41493
G1 X100.000 Y145.427 E13.48421
G1 X97.762 Y145.372 E13.55349
G1 X95.528 Y145.207 E13.62277
G1 X93.306 Y144.931 E13.69206
G1 X91.100 Y144.547 E13.76134
G1 X88.916 Y144.054 E13.83062
G1 X86.759 Y143.454 E13.89991
G1 X84.633 Y142.749 E13.96919
G1 X82.546 Y141.940 E14.03847
G1 X80.500 Y141.029 E14.10776
G1 X78.502 Y140.018 E14.17704
G1 X76.609 Y138.941 E14.24443
G1 X74.668 Y137.708 E14.31558
G1 X72.840 Y136.414 E14.38488
G1 X71.079 Y135.031 E14.45417
G1 X69.388 Y133.563 E14.52345
G1 X67.771 Y132.014 E14.59273
G1 X66.232 Y130.387 E14.66202
G1 X64.776 Y128.686 E14.73130
G1 X63.405 Y126.916 E14.80058
G1 X62.123 Y125.080 E14.86987
G1 X60.934 Y123.183 E14.93915
G1 X59.839 Y121.230 E15.00843
G1 X58.841 Y119.225 E15.07771
G1 X57.944 Y117.173 E15.14700
G1 X57.149 Y115.080 E15.21628
G1 X56.458 Y112.950 E15.28556
G1 X55.873 Y110.789 E15.35485
G1 X55.395 Y108.601 E15.42413
G1 X54.860 Y105.408 E15.52430
G1 X56.479 Y105.216 E15.57475
G1 X56.724 Y105.168 E15.58247
G1 X57.274 Y105.017 E15.60013
G1 X57.517 Y104.930 E15.60811
G1 X58.021 Y104.706 E15.62516
G1 X58.507 Y104.429 E15.64247
G1 X58.713 Y104.290 E15.65018
G1 X59.153 Y103.944 E15.66749
G1 X59.555 Y103.555 E15.68479
G1 X59.721 Y103.369 E15.69251
G1 X60.064 Y102.922 E15.70994
G1 X60.205 Y102.706 E15.71792
G1 X60.481 Y102.206 E15.73558
G1 X60.689 Y101.718 E15.75200
G1 X60.853 Y101.192 E15.76905
G1 X60.964 Y100.657 E15.78597
G1 X61.021 Y100.104 E15.80317
G1 X61.023 Y99.553 E15.82021
G1 X61.006 Y99.304 E15.82793
G1 X60.924 Y98.751 E15.84523
G1 X60.791 Y98.220 E15.86216
G1 X60.606 Y97.705 E15.87909
G1 X60.370 Y97.212 E15.89601
G1 X60.087 Y96.744 E15.91294
G1 X59.758 Y96.307 E15.92987
G1 X59.387 Y95.905 E15.94678
G1 X58.971 Y95.537 E15.96397
G1 X58.525 Y95.214 E15.98102
G1 X58.312 Y95.083 E15.98874
G1 X57.815 Y94.827 E16.00604
G1 X57.306 Y94.626 E16.02297
G1 X56.780 Y94.477 E16.03990
