; generated by Slic3r 1.3.0 on 2021-07-02 at 17:13:36

; external perimeters extrusion width = 0.44mm (3.38mm^3/s)
; perimeters extrusion width = 0.48mm (7.54mm^3/s)
; infill extrusion width = 0.48mm (10.05mm^3/s)
; solid infill extrusion width = 0.48mm (2.51mm^3/s)
; top infill extrusion width = 0.48mm (1.88mm^3/s)

M107
M190 S65 ; set bed temperature and wait for it to be reached
M104 S205 ; set temperature
G28 ; home all axes
G1 Z5 F5000 ; lift nozzle

; Filament gcode

M109 S205 ; set temperature and wait for it to be reached
G21 ; set units to millimeters
G90 ; use absolute coordinates
M82 ; use absolute distances for extrusion
G92 E0
G1 Z0.400 F7800.000
G1 E-2.00000 F2400.00000
G92 E0
G1 X94.864 Y87.820 F7800.000
G1 E2.00000 F2400.00000
G1 F1800
G1 X96.620 Y86.320 E2.27422
G1 X98.780 Y85.505 E2.54845
G1 X100.038 Y85.386 E2.69842
G1 X134.963 Y85.386 E6.84629
G1 X137.237 Y85.783 E7.12051
G1 X139.243 Y86.927 E7.39474
G1 X140.742 Y88.683 E7.66896
G1 X141.558 Y90.843 E7.94319
G1 X141.677 Y92.100 E8.09316
G1 X141.677 Y130.200 E12.61811
G1 X141.280 Y132.475 E12.89233
G1 X140.136 Y134.480 E13.16656
G1 X137.689 Y136.335 E13.53119
G1 X109.114 Y149.035 E17.24499
G1 X106.388 Y149.614 E17.57606
G1 X100.038 Y149.614 E18.33022
G1 X97.763 Y149.217 E18.60444
G1 X95.757 Y148.073 E18.87867
G1 X94.258 Y146.317 E19.15289
G1 X93.442 Y144.157 E19.42712
G1 X93.323 Y142.900 E19.57708
G1 X93.323 Y92.100 E25.61035
G1 X93.720 Y89.825 E25.88458
G1 X94.835 Y87.872 E26.15168
G1 E24.15168 F2400.00000
G92 E0
G1 X104.559 Y96.622 F7800.000
G1 E2.00000 F2400.00000
G1 F1800
G1 X104.559 Y141.072 E7.27911
G1 X101.866 Y141.072 E7.59899
G1 X101.866 Y93.928 E13.19798
G1 X133.134 Y93.928 E16.91157
G1 X133.134 Y103.561 E18.05561
G1 X126.195 Y96.622 E19.22114
G1 X104.619 Y96.622 E21.78357
G1 X105.273 Y97.336 F7800.000
G1 F1800
G1 X105.273 Y141.786 E27.06268
G1 X101.152 Y141.786 E27.55220
G1 X101.152 Y93.214 E33.32082
G1 X133.848 Y93.214 E37.20405
G1 X133.848 Y105.285 E38.63766
G1 X125.899 Y97.336 E39.97283
G1 X105.333 Y97.336 E42.41531
G1 E40.41531 F2400.00000
G92 E0
G1 X129.851 Y106.628 F7800.000
G1 E2.00000 F2400.00000
G1 F1800
G1 X133.134 Y106.628 E2.38987
G1 X133.134 Y109.911 E2.77975
G1 X129.894 Y106.671 E3.32399
G1 X128.127 Y105.914 F7800.000
G1 F1800
G1 X133.848 Y105.914 E4.00345
G1 X133.848 Y111.635 E4.68291
G1 X128.170 Y105.957 E5.63668
G1 E3.63668 F2400.00000
G92 E0
G1 X129.851 Y112.978 F7800.000
G1 E2.00000 F2400.00000
G1 F1800
G1 X133.134 Y112.978 E2.38987
G1 X133.134 Y116.261 E2.77975
G1 X129.894 Y113.021 E3.32399
G1 X128.127 Y112.264 F7800.000
G1 F1800
G1 X133.848 Y112.264 E4.00345
G1 X133.848 Y117.985 E4.68290
G1 X128.170 Y112.307 E5.63668
G1 E3.63668 F2400.00000
G92 E0
G1 X129.851 Y119.328 F7800.000
G1 E2.00000 F2400.00000
G1 F1800
G1 X133.134 Y119.328 E2.38987
G1 X133.134 Y122.611 E2.77975
G1 X129.894 Y119.371 E3.32399
G1 X128.127 Y118.614 F7800.000
G1 F1800
G1 X133.848 Y118.614 E4.00345
G1 X133.848 Y124.335 E4.68290
G1 X128.170 Y118.657 E5.63668
G1 E3.63668 F2400.00000
G92 E0
G1 X129.851 Y125.678 F7800.000
G1 E2.00000 F2400.00000
G1 F1800
G1 X133.134 Y125.678 E2.38987
G1 X133.134 Y128.372 E2.70975
G1 X132.545 Y128.372 E2.77975
G1 X129.894 Y125.721 E3.22500
G1 X128.127 Y124.964 F7800.000
G1 F1800
G1 X133.848 Y124.964 E3.90446
G1 X133.848 Y129.086 E4.39397
G1 X132.249 Y129.086 E4.58392
G1 X128.170 Y125.007 E5.26906
G1 E3.26906 F2400.00000
G92 E0
G1 X132.753 Y124.250 F7800.000
G1 E2.00000 F2400.00000
G1 F1800
G1 X126.403 Y117.900 E3.06654
G1 X132.753 Y117.900 E3.82070
G1 X126.403 Y111.550 E4.88724
G1 X132.753 Y111.550 E5.64140
G1 X126.403 Y105.200 E6.70794
G1 X132.753 Y105.200 E7.46210
G1 X125.603 Y98.050 E8.66301
G1 X105.988 Y98.050 E10.99267
G1 X105.988 Y142.500 E16.27178
G1 X100.438 Y142.500 E16.93093
G1 X100.438 Y92.500 E22.86919
G1 X134.563 Y92.500 E26.92205
G1 X134.563 Y129.800 E31.35199
G1 X131.953 Y129.800 E31.66189
G1 X126.403 Y124.250 E32.59406
G1 X132.693 Y124.250 E33.34109
G1 X132.969 Y123.914 F7800.000
G1 E31.34109 F2400.00000
G92 E0
G1 X131.576 Y126.392 F7800.000
G1 E2.00000 F2400.00000
G1 F1800
G1 X132.420 Y126.392 E2.11861
G1 X132.420 Y127.237 E2.23721
G1 X131.618 Y126.435 E2.39652
G1 E0.39652 F2400.00000
G92 E0
G1 X131.576 Y120.042 F7800.000
G1 E2.00000 F2400.00000
G1 F1800
G1 X132.420 Y120.042 E2.11861
G1 X132.420 Y120.887 E2.23721
G1 X131.618 Y120.085 E2.39652
G1 E0.39652 F2400.00000
G92 E0
G1 X131.576 Y113.692 F7800.000
G1 E2.00000 F2400.00000
G1 F1800
G1 X132.420 Y113.692 E2.11861
G1 X132.420 Y114.537 E2.23721
G1 X131.618 Y113.735 E2.39652
G1 E0.39652 F2400.00000
G92 E0
G1 X131.576 Y107.342 F7800.000
G1 E2.00000 F2400.00000
G1 F1800
G1 X132.420 Y107.342 E2.11861
G1 X132.420 Y108.187 E2.23721
G1 X131.618 Y107.385 E2.39652
G1 E0.39652 F2400.00000
G92 E0
G1 X128.740 Y96.098 F7800.000
G1 E2.00000 F2400.00000
G1 F1800
G1 X130.964 Y96.098 E2.26927
G1 X130.964 Y98.323 E2.53854
G1 X128.782 Y96.140 E2.91209
G1 X126.983 Y95.370 F7800.000
G1 F1800
G1 X131.692 Y95.370 E3.48211
G1 X131.692 Y100.080 E4.05214
G1 X127.025 Y95.413 E4.85102
G1 X126.491 Y95.908 F7800.000
G1 F1800
G1 X103.845 Y95.908 E7.59192
G1 X103.845 Y140.358 E12.97192
G1 X102.580 Y140.358 E13.12504
G1 X102.580 Y94.642 E18.65816
G1 X132.420 Y94.642 E22.26985
G1 X132.420 Y101.837 E23.14063
G1 X126.533 Y95.950 E24.14830
M104 S200 ; set temperature
M140 S60 ; set bed temperature
G1 Z0.700 F7800.000
G1 X105.351 Y97.414 F7800.000
G1 F3600
G1 X105.351 Y141.864 E26.47059
G1 X101.074 Y141.864 E26.69408
G1 X101.074 Y93.136 E29.23986
G1 X133.926 Y93.136 E30.95625
G1 X133.926 Y105.474 E31.60081
G1 X125.867 Y97.414 E32.19631
G1 X105.411 Y97.414 E33.26499
G1 E31.26499 F2400.00000
G92 E0
G1 X127.939 Y105.836 F7800.000
G1 E2.00000 F2400.00000
G1 F900
G1 X133.926 Y105.836 E2.31281
G1 X133.926 Y111.824 E2.62563
G1 X127.981 Y105.879 E3.06488
G1 E1.06488 F2400.00000
G92 E0
G1 X127.939 Y112.186 F7800.000
G1 E2.00000 F2400.00000
G1 F900
G1 X133.926 Y112.186 E2.31281
G1 X133.926 Y118.174 E2.62563
G1 X127.981 Y112.229 E3.06488
G1 E1.06488 F2400.00000
G92 E0
G1 X127.939 Y118.536 F7800.000
G1 E2.00000 F2400.00000
G1 F900
G1 X133.926 Y118.536 E2.31281
G1 X133.926 Y124.524 E2.62563
G1 X127.981 Y118.579 E3.06488
G1 E1.06488 F2400.00000
G92 E0
G1 X127.939 Y124.886 F7800.000
G1 E2.00000 F2400.00000
G1 F900
G1 X133.926 Y124.886 E2.31281
G1 X133.926 Y129.164 E2.53630
G1 X132.217 Y129.164 E2.62563
G1 X127.981 Y124.929 E2.93856
G1 X133.278 Y124.467 F7800.000
G1 F3600
G1 X126.928 Y118.117 E3.40773
G1 X133.278 Y118.117 E3.73948
G1 X126.928 Y111.767 E4.20866
G1 X133.278 Y111.767 E4.54041
G1 X126.928 Y105.417 E5.00958
G1 X133.278 Y105.417 E5.34134
G1 X125.693 Y97.833 E5.90172
G1 X105.770 Y97.833 E6.94259
G1 X105.770 Y142.283 E9.26488
G1 X100.655 Y142.283 E9.53214
G1 X100.655 Y92.717 E12.12168
G1 X134.345 Y92.717 E13.88184
G1 X134.345 Y129.583 E15.80787
G1 X132.043 Y129.583 E15.92815
G1 X126.928 Y124.467 E16.30611
G1 X133.218 Y124.467 E16.63473
G1 X132.319 Y124.070 F7800.000
G1 F1800
G1 X125.969 Y117.720 E17.05545
G1 X132.319 Y117.720 E17.35294
G1 X125.969 Y111.370 E17.77366
G1 X132.319 Y111.370 E18.07115
G1 X125.969 Y105.020 E18.49187
G1 X132.319 Y105.020 E18.78936
G1 X125.529 Y98.230 E19.23924
G1 X106.168 Y98.230 E20.14629
G1 X106.168 Y142.680 E22.22874
G1 X100.257 Y142.680 E22.50562
G1 X100.257 Y92.320 E24.86496
G1 X134.743 Y92.320 E26.48055
G1 X134.743 Y129.980 E28.24490
G1 X131.879 Y129.980 E28.37907
G1 X125.969 Y124.070 E28.77064
G1 X132.259 Y124.070 E29.06532
G1 X132.527 Y123.729 F7800.000
G1 X133.670 Y125.468 F7800.000
G1 F1200
G1 X133.344 Y125.142 E29.09179
G1 X132.693 Y125.142 E29.12916
G1 X133.670 Y126.119 E29.20849
G1 X133.670 Y126.770 E29.24587
G1 X132.042 Y125.142 E29.37806
G1 X131.391 Y125.142 E29.41544
G1 X133.670 Y127.421 E29.60049
G1 X133.670 Y128.072 E29.63786
G1 X130.740 Y125.142 E29.87577
G1 X130.089 Y125.142 E29.91315
G1 X133.670 Y128.723 E30.20392
G1 X133.670 Y128.908 E30.21453
G1 X133.204 Y128.908 E30.24130
G1 X129.438 Y125.142 E30.54708
G1 X128.787 Y125.142 E30.58446
G1 X132.553 Y128.908 E30.89023
G1 X129.113 Y125.468 E31.16955
G1 E29.16955 F2400.00000
G92 E0
G1 X129.113 Y119.118 F7800.000
G1 E2.00000 F2400.00000
G1 F1200
G1 X133.670 Y123.675 E2.37004
G1 X128.787 Y118.792 E2.76654
G1 X129.438 Y118.792 E2.80392
G1 X133.670 Y123.024 E3.14755
G1 X133.670 Y122.373 E3.18493
G1 X130.089 Y118.792 E3.47570
G1 X130.740 Y118.792 E3.51308
G1 X133.670 Y121.722 E3.75099
G1 X133.670 Y121.071 E3.78836
G1 X131.391 Y118.792 E3.97341
G1 X132.042 Y118.792 E4.01079
G1 X133.670 Y120.420 E4.14298
G1 X133.670 Y119.769 E4.18036
G1 X132.693 Y118.792 E4.25969
G1 X133.344 Y118.792 E4.29706
G1 X133.670 Y119.118 E4.32353
G1 X133.670 Y112.768 F7800.000
G1 F1200
G1 X133.344 Y112.442 E4.35000
G1 X132.693 Y112.442 E4.38738
G1 X133.670 Y113.419 E4.46670
G1 X133.670 Y114.070 E4.50408
G1 X132.042 Y112.442 E4.63627
G1 X131.391 Y112.442 E4.67365
G1 X133.670 Y114.721 E4.85870
G1 X133.670 Y115.372 E4.89607
G1 X130.740 Y112.442 E5.13398
G1 X130.089 Y112.442 E5.17136
G1 X133.670 Y116.023 E5.46213
G1 X133.670 Y116.674 E5.49951
G1 X129.438 Y112.442 E5.84314
G1 X128.787 Y112.442 E5.88052
G1 X133.670 Y117.325 E6.27702
G1 X129.113 Y112.768 E6.64706
G1 E4.64706 F2400.00000
G92 E0
G1 X129.113 Y106.418 F7800.000
G1 E2.00000 F2400.00000
G1 F1200
G1 X133.670 Y110.975 E2.37004
G1 X128.787 Y106.092 E2.76654
G1 X129.438 Y106.092 E2.80392
G1 X133.670 Y110.324 E3.14755
G1 X133.670 Y109.673 E3.18493
G1 X130.089 Y106.092 E3.47570
G1 X130.740 Y106.092 E3.51308
G1 X133.670 Y109.022 E3.75099
G1 X133.670 Y108.371 E3.78836
G1 X131.391 Y106.092 E3.97341
G1 X132.042 Y106.092 E4.01079
G1 X133.670 Y107.720 E4.14298
G1 X133.670 Y107.069 E4.18036
G1 X132.693 Y106.092 E4.25968
G1 X133.344 Y106.092 E4.29706
G1 X133.670 Y106.418 E4.32353
G1 X133.670 Y93.718 F7800.000
G1 F1200
G1 X133.344 Y93.392 E4.34777
G1 X132.748 Y93.392 E4.37913
G1 X133.670 Y94.314 E4.44772
G1 X133.670 Y94.911 E4.47908
G1 X132.152 Y93.392 E4.59203
G1 X131.556 Y93.392 E4.62339
G1 X133.670 Y95.507 E4.78068
G1 X133.670 Y96.103 E4.81204
G1 X130.959 Y93.392 E5.01368
G1 X130.363 Y93.392 E5.04504
G1 X133.670 Y96.700 E5.29103
G1 X133.670 Y97.296 E5.32239
G1 X129.767 Y93.392 E5.61273
G1 X129.170 Y93.392 E5.64409
G1 X133.670 Y97.892 E5.97878
G1 X133.670 Y98.488 E6.01014
G1 X128.574 Y93.392 E6.38918
G1 X127.978 Y93.392 E6.42054
G1 X133.670 Y99.085 E6.84393
G1 X133.670 Y99.681 E6.87529
G1 X127.381 Y93.392 E7.34302
G1 X126.785 Y93.392 E7.37438
G1 X133.670 Y100.277 E7.88647
G1 X133.670 Y100.874 E7.91783
G1 X126.189 Y93.392 E8.47427
G1 X125.593 Y93.392 E8.50563
G1 X133.670 Y101.470 E9.10642
G1 X133.670 Y102.066 E9.13778
G1 X124.996 Y93.392 E9.78291
G1 X124.400 Y93.392 E9.81427
G1 X133.670 Y102.663 E10.50376
G1 X133.670 Y103.259 E10.53512
G1 X123.804 Y93.392 E11.26895
G1 X123.207 Y93.392 E11.30031
G1 X133.670 Y103.855 E12.07850
G1 X133.670 Y104.451 E12.10986
G1 X122.611 Y93.392 E12.93239
G1 X122.015 Y93.392 E12.96375
G1 X125.781 Y97.158 E13.24384
G1 X125.184 Y97.158 E13.27520
G1 X121.418 Y93.392 E13.55528
G1 X120.822 Y93.392 E13.58664
G1 X124.588 Y97.158 E13.86672
G1 X123.992 Y97.158 E13.89808
G1 X120.226 Y93.392 E14.17816
G1 X119.629 Y93.392 E14.20952
G1 X123.395 Y97.158 E14.48960
G1 X122.799 Y97.158 E14.52096
G1 X119.033 Y93.392 E14.80104
G1 X118.437 Y93.392 E14.83240
G1 X122.203 Y97.158 E15.11248
G1 X121.606 Y97.158 E15.14384
G1 X117.841 Y93.392 E15.42393
G1 X117.244 Y93.392 E15.45529
G1 X121.010 Y97.158 E15.73537
G1 X120.414 Y97.158 E15.76673
G1 X116.648 Y93.392 E16.04681
G1 X116.052 Y93.392 E16.07817
G1 X119.818 Y97.158 E16.35825
G1 X119.221 Y97.158 E16.38961
G1 X115.455 Y93.392 E16.66969
G1 X114.859 Y93.392 E16.70105
G1 X118.625 Y97.158 E16.98113
G1 X118.029 Y97.158 E17.01249
G1 X114.263 Y93.392 E17.29257
G1 X113.666 Y93.392 E17.32393
G1 X117.432 Y97.158 E17.60402
G1 X116.836 Y97.158 E17.63538
G1 X113.070 Y93.392 E17.91546
G1 X112.474 Y93.392 E17.94682
G1 X116.240 Y97.158 E18.22690
G1 X115.643 Y97.158 E18.25826
G1 X111.878 Y93.392 E18.53834
G1 X111.281 Y93.392 E18.56970
G1 X115.047 Y97.158 E18.84978
G1 X114.451 Y97.158 E18.88114
G1 X110.685 Y93.392 E19.16122
G1 X110.089 Y93.392 E19.19258
G1 X113.854 Y97.158 E19.47266
G1 X113.258 Y97.158 E19.50402
G1 X109.492 Y93.392 E19.78411
G1 X108.896 Y93.392 E19.81546
G1 X112.662 Y97.158 E20.09555
G1 X112.066 Y97.158 E20.12691
G1 X108.300 Y93.392 E20.40699
G1 X107.703 Y93.392 E20.43835
G1 X111.469 Y97.158 E20.71843
G1 X110.873 Y97.158 E20.74979
G1 X107.107 Y93.392 E21.02987
G1 X106.511 Y93.392 E21.06123
G1 X110.277 Y97.158 E21.34131
G1 X109.680 Y97.158 E21.37267
G1 X105.915 Y93.392 E21.65275
G1 X105.318 Y93.392 E21.68411
G1 X109.084 Y97.158 E21.96419
G1 X108.488 Y97.158 E21.99555
G1 X104.722 Y93.392 E22.27564
G1 X104.126 Y93.392 E22.30700
G1 X107.891 Y97.158 E22.58708
G1 X107.295 Y97.158 E22.61844
G1 X103.529 Y93.392 E22.89852
G1 X102.933 Y93.392 E22.92988
G1 X106.699 Y97.158 E23.20996
G1 X106.103 Y97.158 E23.24132
G1 X102.337 Y93.392 E23.52140
G1 X101.740 Y93.392 E23.55276
G1 X105.506 Y97.158 E23.83284
G1 X105.095 Y97.158 E23.85445
G1 X105.095 Y97.343 E23.86420
G1 X101.330 Y93.578 E24.14428
G1 X101.330 Y94.174 E24.17564
G1 X105.095 Y97.940 E24.45573
G1 X105.095 Y98.536 E24.48709
G1 X101.330 Y94.770 E24.76717
G1 X101.330 Y95.366 E24.79853
G1 X105.095 Y99.132 E25.07861
G1 X105.095 Y99.729 E25.10997
G1 X101.330 Y95.963 E25.39005
G1 X101.330 Y96.559 E25.42141
G1 X105.095 Y100.325 E25.70149
G1 X105.095 Y100.921 E25.73285
G1 X101.330 Y97.155 E26.01293
G1 X101.330 Y97.752 E26.04429
G1 X105.095 Y101.518 E26.32437
G1 X105.095 Y102.114 E26.35573
G1 X101.330 Y98.348 E26.63582
G1 X101.330 Y98.944 E26.66718
G1 X105.095 Y102.710 E26.94726
G1 X105.095 Y103.306 E26.97862
G1 X101.330 Y99.541 E27.25870
G1 X101.330 Y100.137 E27.29006
G1 X105.095 Y103.903 E27.57014
G1 X105.095 Y104.499 E27.60150
G1 X101.330 Y100.733 E27.88158
G1 X101.330 Y101.330 E27.91294
G1 X105.095 Y105.095 E28.19302
G1 X105.095 Y105.692 E28.22438
G1 X101.330 Y101.926 E28.50446
G1 X101.330 Y102.522 E28.53582
G1 X105.095 Y106.288 E28.81591
G1 X105.095 Y106.884 E28.84727
G1 X101.330 Y103.118 E29.12735
G1 X101.330 Y103.715 E29.15871
G1 X105.095 Y107.481 E29.43879
G1 X105.095 Y108.077 E29.47015
G1 X101.330 Y104.311 E29.75023
G1 X101.330 Y104.907 E29.78159
G1 X105.095 Y108.673 E30.06167
G1 X105.095 Y109.269 E30.09303
G1 X101.330 Y105.504 E30.37311
G1 X101.330 Y106.100 E30.40447
G1 X105.095 Y109.866 E30.68455
G1 X105.095 Y110.462 E30.71591
G1 X101.330 Y106.696 E30.99599
G1 X101.330 Y107.293 E31.02735
G1 X105.095 Y111.058 E31.30744
G1 X105.095 Y111.655 E31.33880
G1 X101.330 Y107.889 E31.61888
G1 X101.330 Y108.485 E31.65024
G1 X105.095 Y112.251 E31.93032
G1 X105.095 Y112.847 E31.96168
G1 X101.330 Y109.081 E32.24176
G1 X101.330 Y109.678 E32.27312
G1 X105.095 Y113.444 E32.55320
G1 X105.095 Y114.040 E32.58456
G1 X101.330 Y110.274 E32.86464
G1 X101.330 Y110.870 E32.89600
G1 X105.095 Y114.636 E33.17608
G1 X105.095 Y115.232 E33.20744
G1 X101.330 Y111.467 E33.48753
G1 X101.330 Y112.063 E33.51889
G1 X105.095 Y115.829 E33.79897
G1 X105.095 Y116.425 E33.83033
G1 X101.330 Y112.659 E34.11041
G1 X101.330 Y113.256 E34.14177
G1 X105.095 Y117.021 E34.42185
G1 X105.095 Y117.618 E34.45321
G1 X101.330 Y113.852 E34.73329
G1 X101.330 Y114.448 E34.76465
G1 X105.095 Y118.214 E35.04473
G1 X105.095 Y118.810 E35.07609
G1 X101.330 Y115.044 E35.35617
G1 X101.330 Y115.641 E35.38753
G1 X105.095 Y119.407 E35.66762
G1 X105.095 Y120.003 E35.69898
G1 X101.330 Y116.237 E35.97906
G1 X101.330 Y116.833 E36.01042
G1 X105.095 Y120.599 E36.29050
G1 X105.095 Y121.196 E36.32186
G1 X101.330 Y117.430 E36.60194
G1 X101.330 Y118.026 E36.63330
G1 X105.095 Y121.792 E36.91338
G1 X105.095 Y122.388 E36.94474
G1 X101.330 Y118.622 E37.22482
G1 X101.330 Y119.219 E37.25618
G1 X105.095 Y122.984 E37.53626
G1 X105.095 Y123.581 E37.56762
G1 X101.330 Y119.815 E37.84771
G1 X101.330 Y120.411 E37.87907
G1 X105.095 Y124.177 E38.15915
G1 X105.095 Y124.773 E38.19051
G1 X101.330 Y121.008 E38.47059
G1 X101.330 Y121.604 E38.50195
G1 X105.095 Y125.370 E38.78203
G1 X105.095 Y125.966 E38.81339
G1 X101.330 Y122.200 E39.09347
G1 X101.330 Y122.796 E39.12483
