; generated by Slic3r 1.3.0 on 2021-07-02 at 19:06:22

; external perimeters extrusion width = 0.44mm (3.38mm^3/s)
; perimeters extrusion width = 0.48mm (7.54mm^3/s)
; infill extrusion width = 0.48mm (10.05mm^3/s)
; solid infill extrusion width = 0.48mm (2.51mm^3/s)
; top infill extrusion width = 0.48mm (1.88mm^3/s)

M107
M190 S65 ; set bed temperature and wait for it to be reached
M104 S205 ; set temperature
G28 ; home all axes
G1 Z5 F5000 ; lift nozzle

; Filament gcode

M109 S205 ; set temperature and wait for it to be reached
G21 ; set units to millimeters
G90 ; use absolute coordinates
M82 ; use absolute distances for extrusion
G92 E0
G1 Z0.400 F7800.000
G1 E-2.00000 F2400.00000
G92 E0
G1 X54.736 Y44.574 F7800.000
G1 E2.00000 F2400.00000
G1 F1800
G1 X56.492 Y43.075 E2.27422
G1 X58.652 Y42.259 E2.54845
G1 X59.909 Y42.140 E2.69842
G1 X94.834 Y42.140 E6.84629
G1 X97.108 Y42.537 E7.12051
G1 X99.755 Y44.287 E7.49740
G1 X180.013 Y130.779 E21.51069
G1 X181.269 Y132.716 E21.78492
G1 X181.805 Y135.346 E22.10365
G1 X181.805 Y173.446 E26.62860
G1 X181.408 Y175.720 E26.90283
G1 X180.264 Y177.726 E27.17705
G1 X177.818 Y179.581 E27.54168
G1 X149.243 Y192.281 E31.25548
G1 X146.516 Y192.860 E31.58655
G1 X140.166 Y192.860 E32.34071
G1 X137.892 Y192.463 E32.61493
G1 X135.245 Y190.713 E32.99182
G1 X54.987 Y104.221 E47.00511
G1 X53.731 Y102.284 E47.27934
G1 X53.195 Y99.654 E47.59807
G1 X53.195 Y48.854 E53.63134
G1 X53.592 Y46.580 E53.90556
G1 X54.706 Y44.626 E54.17266
G1 E52.17266 F2400.00000
G92 E0
G1 X64.430 Y53.376 F7800.000
G1 E2.00000 F2400.00000
G1 F1800
G1 X64.430 Y97.826 E7.27911
G1 X61.737 Y97.826 E7.59899
G1 X61.737 Y50.683 E13.19798
G1 X93.005 Y50.683 E16.91157
G1 X93.005 Y60.315 E18.05561
G1 X86.066 Y53.376 E19.22114
G1 X64.490 Y53.376 E21.78357
G1 X65.145 Y54.090 F7800.000
G1 F1800
G1 X65.145 Y98.540 E27.06268
G1 X61.023 Y98.540 E27.55220
G1 X61.023 Y49.969 E33.32082
G1 X93.720 Y49.969 E37.20405
G1 X93.720 Y62.040 E38.63766
G1 X85.770 Y54.090 E39.97283
G1 X65.205 Y54.090 E42.41531
G1 E40.41531 F2400.00000
G92 E0
G1 X89.723 Y63.383 F7800.000
G1 E2.00000 F2400.00000
G1 F1800
G1 X93.005 Y63.383 E2.38987
G1 X93.005 Y66.665 E2.77975
G1 X89.765 Y63.425 E3.32399
G1 X87.999 Y62.669 F7800.000
G1 F1800
G1 X93.720 Y62.669 E4.00345
G1 X93.720 Y68.390 E4.68291
G1 X88.041 Y62.711 E5.63668
G1 E3.63668 F2400.00000
G92 E0
G1 X89.723 Y69.733 F7800.000
G1 E2.00000 F2400.00000
G1 F1800
G1 X93.005 Y69.733 E2.38987
G1 X93.005 Y73.015 E2.77975
G1 X89.765 Y69.775 E3.32399
G1 X87.999 Y69.019 F7800.000
G1 F1800
G1 X93.720 Y69.019 E4.00345
G1 X93.720 Y74.740 E4.68290
G1 X88.041 Y69.061 E5.63668
G1 E3.63668 F2400.00000
G92 E0
G1 X89.723 Y76.083 F7800.000
G1 E2.00000 F2400.00000
G1 F1800
G1 X93.005 Y76.083 E2.38987
G1 X93.005 Y79.365 E2.77975
G1 X89.765 Y76.125 E3.32399
G1 X87.999 Y75.369 F7800.000
G1 F1800
G1 X93.720 Y75.369 E4.00345
G1 X93.720 Y81.090 E4.68290
G1 X88.041 Y75.411 E5.63668
G1 E3.63668 F2400.00000
G92 E0
G1 X89.723 Y82.433 F7800.000
G1 E2.00000 F2400.00000
G1 F1800
G1 X93.005 Y82.433 E2.38987
G1 X93.005 Y85.126 E2.70975
G1 X92.416 Y85.126 E2.77975
G1 X89.765 Y82.475 E3.22500
G1 X87.999 Y81.719 F7800.000
G1 F1800
G1 X93.720 Y81.719 E3.90446
G1 X93.720 Y85.840 E4.39397
G1 X92.120 Y85.840 E4.58392
G1 X88.041 Y81.761 E5.26906
G1 E3.26906 F2400.00000
G92 E0
G1 X92.624 Y81.004 F7800.000
G1 E2.00000 F2400.00000
G1 F1800
G1 X86.274 Y74.654 E3.06654
G1 X92.624 Y74.654 E3.82070
G1 X86.274 Y68.304 E4.88724
G1 X92.624 Y68.304 E5.64140
G1 X86.274 Y61.954 E6.70794
G1 X92.624 Y61.954 E7.46210
G1 X85.474 Y54.804 E8.66301
G1 X65.859 Y54.804 E10.99267
G1 X65.859 Y99.254 E16.27178
G1 X60.309 Y99.254 E16.93093
G1 X60.309 Y49.254 E22.86919
G1 X94.434 Y49.254 E26.92205
G1 X94.434 Y86.554 E31.35199
G1 X91.824 Y86.554 E31.66189
G1 X86.274 Y81.004 E32.59406
G1 X92.564 Y81.004 E33.34109
G1 X92.841 Y80.668 F7800.000
G1 E31.34109 F2400.00000
G92 E0
G1 X91.646 Y83.425 F7800.000
G1 E2.00000 F2400.00000
G1 F1800
G1 X91.169 Y83.425 E2.06797
G1 X91.407 Y83.663 E2.11603
G1 X92.201 Y82.869 E2.27605
G1 X92.569 Y82.869 E2.32844
G1 X92.569 Y83.713 E2.44878
G1 X92.013 Y84.269 E2.56075
G1 E0.56075 F2400.00000
G92 E0
G1 X92.013 Y77.919 F7800.000
G1 E2.00000 F2400.00000
G1 F1800
G1 X92.569 Y77.363 E2.11197
G1 X92.569 Y76.519 E2.23231
G1 X92.201 Y76.519 E2.28470
G1 X91.407 Y77.313 E2.44472
G1 X91.169 Y77.075 E2.49278
G1 X91.646 Y77.075 E2.56075
G1 E0.56075 F2400.00000
G92 E0
G1 X92.013 Y71.569 F7800.000
G1 E2.00000 F2400.00000
G1 F1800
G1 X92.569 Y71.013 E2.11197
G1 X92.569 Y70.169 E2.23231
G1 X92.201 Y70.169 E2.28470
G1 X91.407 Y70.963 E2.44472
G1 X91.169 Y70.725 E2.49278
G1 X91.646 Y70.725 E2.56075
G1 E0.56075 F2400.00000
G92 E0
G1 X92.013 Y65.219 F7800.000
G1 E2.00000 F2400.00000
G1 F1800
G1 X92.569 Y64.663 E2.11197
G1 X92.569 Y63.819 E2.23231
G1 X92.201 Y63.819 E2.28470
G1 X91.407 Y64.613 E2.44472
G1 X91.169 Y64.375 E2.49278
G1 X91.646 Y64.375 E2.56075
G1 E0.56075 F2400.00000
G92 E0
G1 X91.880 Y58.735 F7800.000
G1 E2.00000 F2400.00000
G1 F1800
G1 X92.569 Y58.046 E2.11707
G1 X92.569 Y57.025 E2.23972
G1 X91.369 Y58.225 E2.44352
G1 X90.858 Y57.714 E2.53025
G1 X92.569 Y56.003 E2.82078
G1 X92.569 Y54.982 E2.94343
G1 X90.348 Y57.203 E3.32069
G1 X89.837 Y56.693 E3.40742
G1 X92.569 Y53.961 E3.87141
G1 X92.569 Y52.940 E3.99407
G1 X89.327 Y56.182 E4.54479
G1 X88.816 Y55.671 E4.63152
G1 X92.569 Y51.918 E5.26897
G1 X92.569 Y51.119 E5.36494
G1 X92.347 Y51.119 E5.39162
G1 X88.305 Y55.161 E6.07807
G1 X87.795 Y54.650 E6.16480
G1 X91.326 Y51.119 E6.76452
G1 X90.304 Y51.119 E6.88718
G1 X87.284 Y54.139 E7.40016
G1 X86.773 Y53.629 E7.48689
G1 X89.283 Y51.119 E7.91315
G1 X88.262 Y51.119 E8.03581
G1 X86.263 Y53.118 E8.37533
G1 X86.084 Y52.940 E8.40565
G1 X85.420 Y52.940 E8.48543
G1 X87.240 Y51.119 E8.79464
G1 X86.219 Y51.119 E8.91730
G1 X84.398 Y52.940 E9.22651
G1 X83.377 Y52.940 E9.34917
G1 X85.198 Y51.119 E9.65838
G1 X84.176 Y51.119 E9.78103
G1 X82.356 Y52.940 E10.09025
G1 X81.335 Y52.940 E10.21290
G1 X83.155 Y51.119 E10.52211
G1 X82.134 Y51.119 E10.64477
G1 X80.313 Y52.940 E10.95398
G1 X79.292 Y52.940 E11.07664
G1 X81.113 Y51.119 E11.38585
G1 X80.091 Y51.119 E11.50850
G1 X78.271 Y52.940 E11.81771
G1 X77.249 Y52.940 E11.94037
G1 X79.070 Y51.119 E12.24958
G1 X78.049 Y51.119 E12.37224
G1 X76.228 Y52.940 E12.68145
G1 X75.207 Y52.940 E12.80410
G1 X77.027 Y51.119 E13.11332
G1 X76.006 Y51.119 E13.23597
G1 X74.185 Y52.940 E13.54518
G1 X73.164 Y52.940 E13.66784
G1 X74.985 Y51.119 E13.97705
G1 X73.963 Y51.119 E14.09971
G1 X72.143 Y52.940 E14.40892
G1 X71.122 Y52.940 E14.53157
G1 X72.942 Y51.119 E14.84078
G1 X71.921 Y51.119 E14.96344
G1 X70.100 Y52.940 E15.27265
G1 X69.079 Y52.940 E15.39531
G1 X70.900 Y51.119 E15.70452
G1 X69.878 Y51.119 E15.82717
G1 X68.058 Y52.940 E16.13639
G1 X67.036 Y52.940 E16.25904
G1 X68.857 Y51.119 E16.56825
G1 X67.836 Y51.119 E16.69091
G1 X66.015 Y52.940 E17.00012
G1 X64.994 Y52.940 E17.12278
G1 X66.814 Y51.119 E17.43199
G1 X65.793 Y51.119 E17.55464
G1 X63.972 Y52.940 E17.86385
G1 X63.439 Y52.940 E17.92798
G1 X63.439 Y53.474 E17.99210
G1 E15.99210 F2400.00000
G92 E0
G1 X62.729 Y51.119 F7800.000
G1 E2.00000 F2400.00000
G1 F1800
G1 X62.173 Y51.675 E2.09438
G1 X62.173 Y52.696 E2.21703
G1 X63.750 Y51.119 E2.48487
G1 X64.772 Y51.119 E2.60753
G1 X62.173 Y53.717 E3.04882
G1 X62.173 Y54.739 E3.17148
G1 X63.994 Y52.918 E3.48069
G1 X63.994 Y53.939 E3.60335
G1 X62.173 Y55.760 E3.91256
G1 X62.173 Y56.781 E4.03521
G1 X63.994 Y54.961 E4.34442
G1 X63.994 Y55.982 E4.46708
G1 X62.173 Y57.803 E4.77629
G1 X62.173 Y58.824 E4.89895
G1 X63.994 Y57.003 E5.20816
G1 X63.994 Y58.025 E5.33081
G1 X62.173 Y59.845 E5.64003
G1 X62.173 Y60.866 E5.76268
G1 X63.994 Y59.046 E6.07189
G1 X63.994 Y60.067 E6.19455
G1 X62.173 Y61.888 E6.50376
G1 X62.173 Y62.909 E6.62642
G1 X63.994 Y61.088 E6.93563
G1 X63.994 Y62.110 E7.05828
G1 X62.173 Y63.930 E7.36749
G1 X62.173 Y64.952 E7.49015
G1 X63.994 Y63.131 E7.79936
G1 X63.994 Y64.152 E7.92202
G1 X62.173 Y65.973 E8.23123
G1 X62.173 Y66.994 E8.35388
G1 X63.994 Y65.174 E8.66310
G1 X63.994 Y66.195 E8.78575
G1 X62.173 Y68.016 E9.09496
G1 X62.173 Y69.037 E9.21762
G1 X63.994 Y67.216 E9.52683
G1 X63.994 Y68.238 E9.64948
G1 X62.173 Y70.058 E9.95870
G1 X62.173 Y71.079 E10.08135
G1 X63.994 Y69.259 E10.39056
G1 X63.994 Y70.280 E10.51322
G1 X62.173 Y72.101 E10.82243
G1 X62.173 Y73.122 E10.94509
G1 X63.994 Y71.301 E11.25430
G1 X63.994 Y72.323 E11.37695
G1 X62.173 Y74.143 E11.68616
G1 X62.173 Y75.165 E11.80882
G1 X63.994 Y73.344 E12.11803
G1 X63.994 Y74.365 E12.24069
G1 X62.173 Y76.186 E12.54990
G1 X62.173 Y77.207 E12.67255
G1 X63.994 Y75.387 E12.98177
G1 X63.994 Y76.408 E13.10442
G1 X62.173 Y78.229 E13.41363
G1 X62.173 Y79.250 E13.53629
G1 X63.994 Y77.429 E13.84550
G1 X63.994 Y78.451 E13.96816
G1 X62.173 Y80.271 E14.27737
G1 X62.173 Y81.292 E14.40002
G1 X63.994 Y79.472 E14.70923
G1 X63.994 Y80.493 E14.83189
G1 X62.173 Y82.314 E15.14110
G1 X62.173 Y83.335 E15.26376
G1 X63.994 Y81.514 E15.57297
G1 X63.994 Y82.536 E15.69563
G1 X62.173 Y84.356 E16.00484
G1 X62.173 Y85.378 E16.12749
G1 X63.994 Y83.557 E16.43670
G1 X63.994 Y84.578 E16.55936
G1 X62.173 Y86.399 E16.86857
G1 X62.173 Y87.420 E16.99123
G1 X63.994 Y85.600 E17.30044
G1 X63.994 Y86.621 E17.42309
G1 X62.173 Y88.442 E17.73231
G1 X62.173 Y89.463 E17.85496
G1 X63.994 Y87.642 E18.16417
G1 X63.994 Y88.664 E18.28683
G1 X62.173 Y90.484 E18.59604
G1 X62.173 Y91.505 E18.71870
G1 X63.994 Y89.685 E19.02791
G1 X63.994 Y90.706 E19.15056
G1 X62.173 Y92.527 E19.45977
G1 X62.173 Y93.548 E19.58243
G1 X63.994 Y91.728 E19.89164
G1 X63.994 Y92.749 E20.01430
G1 X62.173 Y94.569 E20.32351
G1 X62.173 Y95.591 E20.44616
G1 X63.994 Y93.770 E20.75538
G1 X63.994 Y94.791 E20.87803
G1 X62.173 Y96.612 E21.18724
G1 X62.173 Y97.390 E21.28064
G1 X62.417 Y97.390 E21.30990
G1 X63.994 Y95.813 E21.57773
G1 X63.994 Y96.834 E21.70039
G1 X63.438 Y97.390 E21.79475
G1 E19.79475 F2400.00000
G92 E0
G1 X144.688 Y139.867 F7800.000
G1 E2.00000 F2400.00000
G1 F1800
G1 X144.688 Y184.317 E7.27911
G1 X141.995 Y184.317 E7.59899
G1 X141.995 Y137.174 E13.19798
G1 X173.263 Y137.174 E16.91157
G1 X173.263 Y146.807 E18.05561
G1 X166.324 Y139.867 E19.22114
G1 X144.748 Y139.867 E21.78357
G1 X145.402 Y140.581 F7800.000
G1 F1800
G1 X145.402 Y185.031 E27.06268
G1 X141.280 Y185.031 E27.55220
G1 X141.280 Y136.460 E33.32082
G1 X173.977 Y136.460 E37.20405
G1 X173.977 Y148.531 E38.63766
G1 X166.028 Y140.581 E39.97283
G1 X145.462 Y140.581 E42.41531
G1 E40.41531 F2400.00000
G92 E0
G1 X169.980 Y149.874 F7800.000
G1 E2.00000 F2400.00000
G1 F1800
G1 X173.263 Y149.874 E2.38987
G1 X173.263 Y153.157 E2.77975
G1 X170.023 Y149.916 E3.32399
G1 X168.256 Y149.160 F7800.000
G1 F1800
G1 X173.977 Y149.160 E4.00345
G1 X173.977 Y154.881 E4.68291
G1 X168.298 Y149.202 E5.63668
G1 E3.63668 F2400.00000
G92 E0
G1 X169.980 Y156.224 F7800.000
G1 E2.00000 F2400.00000
G1 F1800
G1 X173.263 Y156.224 E2.38987
G1 X173.263 Y159.507 E2.77975
G1 X170.023 Y156.266 E3.32399
G1 X168.256 Y155.510 F7800.000
G1 F1800
G1 X173.977 Y155.510 E4.00345
G1 X173.977 Y161.231 E4.68290
G1 X168.298 Y155.552 E5.63668
G1 E3.63668 F2400.00000
G92 E0
G1 X169.980 Y162.574 F7800.000
G1 E2.00000 F2400.00000
G1 F1800
G1 X173.263 Y162.574 E2.38987
G1 X173.263 Y165.857 E2.77975
G1 X170.023 Y162.616 E3.32399
G1 X168.256 Y161.860 F7800.000
G1 F1800
G1 X173.977 Y161.860 E4.00345
G1 X173.977 Y167.581 E4.68290
G1 X168.298 Y161.902 E5.63668
G1 E3.63668 F2400.00000
G92 E0
G1 X169.980 Y168.924 F7800.000
G1 E2.00000 F2400.00000
G1 F1800
G1 X173.263 Y168.924 E2.38987
G1 X173.263 Y171.617 E2.70975
G1 X172.674 Y171.617 E2.77975
G1 X170.023 Y168.966 E3.22500
G1 X168.256 Y168.210 F7800.000
G1 F1800
G1 X173.977 Y168.210 E3.90446
G1 X173.977 Y172.331 E4.39397
G1 X172.378 Y172.331 E4.58392
G1 X168.298 Y168.252 E5.26906
G1 E3.26906 F2400.00000
G92 E0
G1 X172.882 Y167.496 F7800.000
G1 E2.00000 F2400.00000
G1 F1800
G1 X166.532 Y161.146 E3.06654
G1 X172.882 Y161.146 E3.82070
G1 X166.532 Y154.796 E4.88724
G1 X172.882 Y154.796 E5.64140
G1 X166.532 Y148.446 E6.70794
G1 X172.882 Y148.446 E7.46210
G1 X165.732 Y141.296 E8.66301
G1 X146.116 Y141.296 E10.99267
G1 X146.116 Y185.746 E16.27178
G1 X140.566 Y185.746 E16.93093
G1 X140.566 Y135.746 E22.86919
G1 X174.691 Y135.746 E26.92205
G1 X174.691 Y173.046 E31.35199
G1 X172.082 Y173.046 E31.66189
G1 X166.532 Y167.496 E32.59406
G1 X172.822 Y167.496 E33.34109
G1 X173.098 Y167.159 F7800.000
G1 E31.34109 F2400.00000
G92 E0
G1 X171.903 Y169.916 F7800.000
G1 E2.00000 F2400.00000
G1 F1800
G1 X171.427 Y169.916 E2.06797
G1 X171.665 Y170.154 E2.11603
G1 X172.459 Y169.360 E2.27605
G1 X172.827 Y169.360 E2.32844
G1 X172.827 Y170.205 E2.44878
G1 X172.271 Y170.760 E2.56075
G1 E0.56075 F2400.00000
G92 E0
G1 X172.271 Y164.410 F7800.000
G1 E2.00000 F2400.00000
G1 F1800
G1 X172.827 Y163.855 E2.11197
G1 X172.827 Y163.010 E2.23231
G1 X172.459 Y163.010 E2.28470
G1 X171.665 Y163.804 E2.44472
G1 X171.427 Y163.566 E2.49278
G1 X171.903 Y163.566 E2.56075
G1 E0.56075 F2400.00000
G92 E0
G1 X172.271 Y158.060 F7800.000
G1 E2.00000 F2400.00000
G1 F1800
G1 X172.827 Y157.505 E2.11197
G1 X172.827 Y156.660 E2.23231
G1 X172.459 Y156.660 E2.28470
G1 X171.665 Y157.454 E2.44472
G1 X171.427 Y157.216 E2.49278
G1 X171.903 Y157.216 E2.56075
G1 E0.56075 F2400.00000
G92 E0
G1 X172.271 Y151.710 F7800.000
G1 E2.00000 F2400.00000
G1 F1800
G1 X172.827 Y151.155 E2.11197
G1 X172.827 Y150.310 E2.23231
G1 X172.459 Y150.310 E2.28470
G1 X171.665 Y151.104 E2.44472
G1 X171.427 Y150.866 E2.49278
G1 X171.903 Y150.866 E2.56075
G1 E0.56075 F2400.00000
G92 E0
G1 X172.137 Y145.227 F7800.000
G1 E2.00000 F2400.00000
G1 F1800
G1 X172.827 Y144.537 E2.11707
G1 X172.827 Y143.516 E2.23972
G1 X171.627 Y144.716 E2.44352
G1 X171.116 Y144.205 E2.53025
G1 X172.827 Y142.495 E2.82078
G1 X172.827 Y141.473 E2.94343
G1 X170.605 Y143.695 E3.32069
G1 X170.095 Y143.184 E3.40742
G1 X172.827 Y140.452 E3.87141
G1 X172.827 Y139.431 E3.99407
G1 X169.584 Y142.673 E4.54479
G1 X169.073 Y142.163 E4.63152
G1 X172.827 Y138.410 E5.26897
G1 X172.827 Y137.610 E5.36494
G1 X172.604 Y137.610 E5.39162
G1 X168.563 Y141.652 E6.07807
G1 X168.052 Y141.141 E6.16480
G1 X171.583 Y137.610 E6.76452
G1 X170.562 Y137.610 E6.88718
G1 X167.541 Y140.631 E7.40016
G1 X167.031 Y140.120 E7.48689
G1 X169.540 Y137.610 E7.91315
G1 X168.519 Y137.610 E8.03581
G1 X166.520 Y139.609 E8.37533
G1 X166.342 Y139.431 E8.40565
G1 X165.677 Y139.431 E8.48543
G1 X167.498 Y137.610 E8.79464
G1 X166.477 Y137.610 E8.91730
G1 X164.656 Y139.431 E9.22651
G1 X163.635 Y139.431 E9.34917
G1 X165.455 Y137.610 E9.65838
G1 X164.434 Y137.610 E9.78103
G1 X162.613 Y139.431 E10.09025
G1 X161.592 Y139.431 E10.21290
G1 X163.413 Y137.610 E10.52211
G1 X162.391 Y137.610 E10.64477
G1 X160.571 Y139.431 E10.95398
G1 X159.549 Y139.431 E11.07664
G1 X161.370 Y137.610 E11.38585
G1 X160.349 Y137.610 E11.50850
G1 X158.528 Y139.431 E11.81771
G1 X157.507 Y139.431 E11.94037
G1 X159.327 Y137.610 E12.24958
G1 X158.306 Y137.610 E12.37224
G1 X156.486 Y139.431 E12.68145
G1 X155.464 Y139.431 E12.80410
G1 X157.285 Y137.610 E13.11332
G1 X156.264 Y137.610 E13.23597
G1 X154.443 Y139.431 E13.54518
G1 X153.422 Y139.431 E13.66784
G1 X155.242 Y137.610 E13.97705
G1 X154.221 Y137.610 E14.09971
G1 X152.400 Y139.431 E14.40892
G1 X151.379 Y139.431 E14.53157
G1 X153.200 Y137.610 E14.84078
G1 X152.178 Y137.610 E14.96344
G1 X150.358 Y139.431 E15.27265
G1 X149.336 Y139.431 E15.39531
G1 X151.157 Y137.610 E15.70452
G1 X150.136 Y137.610 E15.82717
G1 X148.315 Y139.431 E16.13639
G1 X147.294 Y139.431 E16.25904
G1 X149.114 Y137.610 E16.56825
G1 X148.093 Y137.610 E16.69091
G1 X146.273 Y139.431 E17.00012
G1 X145.251 Y139.431 E17.12278
G1 X147.072 Y137.610 E17.43199
G1 X146.051 Y137.610 E17.55464
G1 X144.230 Y139.431 E17.86385
G1 X143.696 Y139.431 E17.92798
G1 X143.696 Y139.965 E17.99210
G1 E15.99210 F2400.00000
G92 E0
G1 X142.987 Y137.610 F7800.000
G1 E2.00000 F2400.00000
G1 F1800
G1 X142.431 Y138.166 E2.09438
G1 X142.431 Y139.187 E2.21703
G1 X144.008 Y137.610 E2.48487
G1 X145.029 Y137.610 E2.60753
G1 X142.431 Y140.209 E3.04882
G1 X142.431 Y141.230 E3.17148
G1 X144.252 Y139.409 E3.48069
G1 X144.252 Y140.431 E3.60335
